( Made using CamBam - http://www.cambam.co.uk )
( assbot-panel 3/26/2014 1:05:22 PM )
( T16 : 3.2 )
( T103 : 0.3 )
( T106 : 1.0 )
( T202 : 1.5 )
G21 G90 G91.1 G64 G40
G0 Z3.0
( T106 : 1.0 )
T106 M6
( Pocket-logo )
G17
M3 S1000
G0 X12.7264 Y43.2377
G0 Z1.0
G1 F300.0 Z-0.4
G1 F400.0 X12.7615 Y43.2995
G3 X12.7816 Y43.2479 I1.7796 J0.6645
G3 X12.7264 Y43.2377 I0.3192 J-1.873
G1 F300.0 X12.7658 Y43.0416
G3 F400.0 X12.2865 Y42.8673 I0.3349 J-1.6667
G1 X12.8451 Y43.8526
G3 X13.0926 Y43.0749 I1.6959 J0.1114
G3 X12.7658 Y43.0416 I0.0082 J-1.7
G1 F300.0 X12.8052 Y42.8455
G3 F400.0 X11.7903 Y42.1047 I0.2955 J-1.4706
G1 X8.1898 Y35.6392
G1 X7.9594
G1 X17.6755 Y52.7796
G1 X17.3431 Y52.099
G1 X13.23 Y44.692
G3 X13.5102 Y42.8749 I1.311 J-0.728
G1 X13.1008
G3 X12.8052 Y42.8455 I0.0 J-1.5
G0 Z3.0
G0 X24.1315 Y42.8396
G0 Z1.0
G1 F300.0 Z-0.4
G3 F400.0 X24.4814 Y43.464 I-1.2745 J1.1244
G1 X24.6666 Y42.342
G3 X24.1315 Y42.8396 I-1.3981 J-0.9671
G1 F300.0 X23.9815 Y42.9719
G3 F400.0 X24.3389 Y44.1936 I-1.1245 J0.9921
G1 X23.3664 Y50.4724
G1 X23.024 Y53.5211
G1 X25.9758 Y35.6392
G1 X25.7546
G1 X24.7477 Y41.6238
G3 X23.7825 Y42.7841 I-1.4792 J-0.2489
G3 X23.9815 Y42.9719 I-0.9255 J1.1799
G0 Z3.0
G0 X22.3789 Y57.4286
G0 Z1.0
G1 F300.0 Z-0.4
G3 F400.0 X22.015 Y57.7757 I-1.2022 J-0.8963
G1 X22.3216
G1 X22.3789 Y57.4286
G1 F300.0 X22.5762 Y57.4612
G1 F400.0 X26.2115 Y35.4392
G1 X25.5855
G1 X24.5505 Y41.5906
G3 X23.2685 Y42.6749 I-1.282 J-0.2157
G1 X23.0219
G3 X24.1413 Y44.1629 I-0.1649 J1.2891
G1 X23.1681 Y50.4459
G1 X22.4682 Y56.6773
G3 X20.0089 Y57.1025 I-1.2915 J-0.1451
G1 X17.5205 Y52.0065
G1 X13.4049 Y44.5949
G3 X14.3762 Y42.6749 I1.1362 J-0.6309
G1 X13.1008
G3 X11.965 Y42.0074 I0.0 J-1.3
G1 X8.3073 Y35.4392
G1 X7.6161
G1 X20.3909 Y57.9757
G1 X22.4913
G1 X22.5762 Y57.4612
G0 Z3.0
G0 X21.7596 Y56.9192
G0 Z1.0
G1 F300.0 Z-0.4
G3 F400.0 X20.548 Y56.8392 I-0.5829 J-0.3869
G1 X18.0527 Y51.7291
G1 X13.9294 Y44.3037
G3 X14.5411 Y43.2644 I0.6116 J-0.3396
G1 X22.857
G3 X23.5484 Y44.0711 I0.0 J0.6996
G1 X22.5733 Y50.3665
G1 X21.8719 Y56.6104
G3 X21.7596 Y56.9192 I-0.6952 J-0.0781
G1 F300.0 X21.5933 Y56.8088
G3 F400.0 X20.7274 Y56.7517 I-0.4166 J-0.2765
G1 X18.2298 Y51.6367
G1 X14.1039 Y44.2068
G3 X14.5411 Y43.464 I0.4371 J-0.2427
G1 X22.857
G3 X23.3511 Y44.0406 I0.0 J0.5
G1 X22.3754 Y50.3401
G1 X21.6736 Y56.5881
G3 X21.5933 Y56.8088 I-0.4969 J-0.0558
G1 F300.0 X21.9262 Y57.0298
G2 F400.0 X22.0707 Y56.6327 I-0.7495 J-0.4975
G1 X22.7716 Y50.393
G1 X23.746 Y44.1017
G2 X22.857 Y43.0644 I-0.889 J-0.1377
G1 X14.5411
G2 X13.7546 Y44.4008 I0.0 J0.8996
G1 X17.8753 Y51.8215
G1 X20.3683 Y56.927
G2 X21.9262 Y57.0298 I0.8084 J-0.3947
G1 F300.0 X22.0928 Y57.1404
G2 F400.0 X22.2694 Y56.655 I-0.9162 J-0.6081
G1 X22.9698 Y50.4195
G1 X23.9437 Y44.1323
G2 X22.857 Y42.8644 I-1.0866 J-0.1683
G1 X14.5411
G2 X13.5797 Y44.4978 I0.0 J1.0996
G1 X17.6979 Y51.914
G1 X20.1886 Y57.0148
G2 X22.0928 Y57.1404 I0.9881 J-0.4825
G0 Z3.0
G0 X22.8123 Y57.2591
G0 Z1.0
G1 F300.0 Z-0.4
G1 F400.0 X26.4473 Y35.2392
G1 X25.4163
G1 X24.3533 Y41.5574
G3 X23.2685 Y42.4749 I-1.0848 J-0.1825
G1 X13.1008
G3 X12.1397 Y41.9101 I0.0 J-1.1
G1 X8.4249 Y35.2392
G1 X7.2729
G1 X20.2744 Y58.1757
G1 X22.661
G1 X22.8123 Y57.2591
G1 F300.0 X23.0096 Y57.2917
G1 F400.0 X26.683 Y35.0392
G1 X25.2471
G1 X24.1561 Y41.5242
G3 X23.2685 Y42.2749 I-0.8875 J-0.1493
G1 X13.1008
G3 X12.3145 Y41.8128 I0.0 J-0.9
G1 X8.5424 Y35.0392
G1 X6.9296
G1 X20.1579 Y58.3757
G1 X22.8307
G1 X23.0096 Y57.2917
G1 F300.0 X23.207 Y57.3243
G1 F400.0 X26.9187 Y34.8392
G1 X25.078
G1 X23.9588 Y41.4911
G3 X23.2685 Y42.0749 I-0.6903 J-0.1161
G1 X13.1008
G3 X12.4892 Y41.7155 I0.0 J-0.7
G1 X8.66 Y34.8392
G1 X6.5863
G1 X20.0414 Y58.5757
G1 X23.0004
G1 X23.207 Y57.3243
G1 F300.0 X23.4043 Y57.3568
G1 F400.0 X27.1544 Y34.6392
G1 X24.9088
G1 X23.7616 Y41.4579
G3 X23.2685 Y41.8749 I-0.4931 J-0.083
G1 X13.1008
G3 X12.6639 Y41.6182 I0.0 J-0.5
G1 X8.7775 Y34.6392
G1 X6.2431
G1 X19.9248 Y58.7757
G1 X23.1701
G1 X23.4043 Y57.3568
G0 Z3.0
G0 X22.3789 Y57.4286
G0 Z0.6
G1 F300.0 Z-0.5
G3 F400.0 X22.015 Y57.7757 I-1.2022 J-0.8963
G1 X22.3216
G1 X22.3789 Y57.4286
G0 Z3.0
G0 X24.4814 Y43.464
G0 Z0.6
G1 F300.0 Z-0.5
G1 F400.0 X24.6666 Y42.342
G3 X24.1315 Y42.8396 I-1.3981 J-0.9671
G3 X24.4814 Y43.464 I-1.2745 J1.1244
G1 F300.0 X24.6787 Y43.4966
G1 F400.0 X25.9758 Y35.6392
G1 X25.7546
G1 X24.7477 Y41.6238
G3 X23.7825 Y42.7841 I-1.4792 J-0.2489
G3 X24.3389 Y44.1936 I-0.9255 J1.1799
G1 X23.3664 Y50.4724
G1 X23.024 Y53.5211
G1 X24.6787 Y43.4966
G0 Z3.0
G0 X12.7816 Y43.2479
G0 Z0.6
G1 F300.0 Z-0.5
G3 F400.0 X12.7264 Y43.2377 I0.3192 J-1.873
G1 X12.7615 Y43.2995
G3 X12.7816 Y43.2479 I1.7796 J0.6645
G1 F300.0 X12.9668 Y43.3233
G3 F400.0 X13.0926 Y43.0749 I1.5742 J0.6407
G3 X12.2865 Y42.8673 I0.0082 J-1.7
G1 X12.8451 Y43.8526
G3 X12.9668 Y43.3233 I1.6959 J0.1114
G1 F300.0 X13.1521 Y43.3987
G3 F400.0 X13.5102 Y42.8749 I1.389 J0.5653
G1 X13.1008
G3 X11.7903 Y42.1047 I0.0 J-1.5
G1 X8.1898 Y35.6392
G1 X7.9594
G1 X17.6755 Y52.7796
G1 X17.3431 Y52.099
G1 X13.23 Y44.692
G3 X13.1521 Y43.3987 I1.311 J-0.728
G1 F300.0 X13.3373 Y43.4741
G3 F400.0 X14.3762 Y42.6749 I1.2037 J0.4899
G1 X13.1008
G3 X11.965 Y42.0074 I0.0 J-1.3
G1 X8.3073 Y35.4392
G1 X7.6161
G1 X20.3909 Y57.9757
G1 X22.4913
G1 X26.2115 Y35.4392
G1 X25.5855
G1 X24.5505 Y41.5906
G3 X23.2685 Y42.6749 I-1.282 J-0.2157
G1 X23.0219
G3 X24.1413 Y44.1629 I-0.1649 J1.2891
G1 X23.1681 Y50.4459
G1 X22.4682 Y56.6773
G3 X20.0089 Y57.1025 I-1.2915 J-0.1451
G1 X17.5205 Y52.0065
G1 X13.4049 Y44.5949
G3 X13.3373 Y43.4741 I1.1362 J-0.6309
G1 F300.0 X13.8931 Y43.7003
G3 F400.0 X14.5411 Y43.2644 I0.648 J0.2637
G1 X22.857
G3 X23.5484 Y44.0711 I0.0 J0.6996
G1 X22.5733 Y50.3665
G1 X21.8719 Y56.6104
G3 X20.548 Y56.8392 I-0.6952 J-0.0781
G1 X18.0527 Y51.7291
G1 X13.9294 Y44.3037
G3 X13.8931 Y43.7003 I0.6116 J-0.3396
G1 F300.0 X14.0779 Y43.7755
G3 F400.0 X14.5411 Y43.464 I0.4631 J0.1885
G1 X22.857
G3 X23.3511 Y44.0406 I0.0 J0.5
G1 X22.3754 Y50.3401
G1 X21.6736 Y56.5881
G3 X20.7274 Y56.7517 I-0.4969 J-0.0558
G1 X18.2298 Y51.6367
G1 X14.1039 Y44.2068
G3 X14.0779 Y43.7755 I0.4371 J-0.2427
G1 F300.0 X13.7078 Y43.6249
G2 F400.0 X13.7546 Y44.4008 I0.8332 J0.3391
G1 X17.8753 Y51.8215
G1 X20.3683 Y56.927
G2 X22.0707 Y56.6327 I0.8084 J-0.3947
G1 X22.7716 Y50.393
G1 X23.746 Y44.1017
G2 X22.857 Y43.0644 I-0.889 J-0.1377
G1 X14.5411
G2 X13.7078 Y43.6249 I0.0 J0.8996
G1 F300.0 X13.5226 Y43.5495
G2 F400.0 X13.5797 Y44.4978 I1.0185 J0.4145
G1 X17.6979 Y51.914
G1 X20.1886 Y57.0148
G2 X22.2694 Y56.655 I0.9881 J-0.4825
G1 X22.9698 Y50.4195
G1 X23.9437 Y44.1323
G2 X22.857 Y42.8644 I-1.0866 J-0.1683
G1 X14.5411
G2 X13.5226 Y43.5495 I0.0 J1.0996
G0 Z3.0
G0 Y42.4749
G0 Z0.9
G1 F300.0 Z-0.5
G1 F400.0 X13.1008
G3 X12.1397 Y41.9101 I0.0 J-1.1
G1 X8.4249 Y35.2392
G1 X7.2729
G1 X20.2744 Y58.1757
G1 X22.661
G1 X26.4473 Y35.2392
G1 X25.4163
G1 X24.3533 Y41.5574
G3 X23.2685 Y42.4749 I-1.0848 J-0.1825
G1 X13.5226
G1 F300.0 Y42.2749
G1 F400.0 X13.1008
G3 X12.3145 Y41.8128 I0.0 J-0.9
G1 X8.5424 Y35.0392
G1 X6.9296
G1 X20.1579 Y58.3757
G1 X22.8307
G1 X26.683 Y35.0392
G1 X25.2471
G1 X24.1561 Y41.5242
G3 X23.2685 Y42.2749 I-0.8875 J-0.1493
G1 X13.5226
G1 F300.0 Y42.0749
G1 F400.0 X13.1008
G3 X12.4892 Y41.7155 I0.0 J-0.7
G1 X8.66 Y34.8392
G1 X6.5863
G1 X20.0414 Y58.5757
G1 X23.0004
G1 X26.9187 Y34.8392
G1 X25.078
G1 X23.9588 Y41.4911
G3 X23.2685 Y42.0749 I-0.6903 J-0.1161
G1 X13.5226
G1 F300.0 Y41.8749
G1 F400.0 X13.1008
G3 X12.6639 Y41.6182 I0.0 J-0.5
G1 X8.7775 Y34.6392
G1 X6.2431
G1 X19.9248 Y58.7757
G1 X23.1701
G1 X27.1544 Y34.6392
G1 X24.9088
G1 X23.7616 Y41.4579
G3 X23.2685 Y41.8749 I-0.4931 J-0.083
G1 X13.5226
G0 Z3.0
G0 X29.0893 Y43.3093
G0 Z1.0
G1 F300.0 Z-0.4
G1 F400.0 X29.0623 Y43.6516
G3 X29.067 Y43.6242 I1.2833 J0.2076
G1 X29.1691 Y43.0689
G3 X29.2099 Y42.9066 I1.2786 J0.235
G1 X29.38 Y42.3767
G3 X29.4421 Y42.2192 I1.2378 J0.3973
G1 X29.6803 Y41.7145
G3 X29.7821 Y41.5367 I1.1757 J0.5548
G1 X30.0987 Y41.0726
G3 X30.2504 Y40.889 I1.0738 J0.7327
G1 X30.3902 Y40.7483
G1 X29.9428 Y41.1705
G1 X29.4299 Y42.0715
G1 X29.0893 Y43.3093
G0 Z3.0
G0 X41.2373 Y46.1781
G0 Z1.0
G1 F300.0 Z-0.4
G1 F400.0 X41.3895 Y45.9987
G1 X41.6242 Y45.6405
G1 X41.8053 Y45.2647
G1 X41.935 Y44.8633
G1 X41.98 Y44.6168
G1 X41.8575 Y45.0467
G3 X41.7643 Y45.2871 I-1.3464 J-0.3836
G1 X41.5506 Y45.7163
G3 X41.4266 Y45.9199 I-1.2532 J-0.6241
G1 X41.2373 Y46.1781
G1 F300.0 X41.3136 Y46.2428
G1 F400.0 X41.4698 Y46.0587
G1 X41.7114 Y45.6898
G1 X41.8984 Y45.302
G1 X42.0322 Y44.8877
G1 X42.1149 Y44.4347
G1 X42.1428 Y43.9504
G1 X42.0944 Y43.3279
G1 X41.9541 Y42.7494
G1 X41.7175 Y42.1885
G1 X41.5529 Y41.9217
G3 X41.5736 Y41.9727 I-1.1936 J0.5151
G1 X41.8157 Y42.606
G3 X41.8921 Y42.9151 I-1.2143 J0.4641
G1 X41.9728 Y43.5868
G3 X41.9768 Y43.8594 I-1.2907 J0.1551
G1 X41.934 Y44.3305
G3 X41.8896 Y44.5691 I-1.2947 J-0.1175
G1 X41.7614 Y45.0193
G3 X41.6748 Y45.2426 I-1.2503 J-0.3562
G1 X41.4611 Y45.6718
G3 X41.3459 Y45.8608 I-1.1637 J-0.5795
G1 X41.0467 Y46.269
G3 X40.8411 Y46.4903 I-1.0486 J-0.7685
G1 X40.3412 Y46.916
G3 X40.1818 Y47.0321 I-0.8429 J-0.9897
G1 X39.3801 Y47.5276
G3 X39.2893 Y47.5788 I-0.6835 J-1.1058
G1 X38.1858 Y48.1441
G3 X38.1284 Y48.1717 I-0.5927 J-1.157
G1 X36.7231 Y48.8068
G3 X36.7148 Y48.8105 I-0.5353 J-1.1847
G1 X35.6162 Y49.2977
G1 X34.7285 Y49.7146
G1 X34.0503 Y50.0602
G1 X33.6 Y50.3206
G1 X33.0563 Y50.711
G1 X32.6013 Y51.1077
G1 X32.2406 Y51.4993
G1 X31.9675 Y51.8824
G1 X31.766 Y52.2705
G1 X31.622 Y52.685
G1 X31.5332 Y53.1384
G1 X31.5027 Y53.6323
G1 X31.544 Y54.2198
G1 X31.5997 Y54.4708
G1 X31.5441 Y53.9046
G3 X31.5407 Y53.6911 I1.2938 J-0.1271
G1 X31.5652 Y53.3243
G3 X31.5904 Y53.1418 I1.2971 J0.0864
G1 X31.6637 Y52.7951
G3 X31.7179 Y52.6086 I1.2719 J0.2688
G1 X31.84 Y52.2819
G3 X31.9223 Y52.104 I1.2177 J0.4552
G1 X32.0933 Y51.7974
G3 X32.2109 Y51.6218 I1.1354 J0.6331
G1 X32.4456 Y51.3265
G3 X32.5757 Y51.1854 I1.0178 J0.8088
G1 X32.8889 Y50.8928
G3 X33.0029 Y50.7978 I0.8876 J0.9498
G1 X33.3946 Y50.5078
G3 X33.4902 Y50.4433 I0.7737 J1.0447
G1 X33.9604 Y50.1559
G3 X34.0414 Y50.1103 I0.678 J1.1092
G1 X34.529 Y49.8582
G3 X34.5664 Y49.8396 I0.597 J1.1548
G1 X35.3036 Y49.488
G3 X35.3227 Y49.4791 I0.5596 J1.1734
G1 X36.3094 Y49.0281
G3 X36.321 Y49.0228 I0.5405 J1.1823
G1 X37.5525 Y48.4744
G1 X38.5506 Y48.0207
G1 X39.3614 Y47.6279
G1 X39.983 Y47.2986
G1 X40.4037 Y47.0439
G1 X40.8229 Y46.7334
G1 X41.1747 Y46.4065
G1 X41.3136 Y46.2428
G0 Z3.0
G0 X43.3653 Y54.128
G0 Z1.0
G1 F300.0 Z-0.4
G3 F400.0 X43.3641 Y54.1329 I-1.2622 J-0.3113
G1 X43.2969 Y54.4007
G3 X43.2479 Y54.5549 I-1.261 J-0.3162
G1 X43.0891 Y54.964
G3 X43.0285 Y55.0974 I-1.2119 J-0.4703
G1 X42.8313 Y55.4733
G3 X42.7515 Y55.6057 I-1.1513 J-0.6037
G1 X42.516 Y55.9486
G3 X42.4712 Y56.0099 I-1.0715 J-0.7361
G1 X42.6032 Y55.8711
G1 X42.939 Y55.3721
G1 X43.2068 Y54.8268
G1 X43.3962 Y54.2992
G1 X43.4328 Y54.1334
G1 X43.4056 Y54.1312
G1 X43.3653 Y54.128
G1 F300.0 X43.3811 Y53.9287
G1 F400.0 X43.2009 Y53.9144
G1 X43.1906 Y53.9824
G3 X43.1701 Y54.0843 I-1.0875 J-0.1657
G1 X43.1029 Y54.3521
G3 X43.0614 Y54.4825 I-1.067 J-0.2676
G1 X42.9027 Y54.8916
G3 X42.8514 Y55.0045 I-1.0255 J-0.398
G1 X42.6542 Y55.3805
G3 X42.5867 Y55.4925 I-0.9742 J-0.5108
G1 X42.3512 Y55.8353
G3 X42.2685 Y55.9412 I-0.9067 J-0.6229
G1 X41.9946 Y56.2509
G3 X41.8923 Y56.3523 I-0.824 J-0.7288
G1 X41.5717 Y56.631
G3 X41.4594 Y56.7166 I-0.7217 J-0.8302
G1 X41.0839 Y56.9665
G3 X40.9771 Y57.0292 I-0.6094 J-0.9158
G1 X40.5466 Y57.2504
G3 X40.4492 Y57.2946 I-0.5026 J-0.9785
G1 X39.9637 Y57.4869
G3 X39.8695 Y57.5194 I-0.4052 J-1.0226
G1 X39.3413 Y57.6751
G3 X39.245 Y57.6988 I-0.311 J-1.0551
G1 X38.6863 Y57.8101
G3 X38.5953 Y57.8242 I-0.2147 J-1.0788
G1 X38.006 Y57.891
G3 X37.9217 Y57.8972 I-0.1238 J-1.093
G1 X37.3019 Y57.9195
G3 X37.197 Y57.9183 I-0.0395 J-1.0993
G1 X36.1424 Y57.8554
G3 X35.9895 Y57.8355 I0.0654 J-1.0981
G1 X35.0587 Y57.6471
G3 X34.878 Y57.5941 I0.2183 J-1.0781
G1 X34.0711 Y57.28
G3 X33.8747 Y57.1799 I0.399 J-1.0251
G1 X33.1916 Y56.7402
G3 X33.0092 Y56.5931 I0.5954 J-0.925
G1 X32.5939 Y56.1778
G3 X32.437 Y55.9799 I0.7778 J-0.7778
G1 X32.1404 Y55.5019
G3 X32.0303 Y55.2658 I0.9347 J-0.5799
G1 X31.8523 Y54.7249
G3 X31.8025 Y54.4887 I1.0449 J-0.3438
G1 X31.7431 Y53.885
G3 X31.7403 Y53.7044 I1.0947 J-0.1076
G1 X31.7647 Y53.3375
G3 X31.7861 Y53.1832 I1.0976 J0.0731
G1 X31.8593 Y52.8364
G3 X31.9052 Y52.6787 I1.0762 J0.2274
G1 X32.0273 Y52.352
G3 X32.097 Y52.2014 I1.0304 J0.3852
G1 X32.268 Y51.8948
G3 X32.3675 Y51.7462 I0.9607 J0.5357
G1 X32.6021 Y51.4509
G3 X32.7123 Y51.3316 I0.8612 J0.6843
G1 X33.0254 Y51.0389
G3 X33.1219 Y50.9586 I0.7511 J0.8037
G1 X33.5136 Y50.6685
G3 X33.5945 Y50.614 I0.6546 J0.884
G1 X34.0647 Y50.3265
G3 X34.1332 Y50.2879 I0.5737 J0.9385
G1 X34.6209 Y50.0358
G3 X34.6525 Y50.0201 I0.5052 J0.9771
G1 X35.3897 Y49.6685
G3 X35.4059 Y49.661 I0.4735 J0.9929
G1 X36.3925 Y49.21
G3 X36.4023 Y49.2055 I0.4573 J1.0004
G1 X37.6346 Y48.6568
G1 X38.6356 Y48.2018
G1 X39.4518 Y47.8063
G1 X40.0817 Y47.4726
G1 X40.5152 Y47.2101
G1 X40.9509 Y46.8875
G1 X41.3196 Y46.545
G1 X41.6303 Y46.1786
G1 X41.8859 Y45.7885
G1 X42.0845 Y45.3765
G1 X42.2266 Y44.9367
G1 X42.3139 Y44.4585
G1 X42.3432 Y43.9484
G1 X42.2926 Y43.2963
G1 X42.1446 Y42.6865
G1 X41.8958 Y42.0966
G1 X41.5394 Y41.519
G1 X41.0871 Y40.9791
G1 X40.5515 Y40.5002
G1 X39.9245 Y40.0787
G1 X39.1997 Y39.7153
G1 X38.3916 Y39.4221
G1 X37.5151 Y39.2097
G1 X36.5667 Y39.0803
G1 X35.5535 Y39.0369
G1 X34.0221 Y39.1243
G1 X32.6769 Y39.3792
G1 X31.507 Y39.7928
G1 X30.5286 Y40.3427
G1 X29.7838 Y41.0456
G1 X29.2437 Y41.9943
G1 X28.8914 Y43.2746
G1 X28.8415 Y43.9064
G1 X29.1022 Y43.9308
G1 X29.2388 Y43.9436
G1 X29.2475 Y43.7949
G3 X29.2637 Y43.6604 I1.0981 J0.0643
G1 X29.3658 Y43.1051
G3 X29.4003 Y42.9678 I1.0819 J0.1989
G1 X29.5704 Y42.4378
G3 X29.623 Y42.3046 I1.0474 J0.3362
G1 X29.8611 Y41.7999
G3 X29.9473 Y41.6494 I0.9948 J0.4695
G1 X30.2639 Y41.1853
G3 X30.3923 Y41.03 I0.9086 J0.62
G1 X30.7979 Y40.6217
G3 X30.9399 Y40.5012 I0.7803 J0.7753
G1 X31.4345 Y40.1487
G3 X31.5745 Y40.064 I0.6383 J0.8959
G1 X32.1581 Y39.7674
G3 X32.2862 Y39.7122 I0.4984 J0.9806
G1 X32.944 Y39.4771
G3 X33.0634 Y39.4419 I0.3702 J1.0358
G1 X33.7805 Y39.2739
G3 X33.8897 Y39.2541 I0.2508 J1.071
G1 X34.6661 Y39.1533
G3 X34.7635 Y39.1451 I0.1416 J1.0909
G1 X35.5992 Y39.1115
G3 X35.7072 Y39.1125 I0.0442 J1.0991
G1 X36.8627 Y39.1796
G3 X37.0141 Y39.1991 I-0.0638 J1.0981
G1 X38.0238 Y39.4006
G3 X38.2071 Y39.454 I-0.2153 J1.0787
G1 X39.0712 Y39.7899
G3 X39.275 Y39.8948 I-0.3985 J1.0253
G1 X39.9934 Y40.365
G3 X40.1631 Y40.5018 I-0.6024 J0.9204
G1 X40.7279 Y41.0584
G3 X40.8663 Y41.2245 I-0.772 J0.7835
G1 X41.2697 Y41.8195
G3 X41.3868 Y42.0441 I-0.9104 J0.6174
G1 X41.6289 Y42.6774
G3 X41.6936 Y42.939 I-1.0275 J0.3927
G1 X41.7743 Y43.6107
G3 X41.7776 Y43.8413 I-1.0921 J0.1312
G1 X41.7349 Y44.3124
G3 X41.6973 Y44.5144 I-1.0955 J-0.0994
G1 X41.569 Y44.9645
G3 X41.4958 Y45.1534 I-1.0579 J-0.3014
G1 X41.2821 Y45.5826
G3 X41.1846 Y45.7425 I-0.9847 J-0.4903
G1 X40.8854 Y46.1508
G3 X40.7114 Y46.338 I-0.8872 J-0.6502
G1 X40.2115 Y46.7637
G3 X40.0766 Y46.862 I-0.7132 J-0.8375
G1 X39.2749 Y47.3575
G3 X39.1981 Y47.4008 I-0.5783 J-0.9357
G1 X38.0946 Y47.9661
G3 X38.0461 Y47.9894 I-0.5015 J-0.979
G1 X36.6407 Y48.6245
G3 X36.6337 Y48.6277 I-0.453 J-1.0024
G1 X35.5332 Y49.1157
G1 X34.6406 Y49.5349
G1 X33.9548 Y49.8844
G1 X33.4913 Y50.1524
G1 X32.932 Y50.5541
G1 X32.4616 Y50.9642
G1 X32.085 Y51.373
G1 X31.7965 Y51.7778
G1 X31.5819 Y52.1911
G1 X31.4285 Y52.6327
G1 X31.3344 Y53.1129
G1 X31.3023 Y53.6331
G1 X31.3456 Y54.2487
G1 X31.4718 Y54.8172
G1 X31.6808 Y55.3527
G1 X31.9746 Y55.8603
G1 X32.3481 Y56.3226
G1 X32.8034 Y56.7306
G1 X33.3546 Y57.0915
G1 X34.0134 Y57.4046
G1 X34.7601 Y57.6589
G1 X35.5671 Y57.8438
G1 X36.4336 Y57.9563
G1 X37.3588 Y57.9943
G1 X38.4588 Y57.9463
G1 X39.4464 Y57.8057
G1 X40.3222 Y57.5776
G1 X41.0959 Y57.2652
G1 X41.7656 Y56.8852
G1 X42.3186 Y56.4606
G1 X42.7597 Y55.9967
G1 X43.1125 Y55.4725
G1 X43.3912 Y54.905
G1 X43.5888 Y54.3547
G1 X43.6775 Y53.9522
G1 X43.4215 Y53.9319
G1 X43.3811 Y53.9287
G1 F300.0 X43.3969 Y53.7293
G1 F400.0 X43.0312 Y53.7003
G1 X42.9929 Y53.9522
G3 X42.9761 Y54.0356 I-0.8897 J-0.1355
G1 X42.9089 Y54.3034
G3 X42.875 Y54.4101 I-0.873 J-0.2189
G1 X42.7162 Y54.8193
G3 X42.6742 Y54.9116 I-0.839 J-0.3256
G1 X42.4771 Y55.2876
G3 X42.4218 Y55.3792 I-0.7971 J-0.418
G1 X42.1863 Y55.7221
G3 X42.1187 Y55.8087 I-0.7418 J-0.5096
G1 X41.8447 Y56.1184
G3 X41.7611 Y56.2014 I-0.6742 J-0.5963
G1 X41.4405 Y56.4801
G3 X41.3486 Y56.5501 I-0.5905 J-0.6792
G1 X40.9731 Y56.8
G3 X40.8857 Y56.8513 I-0.4986 J-0.7493
G1 X40.4552 Y57.0725
G3 X40.3755 Y57.1086 I-0.4112 J-0.8006
G1 X39.89 Y57.301
G3 X39.813 Y57.3276 I-0.3315 J-0.8367
G1 X39.2847 Y57.4833
G3 X39.206 Y57.5027 I-0.2545 J-0.8633
G1 X38.6472 Y57.6139
G3 X38.5728 Y57.6255 I-0.1757 J-0.8827
G1 X37.9835 Y57.6922
G3 X37.9145 Y57.6974 I-0.1013 J-0.8943
G1 X37.2947 Y57.7196
G3 X37.2089 Y57.7186 I-0.0323 J-0.8994
G1 X36.1543 Y57.6558
G3 X36.0292 Y57.6395 I0.0535 J-0.8984
G1 X35.0984 Y57.4511
G3 X34.9505 Y57.4077 I0.1786 J-0.8821
G1 X34.1436 Y57.0936
G3 X33.9829 Y57.0117 I0.3264 J-0.8387
G1 X33.2999 Y56.572
G3 X33.1506 Y56.4517 I0.4871 J-0.7568
G1 X32.7353 Y56.0364
G3 X32.607 Y55.8745 I0.6364 J-0.6364
G1 X32.3104 Y55.3964
G3 X32.2202 Y55.2033 I0.7648 J-0.4745
G1 X32.0423 Y54.6624
G3 X32.0015 Y54.4691 I0.8549 J-0.2813
G1 X31.9422 Y53.8655
G3 X31.9399 Y53.7177 I0.8957 J-0.088
G1 X31.9643 Y53.3508
G3 X31.9817 Y53.2245 I0.898 J0.0598
G1 X32.055 Y52.8778
G3 X32.0926 Y52.7487 I0.8806 J0.1861
G1 X32.2147 Y52.422
G3 X32.2717 Y52.2988 I0.843 J0.3152
G1 X32.4426 Y51.9922
G3 X32.5241 Y51.8706 I0.786 J0.4383
G1 X32.7587 Y51.5753
G3 X32.8488 Y51.4777 I0.7046 J0.5599
G1 X33.162 Y51.185
G3 X33.2409 Y51.1193 I0.6145 J0.6576
G1 X33.6326 Y50.8292
G3 X33.6988 Y50.7846 I0.5356 J0.7233
G1 X34.169 Y50.4972
G3 X34.2251 Y50.4656 I0.4694 J0.7679
G1 X34.7127 Y50.2135
G3 X34.7386 Y50.2006 I0.4133 J0.7995
G1 X35.4758 Y49.849
G3 X35.489 Y49.8429 I0.3874 J0.8123
G1 X36.4757 Y49.3919
G3 X36.4837 Y49.3882 I0.3742 J0.8185
G1 X37.7167 Y48.8392
G1 X38.7206 Y48.3828
G1 X39.5423 Y47.9847
G1 X40.1804 Y47.6467
G1 X40.6268 Y47.3764
G1 X41.0789 Y47.0416
G1 X41.4644 Y46.6834
G1 X41.7908 Y46.2986
G1 X42.0604 Y45.8871
G1 X42.2706 Y45.451
G1 X42.4209 Y44.9856
G1 X42.5128 Y44.4823
G1 X42.5437 Y43.9463
G1 X42.4907 Y43.2648
G1 X42.3352 Y42.6237
G1 X42.0741 Y42.0047
G1 X41.702 Y41.4016
G1 X41.2311 Y40.8396
G1 X40.6745 Y40.3419
G1 X40.0255 Y39.9056
G1 X39.2789 Y39.5313
G1 X38.4494 Y39.2303
G1 X37.5523 Y39.0129
G1 X36.5846 Y38.8809
G1 X35.552 Y38.8366
G1 X33.9977 Y38.9254
G1 X32.6246 Y39.1856
G1 X31.4241 Y39.61
G1 X30.4092 Y40.1803
G1 X29.6248 Y40.9207
G1 X29.0575 Y41.9171
G1 X28.6936 Y43.2399
G1 X28.6266 Y44.0871
G1 X29.0836 Y44.1299
G1 X29.4263 Y44.1621
G1 X29.4471 Y43.8066
G3 X29.4604 Y43.6965 I0.8985 J0.0526
G1 X29.5625 Y43.1413
G3 X29.5907 Y43.0289 I0.8852 J0.1627
G1 X29.7608 Y42.4989
G3 X29.8039 Y42.3899 I0.8569 J0.2751
G1 X30.042 Y41.8853
G3 X30.1125 Y41.7621 I0.8139 J0.3841
G1 X30.4292 Y41.298
G3 X30.5341 Y41.1709 I0.7434 J0.5073
G1 X30.9398 Y40.7627
G3 X31.056 Y40.664 I0.6384 J0.6343
G1 X31.5506 Y40.3116
G3 X31.6651 Y40.2422 I0.5223 J0.733
G1 X32.2487 Y39.9456
G3 X32.3535 Y39.9005 I0.4078 J0.8023
G1 X33.0113 Y39.6654
G3 X33.109 Y39.6366 I0.3029 J0.8475
G1 X33.8261 Y39.4687
G3 X33.9155 Y39.4524 I0.2052 J0.8763
G1 X34.6919 Y39.3517
G3 X34.7715 Y39.3449 I0.1158 J0.8925
G1 X35.6073 Y39.3113
G3 X35.6956 Y39.3121 I0.0361 J0.8993
G1 X36.8511 Y39.3793
G3 X36.975 Y39.3952 I-0.0522 J0.8985
G1 X37.9847 Y39.5967
G3 X38.1346 Y39.6404 I-0.1761 J0.8826
G1 X38.9987 Y39.9763
G3 X39.1655 Y40.0621 I-0.3261 J0.8389
G1 X39.8839 Y40.5323
G3 X40.0227 Y40.6443 I-0.4929 J0.753
G1 X40.5875 Y41.2008
G3 X40.7007 Y41.3368 I-0.6317 J0.6411
G1 X41.1042 Y41.9317
G3 X41.2 Y42.1155 I-0.7449 J0.5051
G1 X41.4421 Y42.7488
G3 X41.495 Y42.9628 I-0.8407 J0.3213
G1 X41.5757 Y43.6345
G3 X41.5784 Y43.8232 I-0.8936 J0.1074
G1 X41.5357 Y44.2943
G3 X41.5049 Y44.4596 I-0.8963 J-0.0813
G1 X41.3767 Y44.9097
G3 X41.3168 Y45.0643 I-0.8656 J-0.2466
G1 X41.103 Y45.4935
G3 X41.0233 Y45.6243 I-0.8056 J-0.4012
G1 X40.7241 Y46.0326
G3 X40.5817 Y46.1857 I-0.7259 J-0.532
G1 X40.0819 Y46.6115
G3 X39.9715 Y46.6918 I-0.5835 J-0.6852
G1 X39.1698 Y47.1873
G3 X39.107 Y47.2228 I-0.4732 J-0.7656
G1 X38.0034 Y47.7881
G3 X37.9637 Y47.8072 I-0.4103 J-0.801
G1 X36.5584 Y48.4423
G3 X36.5526 Y48.4448 I-0.3706 J-0.8201
G1 X35.4501 Y48.9338
G1 X34.5526 Y49.3553
G1 X33.8592 Y49.7086
G1 X33.3827 Y49.9842
G1 X32.8077 Y50.3972
G1 X32.3219 Y50.8206
G1 X31.9294 Y51.2467
G1 X31.6255 Y51.6732
G1 X31.3977 Y52.1118
G1 X31.2349 Y52.5804
G1 X31.1356 Y53.0874
G1 X31.1019 Y53.634
G1 X31.1471 Y54.2775
G1 X31.2798 Y54.8756
G1 X31.5001 Y55.4396
G1 X31.8093 Y55.974
G1 X32.2027 Y56.4608
G1 X32.6812 Y56.8896
G1 X33.2565 Y57.2663
G1 X33.938 Y57.5902
G1 X34.7054 Y57.8515
G1 X35.5318 Y58.0409
G1 X36.4165 Y58.1558
G1 X37.359 Y58.1945
G1 X38.4773 Y58.1457
G1 X39.4858 Y58.0021
G1 X40.3851 Y57.7679
G1 X41.1831 Y57.4457
G1 X41.8764 Y57.0523
G1 X42.4528 Y56.6097
G1 X42.9162 Y56.1223
G1 X43.286 Y55.5729
G1 X43.5757 Y54.9831
G1 X43.7813 Y54.4103
G1 X43.9004 Y53.8703
G1 X43.908 Y53.7698
G1 X43.4373 Y53.7325
G1 X43.3969 Y53.7293
G1 F300.0 X43.4128 Y53.5299
G1 F400.0 X42.8546 Y53.4856
G1 X42.8489 Y53.5573
G3 X42.8431 Y53.6072 I-0.6978 J-0.0555
G1 X42.7951 Y53.9221
G3 X42.7821 Y53.987 I-0.692 J-0.1054
G1 X42.7149 Y54.2548
G3 X42.6885 Y54.3378 I-0.679 J-0.1703
G1 X42.5298 Y54.7469
G3 X42.4971 Y54.8187 I-0.6526 J-0.2533
G1 X42.3 Y55.1947
G3 X42.257 Y55.266 I-0.6199 J-0.3251
G1 X42.0215 Y55.6088
G3 X41.9688 Y55.6762 I-0.577 J-0.3964
G1 X41.6949 Y55.9859
G3 X41.6298 Y56.0504 I-0.5243 J-0.4638
G1 X41.3092 Y56.3291
G3 X41.2378 Y56.3836 I-0.4593 J-0.5283
G1 X40.8623 Y56.6335
G3 X40.7943 Y56.6734 I-0.3878 J-0.5828
G1 X40.3638 Y56.8946
G3 X40.3018 Y56.9227 I-0.3198 J-0.6227
G1 X39.8163 Y57.1151
G3 X39.7564 Y57.1357 I-0.2579 J-0.6508
G1 X39.2282 Y57.2914
G3 X39.1669 Y57.3065 I-0.1979 J-0.6714
G1 X38.6082 Y57.4178
G3 X38.5503 Y57.4268 I-0.1367 J-0.6865
G1 X37.961 Y57.4935
G3 X37.9074 Y57.4975 I-0.0788 J-0.6956
G1 X37.2876 Y57.5198
G3 X37.2208 Y57.519 I-0.0251 J-0.6995
G1 X36.1661 Y57.4562
G3 X36.0689 Y57.4435 I0.0416 J-0.6988
G1 X35.1381 Y57.255
G3 X35.0231 Y57.2213 I0.1389 J-0.6861
G1 X34.2162 Y56.9073
G3 X34.0912 Y56.8435 I0.2539 J-0.6523
G1 X33.4081 Y56.4039
G3 X33.292 Y56.3102 I0.3789 J-0.5886
G1 X32.8768 Y55.895
G3 X32.7769 Y55.7691 I0.495 J-0.495
G1 X32.4803 Y55.291
G3 X32.4102 Y55.1407 I0.5948 J-0.369
G1 X32.2323 Y54.5999
G3 X32.2005 Y54.4496 I0.6649 J-0.2188
G1 X32.1412 Y53.8459
G3 X32.1394 Y53.7309 I0.6966 J-0.0685
G1 X32.1638 Y53.3641
G3 X32.1774 Y53.2659 I0.6985 J0.0465
G1 X32.2507 Y52.9191
G3 X32.2799 Y52.8187 I0.6849 J0.1447
G1 X32.402 Y52.492
G3 X32.4463 Y52.3962 I0.6557 J0.2451
G1 X32.6173 Y52.0896
G3 X32.6806 Y51.995 I0.6114 J0.3409
G1 X32.9153 Y51.6997
G3 X32.9854 Y51.6238 I0.548 J0.4355
G1 X33.2986 Y51.3311
G3 X33.3599 Y51.28 I0.478 J0.5114
G1 X33.7516 Y50.99
G3 X33.8031 Y50.9553 I0.4166 J0.5625
G1 X34.2733 Y50.6678
G3 X34.3169 Y50.6433 I0.3651 J0.5972
G1 X34.8046 Y50.3911
G3 X34.8247 Y50.3811 I0.3215 J0.6218
G1 X35.5619 Y50.0296
G3 X35.5722 Y50.0248 I0.3013 J0.6318
G1 X36.5588 Y49.5737
G3 X36.5651 Y49.5709 I0.291 J0.6366
G1 X37.7987 Y49.0216
G1 X38.8056 Y48.5639
G1 X39.6327 Y48.1631
G1 X40.2791 Y47.8207
G1 X40.7383 Y47.5427
G1 X41.2068 Y47.1957
G1 X41.6093 Y46.8218
G1 X41.9513 Y46.4185
G1 X42.2348 Y45.9858
G1 X42.4567 Y45.5255
G1 X42.6153 Y45.0345
G1 X42.7118 Y44.5061
G1 X42.7441 Y43.9443
G1 X42.6889 Y43.2333
G1 X42.5257 Y42.5609
G1 X42.2524 Y41.9128
G1 X41.8646 Y41.2843
G1 X41.3752 Y40.7001
G1 X40.7975 Y40.1836
G1 X40.1266 Y39.7325
G1 X39.3581 Y39.3473
G1 X38.5073 Y39.0385
G1 X37.5895 Y38.8162
G1 X36.6024 Y38.6815
G1 X35.5506 Y38.6364
G1 X33.9732 Y38.7264
G1 X32.5724 Y38.9919
G1 X31.3411 Y39.4272
G1 X30.2898 Y40.018
G1 X29.4658 Y40.7957
G1 X28.8713 Y41.8399
G1 X28.4957 Y43.2052
G1 X28.4118 Y44.2678
G1 X29.0649 Y44.3291
G1 X29.6138 Y44.3805
G1 X29.6468 Y43.8183
G3 X29.6571 Y43.7327 I0.6988 J0.0409
G1 X29.7592 Y43.1774
G3 X29.7812 Y43.09 I0.6885 J0.1266
G1 X29.9513 Y42.5601
G3 X29.9847 Y42.4753 I0.6665 J0.2139
G1 X30.2229 Y41.9706
G3 X30.2777 Y41.8748 I0.633 J0.2987
G1 X30.5944 Y41.4107
G3 X30.676 Y41.3119 I0.5782 J0.3945
G1 X31.0817 Y40.9036
G3 X31.172 Y40.8269 I0.4966 J0.4934
G1 X31.6667 Y40.4745
G3 X31.7557 Y40.4205 I0.4062 J0.5701
G1 X32.3393 Y40.1239
G3 X32.4209 Y40.0888 I0.3171 J0.624
G1 X33.0786 Y39.8537
G3 X33.1546 Y39.8313 I0.2356 J0.6592
G1 X33.8717 Y39.6634
G3 X33.9412 Y39.6508 I0.1596 J0.6816
G1 X34.7176 Y39.55
G3 X34.7796 Y39.5448 I0.0901 J0.6942
G1 X35.6153 Y39.5112
G3 X35.684 Y39.5118 I0.0281 J0.6994
G1 X36.8395 Y39.579
G3 X36.9358 Y39.5913 I-0.0406 J0.6988
G1 X37.9456 Y39.7928
G3 X38.0622 Y39.8268 I-0.137 J0.6865
G1 X38.9262 Y40.1627
G3 X39.056 Y40.2295 I-0.2536 J0.6524
G1 X39.7744 Y40.6997
G3 X39.8823 Y40.7867 I-0.3834 J0.5857
G1 X40.4472 Y41.3433
G3 X40.5352 Y41.449 I-0.4913 J0.4986
G1 X40.9387 Y42.044
G3 X41.0132 Y42.1869 I-0.5793 J0.3929
G1 X41.2553 Y42.8203
G3 X41.2964 Y42.9867 I-0.6539 J0.2499
G1 X41.3771 Y43.6584
G3 X41.3792 Y43.8052 I-0.695 J0.0835
G1 X41.3365 Y44.2762
G3 X41.3126 Y44.4048 I-0.6971 J-0.0633
G1 X41.1843 Y44.8549
G3 X41.1377 Y44.9751 I-0.6732 J-0.1918
G1 X40.924 Y45.4043
G3 X40.862 Y45.5061 I-0.6266 J-0.312
G1 X40.5628 Y45.9143
G3 X40.452 Y46.0335 I-0.5646 J-0.4138
G1 X39.9522 Y46.4592
G3 X39.8663 Y46.5217 I-0.4539 J-0.5329
G1 X39.0646 Y47.0172
G3 X39.0158 Y47.0448 I-0.368 J-0.5954
G1 X37.9122 Y47.6101
G3 X37.8814 Y47.6249 I-0.3191 J-0.623
G1 X36.476 Y48.26
G3 X36.4715 Y48.262 I-0.2883 J-0.6379
G1 X35.3671 Y48.7518
G1 X34.4647 Y49.1756
G1 X33.7637 Y49.5328
G1 X33.274 Y49.816
G1 X32.6833 Y50.2402
G1 X32.1823 Y50.6771
G1 X31.7739 Y51.1204
G1 X31.4545 Y51.5685
G1 X31.2135 Y52.0325
G1 X31.0414 Y52.5281
G1 X30.9367 Y53.0619
G1 X30.9014 Y53.6348
G1 X30.9486 Y54.3063
G1 X31.0879 Y54.934
G1 X31.3193 Y55.5266
G1 X31.6439 Y56.0876
G1 X32.0572 Y56.599
G1 X32.559 Y57.0487
G1 X33.1583 Y57.4411
G1 X33.8626 Y57.7758
G1 X34.6507 Y58.0442
G1 X35.4965 Y58.238
G1 X36.3995 Y58.3553
G1 X37.3593 Y58.3947
G1 X38.4958 Y58.3451
G1 X39.5252 Y58.1985
G1 X40.448 Y57.9582
G1 X41.2703 Y57.6261
G1 X41.9872 Y57.2194
G1 X42.587 Y56.7589
G1 X43.0728 Y56.2479
G1 X43.4595 Y55.6733
G1 X43.7601 Y55.0612
G1 X43.9739 Y54.4658
G1 X44.0988 Y53.8995
G1 X44.1224 Y53.5862
G1 X44.1126 Y53.5855
G1 X43.4531 Y53.5331
G1 X43.4128 Y53.5299
G1 F300.0 X43.4286 Y53.3305
G1 F400.0 X42.8094 Y53.2814
G1 X42.6711 Y53.2704
G1 X42.6495 Y53.5414
G3 X42.6454 Y53.5771 I-0.4984 J-0.0396
G1 X42.5974 Y53.892
G3 X42.5881 Y53.9383 I-0.4943 J-0.0753
G1 X42.5209 Y54.2061
G3 X42.5021 Y54.2654 I-0.485 J-0.1216
G1 X42.3433 Y54.6745
G3 X42.32 Y54.7258 I-0.4661 J-0.1809
G1 X42.1228 Y55.1018
G3 X42.0921 Y55.1527 I-0.4428 J-0.2322
G1 X41.8566 Y55.4956
G3 X41.819 Y55.5437 I-0.4121 J-0.2831
G1 X41.5451 Y55.8534
G3 X41.4986 Y55.8995 I-0.3745 J-0.3313
G1 X41.178 Y56.1782
G3 X41.127 Y56.2171 I-0.328 J-0.3773
G1 X40.7514 Y56.467
G3 X40.7029 Y56.4955 I-0.277 J-0.4163
G1 X40.2724 Y56.7167
G3 X40.2281 Y56.7368 I-0.2285 J-0.4448
G1 X39.7427 Y56.9291
G3 X39.6999 Y56.9439 I-0.1842 J-0.4648
G1 X39.1716 Y57.0996
G3 X39.1279 Y57.1104 I-0.1414 J-0.4796
G1 X38.5691 Y57.2216
G3 X38.5278 Y57.228 I-0.0976 J-0.4904
G1 X37.9385 Y57.2948
G3 X37.9002 Y57.2976 I-0.0563 J-0.4968
G1 X37.2804 Y57.3199
G3 X37.2327 Y57.3193 I-0.0179 J-0.4997
G1 X36.178 Y57.2565
G3 X36.1086 Y57.2475 I0.0297 J-0.4991
G1 X35.1778 Y57.059
G3 X35.0956 Y57.0349 I0.0992 J-0.4901
G1 X34.2887 Y56.7209
G3 X34.1994 Y56.6754 I0.1813 J-0.466
G1 X33.5164 Y56.2357
G3 X33.4334 Y56.1688 I0.2706 J-0.4204
G1 X33.0182 Y55.7536
G3 X32.9469 Y55.6636 I0.3536 J-0.3536
G1 X32.6503 Y55.1856
G3 X32.6002 Y55.0782 I0.4249 J-0.2636
G1 X32.4222 Y54.5374
G3 X32.3996 Y54.43 I0.475 J-0.1563
G1 X32.3403 Y53.8263
G3 X32.339 Y53.7442 I0.4976 J-0.0489
G1 X32.3634 Y53.3774
G3 X32.3731 Y53.3072 I0.4989 J0.0332
G1 X32.4464 Y52.9605
G3 X32.4672 Y52.8888 I0.4892 J0.1034
G1 X32.5894 Y52.5621
G3 X32.621 Y52.4936 I0.4683 J0.1751
G1 X32.792 Y52.187
G3 X32.8372 Y52.1195 I0.4367 J0.2435
G1 X33.0719 Y51.8242
G3 X33.1219 Y51.7699 I0.3915 J0.3111
G1 X33.4351 Y51.4773
G3 X33.479 Y51.4407 I0.3414 J0.3653
G1 X33.8706 Y51.1507
G3 X33.9074 Y51.1259 I0.2976 J0.4018
G1 X34.3776 Y50.8385
G3 X34.4088 Y50.8209 I0.2608 J0.4266
G1 X34.8964 Y50.5688
G3 X34.9108 Y50.5617 I0.2296 J0.4442
G1 X35.6479 Y50.2101
G3 X35.6553 Y50.2066 I0.2152 J0.4513
G1 X36.6419 Y49.7556
G3 X36.6464 Y49.7536 I0.2079 J0.4547
G1 X37.8808 Y49.204
G1 X38.8906 Y48.7449
G1 X39.7232 Y48.3415
G1 X40.3778 Y47.9948
G1 X40.8498 Y47.7089
G1 X41.3348 Y47.3498
G1 X41.7541 Y46.9603
G1 X42.1118 Y46.5385
G1 X42.4093 Y46.0844
G1 X42.6428 Y45.6
G1 X42.8097 Y45.0834
G1 X42.9108 Y44.5299
G1 X42.9446 Y43.9423
G1 X42.887 Y43.2018
G1 X42.7163 Y42.498
G1 X42.4307 Y41.8209
G1 X42.0272 Y41.167
G1 X41.5192 Y40.5606
G1 X40.9206 Y40.0253
G1 X40.2276 Y39.5594
G1 X39.4373 Y39.1632
G1 X38.5651 Y38.8468
G1 X37.6266 Y38.6194
G1 X36.6203 Y38.482
G1 X35.5492 Y38.4361
G1 X33.9488 Y38.5275
G1 X32.5201 Y38.7983
G1 X31.2582 Y39.2444
G1 X30.1704 Y39.8557
G1 X29.3068 Y40.6708
G1 X28.6851 Y41.7627
G1 X28.2978 Y43.1705
G1 X28.1969 Y44.4486
G1 X28.3763 Y44.4654
G1 X29.0462 Y44.5282
G1 X29.7162 Y44.591
G1 X29.8175 Y44.6005
G1 X29.812 Y44.4594
G3 X29.8124 Y44.4105 I0.4996 J-0.0196
G1 X29.8465 Y43.83
G3 X29.8538 Y43.7688 I0.4991 J0.0292
G1 X29.9559 Y43.2136
G3 X29.9716 Y43.1512 I0.4918 J0.0904
G1 X30.1417 Y42.6212
G3 X30.1656 Y42.5606 I0.4761 J0.1528
G1 X30.4037 Y42.056
G3 X30.4429 Y41.9876 I0.4522 J0.2134
G1 X30.7596 Y41.5235
G3 X30.8179 Y41.4529 I0.413 J0.2818
G1 X31.2235 Y41.0446
G3 X31.2881 Y40.9898 I0.3547 J0.3524
G1 X31.7827 Y40.6374
G3 X31.8463 Y40.5988 I0.2901 J0.4072
G1 X32.4299 Y40.3022
G3 X32.4882 Y40.2772 I0.2265 J0.4457
G1 X33.1459 Y40.0421
G3 X33.2002 Y40.0261 I0.1683 J0.4708
G1 X33.9173 Y39.8581
G3 X33.9669 Y39.8491 I0.114 J0.4868
G1 X34.7433 Y39.7484
G3 X34.7876 Y39.7446 I0.0643 J0.4958
G1 X35.6233 Y39.711
G3 X35.6724 Y39.7115 I0.0201 J0.4996
G1 X36.8278 Y39.7786
G3 X36.8967 Y39.7875 I-0.029 J0.4992
G1 X37.9064 Y39.989
G3 X37.9897 Y40.0133 I-0.0979 J0.4903
G1 X38.8538 Y40.3491
G3 X38.9465 Y40.3968 I-0.1811 J0.466
G1 X39.6648 Y40.867
G3 X39.742 Y40.9292 I-0.2738 J0.4184
G1 X40.3068 Y41.4857
G3 X40.3697 Y41.5613 I-0.3509 J0.3562
G1 X40.7732 Y42.1562
G3 X40.8264 Y42.2583 I-0.4138 J0.2806
G1 X41.0685 Y42.8917
G3 X41.0978 Y43.0105 I-0.467 J0.1785
G1 X41.1785 Y43.6823
G3 X41.1801 Y43.7871 I-0.4964 J0.0596
G1 X41.1373 Y44.2582
G3 X41.1202 Y44.35 I-0.498 J-0.0452
G1 X40.992 Y44.8001
G3 X40.9587 Y44.886 I-0.4809 J-0.137
G1 X40.745 Y45.3152
G3 X40.7007 Y45.3879 I-0.4476 J-0.2229
G1 X40.4015 Y45.7961
G3 X40.3224 Y45.8812 I-0.4033 J-0.2956
G1 X39.8225 Y46.3069
G3 X39.7612 Y46.3516 I-0.3242 J-0.3807
G1 X38.9595 Y46.8471
G3 X38.9246 Y46.8668 I-0.2629 J-0.4253
G1 X37.8211 Y47.4321
G3 X37.799 Y47.4427 I-0.228 J-0.445
G1 X36.3936 Y48.0778
G3 X36.3904 Y48.0792 I-0.2059 J-0.4556
G1 X35.284 Y48.5699
G1 X34.3767 Y48.996
G1 X33.6682 Y49.357
G1 X33.1654 Y49.6478
G1 X32.559 Y50.0833
G1 X32.0426 Y50.5335
G1 X31.6183 Y50.9941
G1 X31.2835 Y51.4639
G1 X31.0293 Y51.9532
G1 X30.8478 Y52.4758
G1 X30.7379 Y53.0364
G1 X30.701 Y53.6357
G1 X30.7502 Y54.3352
G1 X30.896 Y54.9923
G1 X31.1386 Y55.6136
G1 X31.4786 Y56.2012
G1 X31.9118 Y56.7372
G1 X32.4368 Y57.2077
G1 X33.0602 Y57.6159
G1 X33.7871 Y57.9614
G1 X34.596 Y58.2368
G1 X35.4612 Y58.4351
G1 X36.3825 Y58.5548
G1 X37.3596 Y58.5949
G1 X38.5143 Y58.5445
G1 X39.5646 Y58.3949
G1 X40.5109 Y58.1485
G1 X41.3575 Y57.8066
G1 X42.098 Y57.3865
G1 X42.7212 Y56.908
G1 X43.2293 Y56.3736
G1 X43.633 Y55.7737
G1 X43.9446 Y55.1393
G1 X44.1664 Y54.5214
G1 X44.2971 Y53.9286
G1 X44.3368 Y53.4026
G1 X44.1284 Y53.3861
G1 X43.4689 Y53.3337
G1 X43.4286 Y53.3305
G0 Z3.0
G0 X43.3653 Y54.128
G0 Z0.6
G1 F300.0 Z-0.5
G3 F400.0 X43.3641 Y54.1329 I-1.2622 J-0.3113
G1 X43.2969 Y54.4007
G3 X43.2479 Y54.5549 I-1.261 J-0.3162
G1 X43.0891 Y54.964
G3 X43.0285 Y55.0974 I-1.2119 J-0.4703
G1 X42.8313 Y55.4733
G3 X42.7515 Y55.6057 I-1.1513 J-0.6037
G1 X42.516 Y55.9486
G3 X42.4712 Y56.0099 I-1.0715 J-0.7361
G1 X42.6032 Y55.8711
G1 X42.939 Y55.3721
G1 X43.2068 Y54.8268
G1 X43.3962 Y54.2992
G1 X43.4328 Y54.1334
G1 X43.4056 Y54.1312
G1 X43.3653 Y54.128
G0 Z3.0
G0 X41.2373 Y46.1781
G0 Z0.6
G1 F300.0 Z-0.5
G1 F400.0 X41.3895 Y45.9987
G1 X41.6242 Y45.6405
G1 X41.8053 Y45.2647
G1 X41.935 Y44.8633
G1 X41.98 Y44.6168
G1 X41.8575 Y45.0467
G3 X41.7643 Y45.2871 I-1.3464 J-0.3836
G1 X41.5506 Y45.7163
G3 X41.4266 Y45.9199 I-1.2532 J-0.6241
G1 X41.2373 Y46.1781
G1 F300.0 X41.3136 Y46.2428
G1 F400.0 X41.4698 Y46.0587
G1 X41.7114 Y45.6898
G1 X41.8984 Y45.302
G1 X42.0322 Y44.8877
G1 X42.1149 Y44.4347
G1 X42.1428 Y43.9504
G1 X42.0944 Y43.3279
G1 X41.9541 Y42.7494
G1 X41.7175 Y42.1885
G1 X41.5529 Y41.9217
G3 X41.5736 Y41.9727 I-1.1936 J0.5151
G1 X41.8157 Y42.606
G3 X41.8921 Y42.9151 I-1.2143 J0.4641
G1 X41.9728 Y43.5868
G3 X41.9768 Y43.8594 I-1.2907 J0.1551
G1 X41.934 Y44.3305
G3 X41.8896 Y44.5691 I-1.2947 J-0.1175
G1 X41.7614 Y45.0193
G3 X41.6748 Y45.2426 I-1.2503 J-0.3562
G1 X41.4611 Y45.6718
G3 X41.3459 Y45.8608 I-1.1637 J-0.5795
G1 X41.0467 Y46.269
G3 X40.8411 Y46.4903 I-1.0486 J-0.7685
G1 X40.3412 Y46.916
G3 X40.1818 Y47.0321 I-0.8429 J-0.9897
G1 X39.3801 Y47.5276
G3 X39.2893 Y47.5788 I-0.6835 J-1.1058
G1 X38.1858 Y48.1441
G3 X38.1284 Y48.1717 I-0.5927 J-1.157
G1 X36.7231 Y48.8068
G3 X36.7148 Y48.8105 I-0.5353 J-1.1847
G1 X35.6162 Y49.2977
G1 X34.7285 Y49.7146
G1 X34.0503 Y50.0602
G1 X33.6 Y50.3206
G1 X33.0563 Y50.711
G1 X32.6013 Y51.1077
G1 X32.2406 Y51.4993
G1 X31.9675 Y51.8824
G1 X31.766 Y52.2705
G1 X31.622 Y52.685
G1 X31.5332 Y53.1384
G1 X31.5027 Y53.6323
G1 X31.544 Y54.2198
G1 X31.5997 Y54.4708
G1 X31.5441 Y53.9046
G3 X31.5407 Y53.6911 I1.2938 J-0.1271
G1 X31.5652 Y53.3243
G3 X31.5904 Y53.1418 I1.2971 J0.0864
G1 X31.6637 Y52.7951
G3 X31.7179 Y52.6086 I1.2719 J0.2688
G1 X31.84 Y52.2819
G3 X31.9223 Y52.104 I1.2177 J0.4552
G1 X32.0933 Y51.7974
G3 X32.2109 Y51.6218 I1.1354 J0.6331
G1 X32.4456 Y51.3265
G3 X32.5757 Y51.1854 I1.0178 J0.8088
G1 X32.8889 Y50.8928
G3 X33.0029 Y50.7978 I0.8876 J0.9498
G1 X33.3946 Y50.5078
G3 X33.4902 Y50.4433 I0.7737 J1.0447
G1 X33.9604 Y50.1559
G3 X34.0414 Y50.1103 I0.678 J1.1092
G1 X34.529 Y49.8582
G3 X34.5664 Y49.8396 I0.597 J1.1548
G1 X35.3036 Y49.488
G3 X35.3227 Y49.4791 I0.5596 J1.1734
G1 X36.3094 Y49.0281
G3 X36.321 Y49.0228 I0.5405 J1.1823
G1 X37.5525 Y48.4744
G1 X38.5506 Y48.0207
G1 X39.3614 Y47.6279
G1 X39.983 Y47.2986
G1 X40.4037 Y47.0439
G1 X40.8229 Y46.7334
G1 X41.1747 Y46.4065
G1 X41.3136 Y46.2428
G0 Z3.0
G0 X30.3902 Y40.7483
G0 Z0.6
G1 F300.0 Z-0.5
G1 F400.0 X29.9428 Y41.1705
G1 X29.4299 Y42.0715
G1 X29.0893 Y43.3093
G1 X29.0623 Y43.6516
G3 X29.067 Y43.6242 I1.2833 J0.2076
G1 X29.1691 Y43.0689
G3 X29.2099 Y42.9066 I1.2786 J0.235
G1 X29.38 Y42.3767
G3 X29.4421 Y42.2192 I1.2378 J0.3973
G1 X29.6803 Y41.7145
G3 X29.7821 Y41.5367 I1.1757 J0.5548
G1 X30.0987 Y41.0726
G3 X30.2504 Y40.889 I1.0738 J0.7327
G1 X30.3902 Y40.7483
G1 F300.0 X30.532 Y40.8893
G1 F400.0 X30.7979 Y40.6217
G3 X30.9399 Y40.5012 I0.7803 J0.7753
G1 X31.4345 Y40.1487
G3 X31.5745 Y40.064 I0.6383 J0.8959
G1 X32.1581 Y39.7674
G3 X32.2862 Y39.7122 I0.4984 J0.9806
G1 X32.944 Y39.4771
G3 X33.0634 Y39.4419 I0.3702 J1.0358
G1 X33.7805 Y39.2739
G3 X33.8897 Y39.2541 I0.2508 J1.071
G1 X34.6661 Y39.1533
G3 X34.7635 Y39.1451 I0.1416 J1.0909
G1 X35.5992 Y39.1115
G3 X35.7072 Y39.1125 I0.0442 J1.0991
G1 X36.8627 Y39.1796
G3 X37.0141 Y39.1991 I-0.0638 J1.0981
G1 X38.0238 Y39.4006
G3 X38.2071 Y39.454 I-0.2153 J1.0787
G1 X39.0712 Y39.7899
G3 X39.275 Y39.8948 I-0.3985 J1.0253
G1 X39.9934 Y40.365
G3 X40.1631 Y40.5018 I-0.6024 J0.9204
G1 X40.7279 Y41.0584
G3 X40.8663 Y41.2245 I-0.772 J0.7835
G1 X41.2697 Y41.8195
G3 X41.3868 Y42.0441 I-0.9104 J0.6174
G1 X41.6289 Y42.6774
G3 X41.6936 Y42.939 I-1.0275 J0.3927
G1 X41.7743 Y43.6107
G3 X41.7776 Y43.8413 I-1.0921 J0.1312
G1 X41.7349 Y44.3124
G3 X41.6973 Y44.5144 I-1.0955 J-0.0994
G1 X41.569 Y44.9645
G3 X41.4958 Y45.1534 I-1.0579 J-0.3014
G1 X41.2821 Y45.5826
G3 X41.1846 Y45.7425 I-0.9847 J-0.4903
G1 X40.8854 Y46.1508
G3 X40.7114 Y46.338 I-0.8872 J-0.6502
G1 X40.2115 Y46.7637
G3 X40.0766 Y46.862 I-0.7132 J-0.8375
G1 X39.2749 Y47.3575
G3 X39.1981 Y47.4008 I-0.5783 J-0.9357
G1 X38.0946 Y47.9661
G3 X38.0461 Y47.9894 I-0.5015 J-0.979
G1 X36.6407 Y48.6245
G3 X36.6337 Y48.6277 I-0.453 J-1.0024
G1 X35.5332 Y49.1157
G1 X34.6406 Y49.5349
G1 X33.9548 Y49.8844
G1 X33.4913 Y50.1524
G1 X32.932 Y50.5541
G1 X32.4616 Y50.9642
G1 X32.085 Y51.373
G1 X31.7965 Y51.7778
G1 X31.5819 Y52.1911
G1 X31.4285 Y52.6327
G1 X31.3344 Y53.1129
G1 X31.3023 Y53.6331
G1 X31.3456 Y54.2487
G1 X31.4718 Y54.8172
G1 X31.6808 Y55.3527
G1 X31.9746 Y55.8603
G1 X32.3481 Y56.3226
G1 X32.8034 Y56.7306
G1 X33.3546 Y57.0915
G1 X34.0134 Y57.4046
G1 X34.7601 Y57.6589
G1 X35.5671 Y57.8438
G1 X36.4336 Y57.9563
G1 X37.3588 Y57.9943
G1 X38.4588 Y57.9463
G1 X39.4464 Y57.8057
G1 X40.3222 Y57.5776
G1 X41.0959 Y57.2652
G1 X41.7656 Y56.8852
G1 X42.3186 Y56.4606
G1 X42.7597 Y55.9967
G1 X43.1125 Y55.4725
G1 X43.3912 Y54.905
G1 X43.5888 Y54.3547
G1 X43.6775 Y53.9522
G1 X43.4215 Y53.9319
G1 X43.2009 Y53.9144
G1 X43.1906 Y53.9824
G3 X43.1701 Y54.0843 I-1.0875 J-0.1657
G1 X43.1029 Y54.3521
G3 X43.0614 Y54.4825 I-1.067 J-0.2676
G1 X42.9027 Y54.8916
G3 X42.8514 Y55.0045 I-1.0255 J-0.398
G1 X42.6542 Y55.3805
G3 X42.5867 Y55.4925 I-0.9742 J-0.5108
G1 X42.3512 Y55.8353
G3 X42.2685 Y55.9412 I-0.9067 J-0.6229
G1 X41.9946 Y56.2509
G3 X41.8923 Y56.3523 I-0.824 J-0.7288
G1 X41.5717 Y56.631
G3 X41.4594 Y56.7166 I-0.7217 J-0.8302
G1 X41.0839 Y56.9665
G3 X40.9771 Y57.0292 I-0.6094 J-0.9158
G1 X40.5466 Y57.2504
G3 X40.4492 Y57.2946 I-0.5026 J-0.9785
G1 X39.9637 Y57.4869
G3 X39.8695 Y57.5194 I-0.4052 J-1.0226
G1 X39.3413 Y57.6751
G3 X39.245 Y57.6988 I-0.311 J-1.0551
G1 X38.6863 Y57.8101
G3 X38.5953 Y57.8242 I-0.2147 J-1.0788
G1 X38.006 Y57.891
G3 X37.9217 Y57.8972 I-0.1238 J-1.093
G1 X37.3019 Y57.9195
G3 X37.197 Y57.9183 I-0.0395 J-1.0993
G1 X36.1424 Y57.8554
G3 X35.9895 Y57.8355 I0.0654 J-1.0981
G1 X35.0587 Y57.6471
G3 X34.878 Y57.5941 I0.2183 J-1.0781
G1 X34.0711 Y57.28
G3 X33.8747 Y57.1799 I0.399 J-1.0251
G1 X33.1916 Y56.7402
G3 X33.0092 Y56.5931 I0.5954 J-0.925
G1 X32.5939 Y56.1778
G3 X32.437 Y55.9799 I0.7778 J-0.7778
G1 X32.1404 Y55.5019
G3 X32.0303 Y55.2658 I0.9347 J-0.5799
G1 X31.8523 Y54.7249
G3 X31.8025 Y54.4887 I1.0449 J-0.3438
G1 X31.7431 Y53.885
G3 X31.7403 Y53.7044 I1.0947 J-0.1076
G1 X31.7647 Y53.3375
G3 X31.7861 Y53.1832 I1.0976 J0.0731
G1 X31.8593 Y52.8364
G3 X31.9052 Y52.6787 I1.0762 J0.2274
G1 X32.0273 Y52.352
G3 X32.097 Y52.2014 I1.0304 J0.3852
G1 X32.268 Y51.8948
G3 X32.3675 Y51.7462 I0.9607 J0.5357
G1 X32.6021 Y51.4509
G3 X32.7123 Y51.3316 I0.8612 J0.6843
G1 X33.0254 Y51.0389
G3 X33.1219 Y50.9586 I0.7511 J0.8037
G1 X33.5136 Y50.6685
G3 X33.5945 Y50.614 I0.6546 J0.884
G1 X34.0647 Y50.3265
G3 X34.1332 Y50.2879 I0.5737 J0.9385
G1 X34.6209 Y50.0358
G3 X34.6525 Y50.0201 I0.5052 J0.9771
G1 X35.3897 Y49.6685
G3 X35.4059 Y49.661 I0.4735 J0.9929
G1 X36.3925 Y49.21
G3 X36.4023 Y49.2055 I0.4573 J1.0004
G1 X37.6346 Y48.6568
G1 X38.6356 Y48.2018
G1 X39.4518 Y47.8063
G1 X40.0817 Y47.4726
G1 X40.5152 Y47.2101
G1 X40.9509 Y46.8875
G1 X41.3196 Y46.545
G1 X41.6303 Y46.1786
G1 X41.8859 Y45.7885
G1 X42.0845 Y45.3765
G1 X42.2266 Y44.9367
G1 X42.3139 Y44.4585
G1 X42.3432 Y43.9484
G1 X42.2926 Y43.2963
G1 X42.1446 Y42.6865
G1 X41.8958 Y42.0966
G1 X41.5394 Y41.519
G1 X41.0871 Y40.9791
G1 X40.5515 Y40.5002
G1 X39.9245 Y40.0787
G1 X39.1997 Y39.7153
G1 X38.3916 Y39.4221
G1 X37.5151 Y39.2097
G1 X36.5667 Y39.0803
G1 X35.5535 Y39.0369
G1 X34.0221 Y39.1243
G1 X32.6769 Y39.3792
G1 X31.507 Y39.7928
G1 X30.5286 Y40.3427
G1 X29.7838 Y41.0456
G1 X29.2437 Y41.9943
G1 X28.8914 Y43.2746
G1 X28.8415 Y43.9064
G1 X29.1022 Y43.9308
G1 X29.2388 Y43.9436
G1 X29.2475 Y43.7949
G3 X29.2637 Y43.6604 I1.0981 J0.0643
G1 X29.3658 Y43.1051
G3 X29.4003 Y42.9678 I1.0819 J0.1989
G1 X29.5704 Y42.4378
G3 X29.623 Y42.3046 I1.0474 J0.3362
G1 X29.8611 Y41.7999
G3 X29.9473 Y41.6494 I0.9948 J0.4695
G1 X30.2639 Y41.1853
G3 X30.3923 Y41.03 I0.9086 J0.62
G1 X30.532 Y40.8893
G1 F300.0 X30.6739 Y41.0302
G1 F400.0 X30.9398 Y40.7627
G3 X31.056 Y40.664 I0.6384 J0.6343
G1 X31.5506 Y40.3116
G3 X31.6651 Y40.2422 I0.5223 J0.733
G1 X32.2487 Y39.9456
G3 X32.3535 Y39.9005 I0.4078 J0.8023
G1 X33.0113 Y39.6654
G3 X33.109 Y39.6366 I0.3029 J0.8475
G1 X33.8261 Y39.4687
G3 X33.9155 Y39.4524 I0.2052 J0.8763
G1 X34.6919 Y39.3517
G3 X34.7715 Y39.3449 I0.1158 J0.8925
G1 X35.6073 Y39.3113
G3 X35.6956 Y39.3121 I0.0361 J0.8993
G1 X36.8511 Y39.3793
G3 X36.975 Y39.3952 I-0.0522 J0.8985
G1 X37.9847 Y39.5967
G3 X38.1346 Y39.6404 I-0.1761 J0.8826
G1 X38.9987 Y39.9763
G3 X39.1655 Y40.0621 I-0.3261 J0.8389
G1 X39.8839 Y40.5323
G3 X40.0227 Y40.6443 I-0.4929 J0.753
G1 X40.5875 Y41.2008
G3 X40.7007 Y41.3368 I-0.6317 J0.6411
G1 X41.1042 Y41.9317
G3 X41.2 Y42.1155 I-0.7449 J0.5051
G1 X41.4421 Y42.7488
G3 X41.495 Y42.9628 I-0.8407 J0.3213
G1 X41.5757 Y43.6345
G3 X41.5784 Y43.8232 I-0.8936 J0.1074
G1 X41.5357 Y44.2943
G3 X41.5049 Y44.4596 I-0.8963 J-0.0813
G1 X41.3767 Y44.9097
G3 X41.3168 Y45.0643 I-0.8656 J-0.2466
G1 X41.103 Y45.4935
G3 X41.0233 Y45.6243 I-0.8056 J-0.4012
G1 X40.7241 Y46.0326
G3 X40.5817 Y46.1857 I-0.7259 J-0.532
G1 X40.0819 Y46.6115
G3 X39.9715 Y46.6918 I-0.5835 J-0.6852
G1 X39.1698 Y47.1873
G3 X39.107 Y47.2228 I-0.4732 J-0.7656
G1 X38.0034 Y47.7881
G3 X37.9637 Y47.8072 I-0.4103 J-0.801
G1 X36.5584 Y48.4423
G3 X36.5526 Y48.4448 I-0.3706 J-0.8201
G1 X35.4501 Y48.9338
G1 X34.5526 Y49.3553
G1 X33.8592 Y49.7086
G1 X33.3827 Y49.9842
G1 X32.8077 Y50.3972
G1 X32.3219 Y50.8206
G1 X31.9294 Y51.2467
G1 X31.6255 Y51.6732
G1 X31.3977 Y52.1118
G1 X31.2349 Y52.5804
G1 X31.1356 Y53.0874
G1 X31.1019 Y53.634
G1 X31.1471 Y54.2775
G1 X31.2798 Y54.8756
G1 X31.5001 Y55.4396
G1 X31.8093 Y55.974
G1 X32.2027 Y56.4608
G1 X32.6812 Y56.8896
G1 X33.2565 Y57.2663
G1 X33.938 Y57.5902
G1 X34.7054 Y57.8515
G1 X35.5318 Y58.0409
G1 X36.4165 Y58.1558
G1 X37.359 Y58.1945
G1 X38.4773 Y58.1457
G1 X39.4858 Y58.0021
G1 X40.3851 Y57.7679
G1 X41.1831 Y57.4457
G1 X41.8764 Y57.0523
G1 X42.4528 Y56.6097
G1 X42.9162 Y56.1223
G1 X43.286 Y55.5729
G1 X43.5757 Y54.9831
G1 X43.7813 Y54.4103
G1 X43.9004 Y53.8703
G1 X43.908 Y53.7698
G1 X43.4373 Y53.7325
G1 X43.0312 Y53.7003
G1 X42.9929 Y53.9522
G3 X42.9761 Y54.0356 I-0.8897 J-0.1355
G1 X42.9089 Y54.3034
G3 X42.875 Y54.4101 I-0.873 J-0.2189
G1 X42.7162 Y54.8193
G3 X42.6742 Y54.9116 I-0.839 J-0.3256
G1 X42.4771 Y55.2876
G3 X42.4218 Y55.3792 I-0.7971 J-0.418
G1 X42.1863 Y55.7221
G3 X42.1187 Y55.8087 I-0.7418 J-0.5096
G1 X41.8447 Y56.1184
G3 X41.7611 Y56.2014 I-0.6742 J-0.5963
G1 X41.4405 Y56.4801
G3 X41.3486 Y56.5501 I-0.5905 J-0.6792
G1 X40.9731 Y56.8
G3 X40.8857 Y56.8513 I-0.4986 J-0.7493
G1 X40.4552 Y57.0725
G3 X40.3755 Y57.1086 I-0.4112 J-0.8006
G1 X39.89 Y57.301
G3 X39.813 Y57.3276 I-0.3315 J-0.8367
G1 X39.2847 Y57.4833
G3 X39.206 Y57.5027 I-0.2545 J-0.8633
G1 X38.6472 Y57.6139
G3 X38.5728 Y57.6255 I-0.1757 J-0.8827
G1 X37.9835 Y57.6922
G3 X37.9145 Y57.6974 I-0.1013 J-0.8943
G1 X37.2947 Y57.7196
G3 X37.2089 Y57.7186 I-0.0323 J-0.8994
G1 X36.1543 Y57.6558
G3 X36.0292 Y57.6395 I0.0535 J-0.8984
G1 X35.0984 Y57.4511
G3 X34.9505 Y57.4077 I0.1786 J-0.8821
G1 X34.1436 Y57.0936
G3 X33.9829 Y57.0117 I0.3264 J-0.8387
G1 X33.2999 Y56.572
G3 X33.1506 Y56.4517 I0.4871 J-0.7568
G1 X32.7353 Y56.0364
G3 X32.607 Y55.8745 I0.6364 J-0.6364
G1 X32.3104 Y55.3964
G3 X32.2202 Y55.2033 I0.7648 J-0.4745
G1 X32.0423 Y54.6624
G3 X32.0015 Y54.4691 I0.8549 J-0.2813
G1 X31.9422 Y53.8655
G3 X31.9399 Y53.7177 I0.8957 J-0.088
G1 X31.9643 Y53.3508
G3 X31.9817 Y53.2245 I0.898 J0.0598
G1 X32.055 Y52.8778
G3 X32.0926 Y52.7487 I0.8806 J0.1861
G1 X32.2147 Y52.422
G3 X32.2717 Y52.2988 I0.843 J0.3152
G1 X32.4426 Y51.9922
G3 X32.5241 Y51.8706 I0.786 J0.4383
G1 X32.7587 Y51.5753
G3 X32.8488 Y51.4777 I0.7046 J0.5599
G1 X33.162 Y51.185
G3 X33.2409 Y51.1193 I0.6145 J0.6576
G1 X33.6326 Y50.8292
G3 X33.6988 Y50.7846 I0.5356 J0.7233
G1 X34.169 Y50.4972
G3 X34.2251 Y50.4656 I0.4694 J0.7679
G1 X34.7127 Y50.2135
G3 X34.7386 Y50.2006 I0.4133 J0.7995
G1 X35.4758 Y49.849
G3 X35.489 Y49.8429 I0.3874 J0.8123
G1 X36.4757 Y49.3919
G3 X36.4837 Y49.3882 I0.3742 J0.8185
G1 X37.7167 Y48.8392
G1 X38.7206 Y48.3828
G1 X39.5423 Y47.9847
G1 X40.1804 Y47.6467
G1 X40.6268 Y47.3764
G1 X41.0789 Y47.0416
G1 X41.4644 Y46.6834
G1 X41.7908 Y46.2986
G1 X42.0604 Y45.8871
G1 X42.2706 Y45.451
G1 X42.4209 Y44.9856
G1 X42.5128 Y44.4823
G1 X42.5437 Y43.9463
G1 X42.4907 Y43.2648
G1 X42.3352 Y42.6237
G1 X42.0741 Y42.0047
G1 X41.702 Y41.4016
G1 X41.2311 Y40.8396
G1 X40.6745 Y40.3419
G1 X40.0255 Y39.9056
G1 X39.2789 Y39.5313
G1 X38.4494 Y39.2303
G1 X37.5523 Y39.0129
G1 X36.5846 Y38.8809
G1 X35.552 Y38.8366
G1 X33.9977 Y38.9254
G1 X32.6246 Y39.1856
G1 X31.4241 Y39.61
G1 X30.4092 Y40.1803
G1 X29.6248 Y40.9207
G1 X29.0575 Y41.9171
G1 X28.6936 Y43.2399
G1 X28.6266 Y44.0871
G1 X29.0836 Y44.1299
G1 X29.4263 Y44.1621
G1 X29.4471 Y43.8066
G3 X29.4604 Y43.6965 I0.8985 J0.0526
G1 X29.5625 Y43.1413
G3 X29.5907 Y43.0289 I0.8852 J0.1627
G1 X29.7608 Y42.4989
G3 X29.8039 Y42.3899 I0.8569 J0.2751
G1 X30.042 Y41.8853
G3 X30.1125 Y41.7621 I0.8139 J0.3841
G1 X30.4292 Y41.298
G3 X30.5341 Y41.1709 I0.7434 J0.5073
G1 X30.6739 Y41.0302
G1 F300.0 X30.8158 Y41.1712
G1 F400.0 X31.0817 Y40.9036
G3 X31.172 Y40.8269 I0.4966 J0.4934
G1 X31.6667 Y40.4745
G3 X31.7557 Y40.4205 I0.4062 J0.5701
G1 X32.3393 Y40.1239
G3 X32.4209 Y40.0888 I0.3171 J0.624
G1 X33.0786 Y39.8537
G3 X33.1546 Y39.8313 I0.2356 J0.6592
G1 X33.8717 Y39.6634
G3 X33.9412 Y39.6508 I0.1596 J0.6816
G1 X34.7176 Y39.55
G3 X34.7796 Y39.5448 I0.0901 J0.6942
G1 X35.6153 Y39.5112
G3 X35.684 Y39.5118 I0.0281 J0.6994
G1 X36.8395 Y39.579
G3 X36.9358 Y39.5913 I-0.0406 J0.6988
G1 X37.9456 Y39.7928
G3 X38.0622 Y39.8268 I-0.137 J0.6865
G1 X38.9262 Y40.1627
G3 X39.056 Y40.2295 I-0.2536 J0.6524
G1 X39.7744 Y40.6997
G3 X39.8823 Y40.7867 I-0.3834 J0.5857
G1 X40.4472 Y41.3433
G3 X40.5352 Y41.449 I-0.4913 J0.4986
G1 X40.9387 Y42.044
G3 X41.0132 Y42.1869 I-0.5793 J0.3929
G1 X41.2553 Y42.8203
G3 X41.2964 Y42.9867 I-0.6539 J0.2499
G1 X41.3771 Y43.6584
G3 X41.3792 Y43.8052 I-0.695 J0.0835
G1 X41.3365 Y44.2762
G3 X41.3126 Y44.4048 I-0.6971 J-0.0633
G1 X41.1843 Y44.8549
G3 X41.1377 Y44.9751 I-0.6732 J-0.1918
G1 X40.924 Y45.4043
G3 X40.862 Y45.5061 I-0.6266 J-0.312
G1 X40.5628 Y45.9143
G3 X40.452 Y46.0335 I-0.5646 J-0.4138
G1 X39.9522 Y46.4592
G3 X39.8663 Y46.5217 I-0.4539 J-0.5329
G1 X39.0646 Y47.0172
G3 X39.0158 Y47.0448 I-0.368 J-0.5954
G1 X37.9122 Y47.6101
G3 X37.8814 Y47.6249 I-0.3191 J-0.623
G1 X36.476 Y48.26
G3 X36.4715 Y48.262 I-0.2883 J-0.6379
G1 X35.3671 Y48.7518
G1 X34.4647 Y49.1756
G1 X33.7637 Y49.5328
G1 X33.274 Y49.816
G1 X32.6833 Y50.2402
G1 X32.1823 Y50.6771
G1 X31.7739 Y51.1204
G1 X31.4545 Y51.5685
G1 X31.2135 Y52.0325
G1 X31.0414 Y52.5281
G1 X30.9367 Y53.0619
G1 X30.9014 Y53.6348
G1 X30.9486 Y54.3063
G1 X31.0879 Y54.934
G1 X31.3193 Y55.5266
G1 X31.6439 Y56.0876
G1 X32.0572 Y56.599
G1 X32.559 Y57.0487
G1 X33.1583 Y57.4411
G1 X33.8626 Y57.7758
G1 X34.6507 Y58.0442
G1 X35.4965 Y58.238
G1 X36.3995 Y58.3553
G1 X37.3593 Y58.3947
G1 X38.4958 Y58.3451
G1 X39.5252 Y58.1985
G1 X40.448 Y57.9582
G1 X41.2703 Y57.6261
G1 X41.9872 Y57.2194
G1 X42.587 Y56.7589
G1 X43.0728 Y56.2479
G1 X43.4595 Y55.6733
G1 X43.7601 Y55.0612
G1 X43.9739 Y54.4658
G1 X44.0988 Y53.8995
G1 X44.1224 Y53.5862
G1 X44.1126 Y53.5855
G1 X43.4531 Y53.5331
G1 X42.8546 Y53.4856
G1 X42.8489 Y53.5573
G3 X42.8431 Y53.6072 I-0.6978 J-0.0555
G1 X42.7951 Y53.9221
G3 X42.7821 Y53.987 I-0.692 J-0.1054
G1 X42.7149 Y54.2548
G3 X42.6885 Y54.3378 I-0.679 J-0.1703
G1 X42.5298 Y54.7469
G3 X42.4971 Y54.8187 I-0.6526 J-0.2533
G1 X42.3 Y55.1947
G3 X42.257 Y55.266 I-0.6199 J-0.3251
G1 X42.0215 Y55.6088
G3 X41.9688 Y55.6762 I-0.577 J-0.3964
G1 X41.6949 Y55.9859
G3 X41.6298 Y56.0504 I-0.5243 J-0.4638
G1 X41.3092 Y56.3291
G3 X41.2378 Y56.3836 I-0.4593 J-0.5283
G1 X40.8623 Y56.6335
G3 X40.7943 Y56.6734 I-0.3878 J-0.5828
G1 X40.3638 Y56.8946
G3 X40.3018 Y56.9227 I-0.3198 J-0.6227
G1 X39.8163 Y57.1151
G3 X39.7564 Y57.1357 I-0.2579 J-0.6508
G1 X39.2282 Y57.2914
G3 X39.1669 Y57.3065 I-0.1979 J-0.6714
G1 X38.6082 Y57.4178
G3 X38.5503 Y57.4268 I-0.1367 J-0.6865
G1 X37.961 Y57.4935
G3 X37.9074 Y57.4975 I-0.0788 J-0.6956
G1 X37.2876 Y57.5198
G3 X37.2208 Y57.519 I-0.0251 J-0.6995
G1 X36.1661 Y57.4562
G3 X36.0689 Y57.4435 I0.0416 J-0.6988
G1 X35.1381 Y57.255
G3 X35.0231 Y57.2213 I0.1389 J-0.6861
G1 X34.2162 Y56.9073
G3 X34.0912 Y56.8435 I0.2539 J-0.6523
G1 X33.4081 Y56.4039
G3 X33.292 Y56.3102 I0.3789 J-0.5886
G1 X32.8768 Y55.895
G3 X32.7769 Y55.7691 I0.495 J-0.495
G1 X32.4803 Y55.291
G3 X32.4102 Y55.1407 I0.5948 J-0.369
G1 X32.2323 Y54.5999
G3 X32.2005 Y54.4496 I0.6649 J-0.2188
G1 X32.1412 Y53.8459
G3 X32.1394 Y53.7309 I0.6966 J-0.0685
G1 X32.1638 Y53.3641
G3 X32.1774 Y53.2659 I0.6985 J0.0465
G1 X32.2507 Y52.9191
G3 X32.2799 Y52.8187 I0.6849 J0.1447
G1 X32.402 Y52.492
G3 X32.4463 Y52.3962 I0.6557 J0.2451
G1 X32.6173 Y52.0896
G3 X32.6806 Y51.995 I0.6114 J0.3409
G1 X32.9153 Y51.6997
G3 X32.9854 Y51.6238 I0.548 J0.4355
G1 X33.2986 Y51.3311
G3 X33.3599 Y51.28 I0.478 J0.5114
G1 X33.7516 Y50.99
G3 X33.8031 Y50.9553 I0.4166 J0.5625
G1 X34.2733 Y50.6678
G3 X34.3169 Y50.6433 I0.3651 J0.5972
G1 X34.8046 Y50.3911
G3 X34.8247 Y50.3811 I0.3215 J0.6218
G1 X35.5619 Y50.0296
G3 X35.5722 Y50.0248 I0.3013 J0.6318
G1 X36.5588 Y49.5737
G3 X36.5651 Y49.5709 I0.291 J0.6366
G1 X37.7987 Y49.0216
G1 X38.8056 Y48.5639
G1 X39.6327 Y48.1631
G1 X40.2791 Y47.8207
G1 X40.7383 Y47.5427
G1 X41.2068 Y47.1957
G1 X41.6093 Y46.8218
G1 X41.9513 Y46.4185
G1 X42.2348 Y45.9858
G1 X42.4567 Y45.5255
G1 X42.6153 Y45.0345
G1 X42.7118 Y44.5061
G1 X42.7441 Y43.9443
G1 X42.6889 Y43.2333
G1 X42.5257 Y42.5609
G1 X42.2524 Y41.9128
G1 X41.8646 Y41.2843
G1 X41.3752 Y40.7001
G1 X40.7975 Y40.1836
G1 X40.1266 Y39.7325
G1 X39.3581 Y39.3473
G1 X38.5073 Y39.0385
G1 X37.5895 Y38.8162
G1 X36.6024 Y38.6815
G1 X35.5506 Y38.6364
G1 X33.9732 Y38.7264
G1 X32.5724 Y38.9919
G1 X31.3411 Y39.4272
G1 X30.2898 Y40.018
G1 X29.4658 Y40.7957
G1 X28.8713 Y41.8399
G1 X28.4957 Y43.2052
G1 X28.4118 Y44.2678
G1 X29.0649 Y44.3291
G1 X29.6138 Y44.3805
G1 X29.6468 Y43.8183
G3 X29.6571 Y43.7327 I0.6988 J0.0409
G1 X29.7592 Y43.1774
G3 X29.7812 Y43.09 I0.6885 J0.1266
G1 X29.9513 Y42.5601
G3 X29.9847 Y42.4753 I0.6665 J0.2139
G1 X30.2229 Y41.9706
G3 X30.2777 Y41.8748 I0.633 J0.2987
G1 X30.5944 Y41.4107
G3 X30.676 Y41.3119 I0.5782 J0.3945
G1 X30.8158 Y41.1712
G1 F300.0 X30.9577 Y41.3122
G1 F400.0 X31.2235 Y41.0446
G3 X31.2881 Y40.9898 I0.3547 J0.3524
G1 X31.7827 Y40.6374
G3 X31.8463 Y40.5988 I0.2901 J0.4072
G1 X32.4299 Y40.3022
G3 X32.4882 Y40.2772 I0.2265 J0.4457
G1 X33.1459 Y40.0421
G3 X33.2002 Y40.0261 I0.1683 J0.4708
G1 X33.9173 Y39.8581
G3 X33.9669 Y39.8491 I0.114 J0.4868
G1 X34.7433 Y39.7484
G3 X34.7876 Y39.7446 I0.0643 J0.4958
G1 X35.6233 Y39.711
G3 X35.6724 Y39.7115 I0.0201 J0.4996
G1 X36.8278 Y39.7786
G3 X36.8967 Y39.7875 I-0.029 J0.4992
G1 X37.9064 Y39.989
G3 X37.9897 Y40.0133 I-0.0979 J0.4903
G1 X38.8538 Y40.3491
G3 X38.9465 Y40.3968 I-0.1811 J0.466
G1 X39.6648 Y40.867
G3 X39.742 Y40.9292 I-0.2738 J0.4184
G1 X40.3068 Y41.4857
G3 X40.3697 Y41.5613 I-0.3509 J0.3562
G1 X40.7732 Y42.1562
G3 X40.8264 Y42.2583 I-0.4138 J0.2806
G1 X41.0685 Y42.8917
G3 X41.0978 Y43.0105 I-0.467 J0.1785
G1 X41.1785 Y43.6823
G3 X41.1801 Y43.7871 I-0.4964 J0.0596
G1 X41.1373 Y44.2582
G3 X41.1202 Y44.35 I-0.498 J-0.0452
G1 X40.992 Y44.8001
G3 X40.9587 Y44.886 I-0.4809 J-0.137
G1 X40.745 Y45.3152
G3 X40.7007 Y45.3879 I-0.4476 J-0.2229
G1 X40.4015 Y45.7961
G3 X40.3224 Y45.8812 I-0.4033 J-0.2956
G1 X39.8225 Y46.3069
G3 X39.7612 Y46.3516 I-0.3242 J-0.3807
G1 X38.9595 Y46.8471
G3 X38.9246 Y46.8668 I-0.2629 J-0.4253
G1 X37.8211 Y47.4321
G3 X37.799 Y47.4427 I-0.228 J-0.445
G1 X36.3936 Y48.0778
G3 X36.3904 Y48.0792 I-0.2059 J-0.4556
G1 X35.284 Y48.5699
G1 X34.3767 Y48.996
G1 X33.6682 Y49.357
G1 X33.1654 Y49.6478
G1 X32.559 Y50.0833
G1 X32.0426 Y50.5335
G1 X31.6183 Y50.9941
G1 X31.2835 Y51.4639
G1 X31.0293 Y51.9532
G1 X30.8478 Y52.4758
G1 X30.7379 Y53.0364
G1 X30.701 Y53.6357
G1 X30.7502 Y54.3352
G1 X30.896 Y54.9923
G1 X31.1386 Y55.6136
G1 X31.4786 Y56.2012
G1 X31.9118 Y56.7372
G1 X32.4368 Y57.2077
G1 X33.0602 Y57.6159
G1 X33.7871 Y57.9614
G1 X34.596 Y58.2368
G1 X35.4612 Y58.4351
G1 X36.3825 Y58.5548
G1 X37.3596 Y58.5949
G1 X38.5143 Y58.5445
G1 X39.5646 Y58.3949
G1 X40.5109 Y58.1485
G1 X41.3575 Y57.8066
G1 X42.098 Y57.3865
G1 X42.7212 Y56.908
G1 X43.2293 Y56.3736
G1 X43.633 Y55.7737
G1 X43.9446 Y55.1393
G1 X44.1664 Y54.5214
G1 X44.2971 Y53.9286
G1 X44.3368 Y53.4026
G1 X44.1284 Y53.3861
G1 X43.4689 Y53.3337
G1 X42.8094 Y53.2814
G1 X42.6711 Y53.2704
G1 X42.6495 Y53.5414
G3 X42.6454 Y53.5771 I-0.4984 J-0.0396
G1 X42.5974 Y53.892
G3 X42.5881 Y53.9383 I-0.4943 J-0.0753
G1 X42.5209 Y54.2061
G3 X42.5021 Y54.2654 I-0.485 J-0.1216
G1 X42.3433 Y54.6745
G3 X42.32 Y54.7258 I-0.4661 J-0.1809
G1 X42.1228 Y55.1018
G3 X42.0921 Y55.1527 I-0.4428 J-0.2322
G1 X41.8566 Y55.4956
G3 X41.819 Y55.5437 I-0.4121 J-0.2831
G1 X41.5451 Y55.8534
G3 X41.4986 Y55.8995 I-0.3745 J-0.3313
G1 X41.178 Y56.1782
G3 X41.127 Y56.2171 I-0.328 J-0.3773
G1 X40.7514 Y56.467
G3 X40.7029 Y56.4955 I-0.277 J-0.4163
G1 X40.2724 Y56.7167
G3 X40.2281 Y56.7368 I-0.2285 J-0.4448
G1 X39.7427 Y56.9291
G3 X39.6999 Y56.9439 I-0.1842 J-0.4648
G1 X39.1716 Y57.0996
G3 X39.1279 Y57.1104 I-0.1414 J-0.4796
G1 X38.5691 Y57.2216
G3 X38.5278 Y57.228 I-0.0976 J-0.4904
G1 X37.9385 Y57.2948
G3 X37.9002 Y57.2976 I-0.0563 J-0.4968
G1 X37.2804 Y57.3199
G3 X37.2327 Y57.3193 I-0.0179 J-0.4997
G1 X36.178 Y57.2565
G3 X36.1086 Y57.2475 I0.0297 J-0.4991
G1 X35.1778 Y57.059
G3 X35.0956 Y57.0349 I0.0992 J-0.4901
G1 X34.2887 Y56.7209
G3 X34.1994 Y56.6754 I0.1813 J-0.466
G1 X33.5164 Y56.2357
G3 X33.4334 Y56.1688 I0.2706 J-0.4204
G1 X33.0182 Y55.7536
G3 X32.9469 Y55.6636 I0.3536 J-0.3536
G1 X32.6503 Y55.1856
G3 X32.6002 Y55.0782 I0.4249 J-0.2636
G1 X32.4222 Y54.5374
G3 X32.3996 Y54.43 I0.475 J-0.1563
G1 X32.3403 Y53.8263
G3 X32.339 Y53.7442 I0.4976 J-0.0489
G1 X32.3634 Y53.3774
G3 X32.3731 Y53.3072 I0.4989 J0.0332
G1 X32.4464 Y52.9605
G3 X32.4672 Y52.8888 I0.4892 J0.1034
G1 X32.5894 Y52.5621
G3 X32.621 Y52.4936 I0.4683 J0.1751
G1 X32.792 Y52.187
G3 X32.8372 Y52.1195 I0.4367 J0.2435
G1 X33.0719 Y51.8242
G3 X33.1219 Y51.7699 I0.3915 J0.3111
G1 X33.4351 Y51.4773
G3 X33.479 Y51.4407 I0.3414 J0.3653
G1 X33.8706 Y51.1507
G3 X33.9074 Y51.1259 I0.2976 J0.4018
G1 X34.3776 Y50.8385
G3 X34.4088 Y50.8209 I0.2608 J0.4266
G1 X34.8964 Y50.5688
G3 X34.9108 Y50.5617 I0.2296 J0.4442
G1 X35.6479 Y50.2101
G3 X35.6553 Y50.2066 I0.2152 J0.4513
G1 X36.6419 Y49.7556
G3 X36.6464 Y49.7536 I0.2079 J0.4547
G1 X37.8808 Y49.204
G1 X38.8906 Y48.7449
G1 X39.7232 Y48.3415
G1 X40.3778 Y47.9948
G1 X40.8498 Y47.7089
G1 X41.3348 Y47.3498
G1 X41.7541 Y46.9603
G1 X42.1118 Y46.5385
G1 X42.4093 Y46.0844
G1 X42.6428 Y45.6
G1 X42.8097 Y45.0834
G1 X42.9108 Y44.5299
G1 X42.9446 Y43.9423
G1 X42.887 Y43.2018
G1 X42.7163 Y42.498
G1 X42.4307 Y41.8209
G1 X42.0272 Y41.167
G1 X41.5192 Y40.5606
G1 X40.9206 Y40.0253
G1 X40.2276 Y39.5594
G1 X39.4373 Y39.1632
G1 X38.5651 Y38.8468
G1 X37.6266 Y38.6194
G1 X36.6203 Y38.482
G1 X35.5492 Y38.4361
G1 X33.9488 Y38.5275
G1 X32.5201 Y38.7983
G1 X31.2582 Y39.2444
G1 X30.1704 Y39.8557
G1 X29.3068 Y40.6708
G1 X28.6851 Y41.7627
G1 X28.2978 Y43.1705
G1 X28.1969 Y44.4486
G1 X28.3763 Y44.4654
G1 X29.0462 Y44.5282
G1 X29.7162 Y44.591
G1 X29.8175 Y44.6005
G1 X29.812 Y44.4594
G3 X29.8124 Y44.4105 I0.4996 J-0.0196
G1 X29.8465 Y43.83
G3 X29.8538 Y43.7688 I0.4991 J0.0292
G1 X29.9559 Y43.2136
G3 X29.9716 Y43.1512 I0.4918 J0.0904
G1 X30.1417 Y42.6212
G3 X30.1656 Y42.5606 I0.4761 J0.1528
G1 X30.4037 Y42.056
G3 X30.4429 Y41.9876 I0.4522 J0.2134
G1 X30.7596 Y41.5235
G3 X30.8179 Y41.4529 I0.413 J0.2818
G1 X30.9577 Y41.3122
G0 Z3.0
G0 X46.5697 Y45.1277
G0 Z1.0
G1 F300.0 Z-0.4
G3 F400.0 X46.5959 Y45.0675 I1.021 J0.4093
G1 X46.7944 Y44.647
G3 X46.7993 Y44.6367 I0.9948 J0.4695
G1 X46.6164 Y44.958
G1 X46.5697 Y45.1277
G1 F300.0 X46.8713 Y44.5101
G3 F400.0 X46.8805 Y44.4964 I0.9178 J0.6063
G1 X47.136 Y44.122
G1 X47.0415 Y44.2111
G1 X46.8713 Y44.5101
G0 Z3.0
G0 X50.4886 Y51.6084
G0 Z1.0
G1 F300.0 Z-0.4
G1 F400.0 X50.4591 Y51.6234
G1 X50.4527 Y51.6271
G1 X50.5112 Y51.5969
G1 X50.4886 Y51.6084
G1 F300.0 X50.3057 Y51.7121
G1 F400.0 X50.0849 Y51.8398
G1 X50.0166 Y51.8889
G1 X50.3057 Y51.7121
G0 Z3.0
G0 X50.937 Y51.3799
G0 Z1.0
G1 F300.0 Z-0.4
G1 F400.0 X51.4121 Y51.1533
G1 X51.0236 Y51.3358
G1 X50.937 Y51.3799
G1 F300.0 X51.5456 Y51.0906
G1 F400.0 X51.9626 Y50.9
G1 X51.763 Y50.9885
G1 X51.5456 Y51.0906
G0 Z3.0
G0 X53.9252 Y50.0165
G0 Z1.0
G1 F300.0 Z-0.4
G1 F400.0 X54.1944 Y49.8941
G1 X54.8696 Y49.567
G1 X55.3869 Y49.2929
G1 X55.7364 Y49.0813
G1 X56.0844 Y48.8236
G1 X56.3761 Y48.5525
G1 X56.6207 Y48.2642
G1 X56.8209 Y47.9586
G1 X56.9757 Y47.6374
G1 X57.0866 Y47.2943
G1 X57.1551 Y46.9189
G1 X57.1782 Y46.5174
G1 X57.1381 Y46.0011
G1 X57.0218 Y45.5217
G1 X56.8257 Y45.0567
G1 X56.7847 Y44.9903
G1 X56.9379 Y45.391
G3 X57.0025 Y45.6526 I-1.0275 J0.3927
G1 X57.0698 Y46.2123
G3 X57.0731 Y46.443 I-1.0921 J0.1312
G1 X57.0375 Y46.8355
G3 X56.9999 Y47.0375 I-1.0955 J-0.0994
G1 X56.893 Y47.4126
G3 X56.8198 Y47.6015 I-1.0579 J-0.3014
G1 X56.6417 Y47.9592
G3 X56.5443 Y48.1191 I-0.9847 J-0.4903
G1 X56.2949 Y48.4593
G3 X56.1209 Y48.6465 I-0.8872 J-0.6502
G1 X55.7043 Y49.0013
G3 X55.5695 Y49.0995 I-0.7132 J-0.8375
G1 X54.9014 Y49.5125
G3 X54.8246 Y49.5558 I-0.5783 J-0.9357
G1 X53.9252 Y50.0165
G0 Z3.0
G0 X49.0563 Y52.7097
G0 Z1.0
G1 F300.0 Z-0.4
G1 F400.0 X48.956 Y52.8185
G1 X48.7297 Y53.136
G1 X48.5629 Y53.4573
G1 X48.4437 Y53.8005
G1 X48.3701 Y54.1761
G1 X48.3448 Y54.5854
G1 X48.3457 Y54.5971
G1 X48.3636 Y54.3277
G3 X48.3849 Y54.1734 I1.0976 J0.0731
G1 X48.446 Y53.8844
G3 X48.4919 Y53.7266 I1.0762 J0.2274
G1 X48.5937 Y53.4544
G3 X48.6633 Y53.3039 I1.0304 J0.3852
G1 X48.8058 Y53.0483
G3 X48.9053 Y52.8997 I0.9607 J0.5357
G1 X49.0563 Y52.7097
G0 Z3.0
G0 X57.8088 Y56.0791
G0 Z1.0
G1 F300.0 Z-0.4
G1 F400.0 X57.8439 Y56.027
G1 X58.0662 Y55.5745
G1 X58.2233 Y55.1366
G1 X58.2494 Y55.0182
G1 X58.246 Y55.0179
G1 X58.2264 Y55.0164
G1 X58.1729 Y55.2299
G3 X58.1314 Y55.3604 I-1.067 J-0.2676
G1 X57.9991 Y55.7013
G3 X57.9478 Y55.8142 I-1.0255 J-0.398
G1 X57.8088 Y56.0791
G1 F300.0 X57.9747 Y56.1908
G1 F400.0 X58.0174 Y56.1274
G1 X58.2506 Y55.6526
G1 X58.4159 Y55.1922
G1 X58.4942 Y54.837
G1 X58.2618 Y54.8186
G1 X58.0626 Y54.8027
G1 X58.0516 Y54.8747
G3 X58.0348 Y54.9581 I-0.8897 J-0.1355
G1 X57.9789 Y55.1813
G3 X57.9449 Y55.288 I-0.873 J-0.2189
G1 X57.8126 Y55.6289
G3 X57.7706 Y55.7213 I-0.839 J-0.3256
G1 X57.6064 Y56.0346
G3 X57.5511 Y56.1263 I-0.7971 J-0.418
G1 X57.3548 Y56.412
G3 X57.2872 Y56.4986 I-0.7418 J-0.5096
G1 X57.0589 Y56.7567
G3 X56.9752 Y56.8396 I-0.6742 J-0.5963
G1 X56.7081 Y57.0719
G3 X56.6162 Y57.1419 I-0.5905 J-0.6792
G1 X56.3032 Y57.3502
G3 X56.2159 Y57.4015 I-0.4986 J-0.7493
G1 X55.8571 Y57.5858
G3 X55.7774 Y57.6219 I-0.4112 J-0.8006
G1 X55.3729 Y57.7822
G3 X55.2958 Y57.8088 I-0.3315 J-0.8367
G1 X54.8556 Y57.9386
G3 X54.7769 Y57.958 I-0.2545 J-0.8633
G1 X54.3112 Y58.0507
G3 X54.2368 Y58.0623 I-0.1757 J-0.8827
G1 X53.7458 Y58.1179
G3 X53.6768 Y58.123 I-0.1013 J-0.8943
G1 X53.1603 Y58.1416
G3 X53.0745 Y58.1405 I-0.0323 J-0.8994
G1 X52.1956 Y58.0882
G3 X52.0705 Y58.0719 I0.0535 J-0.8984
G1 X51.2948 Y57.9149
G3 X51.147 Y57.8715 I0.1786 J-0.8821
G1 X50.4745 Y57.6098
G3 X50.3138 Y57.5278 I0.3264 J-0.8387
G1 X49.7446 Y57.1615
G3 X49.5954 Y57.0411 I0.4871 J-0.7568
G1 X49.2493 Y56.695
G3 X49.121 Y56.5331 I0.6364 J-0.6364
G1 X48.8738 Y56.1347
G3 X48.7836 Y55.9416 I0.7648 J-0.4745
G1 X48.6353 Y55.4908
G3 X48.5946 Y55.2976 I0.8549 J-0.2813
G1 X48.5451 Y54.7945
G3 X48.5428 Y54.6467 I0.8957 J-0.088
G1 X48.5632 Y54.341
G3 X48.5806 Y54.2147 I0.898 J0.0598
G1 X48.6417 Y53.9258
G3 X48.6792 Y53.7967 I0.8806 J0.1861
G1 X48.781 Y53.5244
G3 X48.838 Y53.4013 I0.843 J0.3152
G1 X48.9805 Y53.1457
G3 X49.0619 Y53.0241 I0.786 J0.4383
G1 X49.2574 Y52.7781
G3 X49.3475 Y52.6804 I0.7046 J0.5599
G1 X49.6085 Y52.4365
G3 X49.6874 Y52.3708 I0.6145 J0.6575
G1 X50.0138 Y52.1291
G3 X50.08 Y52.0845 I0.5356 J0.7233
G1 X50.4719 Y51.845
G3 X50.5279 Y51.8134 I0.4694 J0.7679
G1 X50.9343 Y51.6033
G3 X50.9602 Y51.5904 I0.4133 J0.7995
G1 X51.5745 Y51.2974
G3 X51.5878 Y51.2912 I0.3874 J0.8123
G1 X52.4099 Y50.9154
G3 X52.418 Y50.9118 I0.3742 J0.8185
G1 X53.4449 Y50.4545
G1 X54.2794 Y50.0752
G1 X54.96 Y49.7454
G1 X55.4856 Y49.467
G1 X55.8479 Y49.2476
G1 X56.2123 Y48.9777
G1 X56.521 Y48.691
G1 X56.7812 Y48.3841
G1 X56.9954 Y48.0573
G1 X57.1618 Y47.7119
G1 X57.2809 Y47.3432
G1 X57.3541 Y46.9427
G1 X57.3787 Y46.5154
G1 X57.3363 Y45.9696
G1 X57.2123 Y45.4588
G1 X57.004 Y44.9648
G1 X56.7057 Y44.4813
G1 X56.3272 Y44.0296
G1 X55.8791 Y43.6289
G1 X55.3548 Y43.2764
G1 X54.7489 Y42.9727
G1 X54.0737 Y42.7277
G1 X53.3416 Y42.5503
G1 X52.5497 Y42.4423
G1 X51.7037 Y42.406
G1 X50.4256 Y42.479
G1 X49.3023 Y42.6918
G1 X48.3249 Y43.0374
G1 X47.5065 Y43.4973
G1 X46.8825 Y44.0862
G1 X46.4302 Y44.8808
G1 X46.1356 Y45.9513
G1 X46.0926 Y46.4957
G1 X46.3262 Y46.5176
G1 X46.4571 Y46.5298
G1 X46.4654 Y46.3887
G3 X46.4787 Y46.2786 I0.8985 J0.0526
G1 X46.5638 Y45.8159
G3 X46.592 Y45.7035 I0.8852 J0.1627
G1 X46.7337 Y45.2619
G3 X46.7768 Y45.1529 I0.8569 J0.2751
G1 X46.9752 Y44.7323
G3 X47.0457 Y44.6092 I0.8139 J0.3841
G1 X47.3096 Y44.2224
G3 X47.4146 Y44.0953 I0.7434 J0.5073
G1 X47.7526 Y43.7551
G3 X47.8688 Y43.6565 I0.6384 J0.6343
G1 X48.281 Y43.3628
G3 X48.3955 Y43.2934 I0.5223 J0.733
G1 X48.8818 Y43.0463
G3 X48.9867 Y43.0011 I0.4078 J0.8023
G1 X49.5348 Y42.8052
G3 X49.6325 Y42.7764 I0.3029 J0.8475
G1 X50.2301 Y42.6365
G3 X50.3194 Y42.6202 I0.2052 J0.8763
G1 X50.9664 Y42.5363
G3 X51.0461 Y42.5295 I0.1158 J0.8925
G1 X51.7426 Y42.5015
G3 X51.8309 Y42.5023 I0.0361 J0.8993
G1 X52.7938 Y42.5583
G3 X52.9177 Y42.5742 I-0.0522 J0.8985
G1 X53.7592 Y42.7421
G3 X53.9091 Y42.7858 I-0.1761 J0.8826
G1 X54.6291 Y43.0657
G3 X54.7959 Y43.1515 I-0.3261 J0.8389
G1 X55.3946 Y43.5434
G3 X55.5334 Y43.6553 I-0.4929 J0.753
G1 X56.0041 Y44.1191
G3 X56.1173 Y44.2551 I-0.6317 J0.6411
G1 X56.4535 Y44.7509
G3 X56.5493 Y44.9347 I-0.7449 J0.5051
G1 X56.7511 Y45.4624
G3 X56.804 Y45.6764 I-0.8407 J0.3213
G1 X56.8712 Y46.2362
G3 X56.8739 Y46.4249 I-0.8936 J0.1074
G1 X56.8383 Y46.8174
G3 X56.8076 Y46.9827 I-0.8963 J-0.0813
G1 X56.7007 Y47.3578
G3 X56.6408 Y47.5124 I-0.8656 J-0.2466
G1 X56.4627 Y47.87
G3 X56.383 Y48.0009 I-0.8056 J-0.4012
G1 X56.1336 Y48.3411
G3 X55.9912 Y48.4943 I-0.7259 J-0.532
G1 X55.5747 Y48.849
G3 X55.4643 Y48.9294 I-0.5835 J-0.6852
G1 X54.7962 Y49.3423
G3 X54.7334 Y49.3778 I-0.4732 J-0.7656
G1 X53.8138 Y49.8488
G3 X53.7741 Y49.868 I-0.4103 J-0.801
G1 X52.6029 Y50.3972
G3 X52.5972 Y50.3998 I-0.3706 J-0.8201
G1 X51.6799 Y50.8066
G1 X50.9357 Y51.1561
G1 X50.3635 Y51.4477
G1 X49.9763 Y51.6716
G1 X49.5088 Y52.0073
G1 X49.1156 Y52.3501
G1 X48.8004 Y52.6923
G1 X48.5587 Y53.0314
G1 X48.3787 Y53.378
G1 X48.2501 Y53.7482
G1 X48.1713 Y54.1506
G1 X48.1444 Y54.5863
G1 X48.1806 Y55.1016
G1 X48.2863 Y55.5778
G1 X48.4615 Y56.0264
G1 X48.7076 Y56.4517
G1 X49.0205 Y56.839
G1 X49.4019 Y57.1807
G1 X49.8632 Y57.4828
G1 X50.4141 Y57.7446
G1 X51.0381 Y57.9571
G1 X51.7122 Y58.1115
G1 X52.4358 Y58.2055
G1 X53.2082 Y58.2372
G1 X54.1264 Y58.1972
G1 X54.9511 Y58.0798
G1 X55.6829 Y57.8892
G1 X56.3297 Y57.628
G1 X56.8898 Y57.3102
G1 X57.3526 Y56.9549
G1 X57.722 Y56.5663
G1 X57.9747 Y56.1908
G1 F300.0 X58.1407 Y56.3025
G1 F400.0 X58.1909 Y56.2278
G1 X58.4351 Y55.7307
G1 X58.6084 Y55.2477
G1 X58.7091 Y54.7911
G1 X58.7194 Y54.6542
G1 X58.2776 Y54.6192
G1 X57.8929 Y54.5886
G1 X57.8539 Y54.8446
G3 X57.8408 Y54.9095 I-0.692 J-0.1054
G1 X57.7849 Y55.1327
G3 X57.7585 Y55.2156 I-0.679 J-0.1703
G1 X57.6262 Y55.5566
G3 X57.5935 Y55.6284 I-0.6526 J-0.2533
G1 X57.4292 Y55.9417
G3 X57.3863 Y56.013 I-0.6199 J-0.3251
G1 X57.19 Y56.2987
G3 X57.1374 Y56.3661 I-0.577 J-0.3964
G1 X56.9091 Y56.6242
G3 X56.844 Y56.6887 I-0.5243 J-0.4638
G1 X56.5768 Y56.921
G3 X56.5054 Y56.9754 I-0.4593 J-0.5283
G1 X56.1924 Y57.1837
G3 X56.1245 Y57.2236 I-0.3878 J-0.5828
G1 X55.7657 Y57.4079
G3 X55.7037 Y57.436 I-0.3198 J-0.6227
G1 X55.2992 Y57.5963
G3 X55.2393 Y57.617 I-0.2579 J-0.6508
G1 X54.7991 Y57.7467
G3 X54.7378 Y57.7618 I-0.1979 J-0.6714
G1 X54.2722 Y57.8545
G3 X54.2143 Y57.8635 I-0.1367 J-0.6865
G1 X53.7232 Y57.9191
G3 X53.6696 Y57.9231 I-0.0788 J-0.6956
G1 X53.1531 Y57.9417
G3 X53.0863 Y57.9409 I-0.0251 J-0.6995
G1 X52.2074 Y57.8885
G3 X52.1102 Y57.8759 I0.0416 J-0.6988
G1 X51.3345 Y57.7188
G3 X51.2195 Y57.6851 I0.1389 J-0.6861
G1 X50.5471 Y57.4234
G3 X50.4221 Y57.3597 I0.2539 J-0.6523
G1 X49.8529 Y56.9933
G3 X49.7368 Y56.8996 I0.3789 J-0.5886
G1 X49.3907 Y56.5536
G3 X49.2909 Y56.4277 I0.495 J-0.495
G1 X49.0437 Y56.0293
G3 X48.9736 Y55.879 I0.5948 J-0.369
G1 X48.8253 Y55.4283
G3 X48.7936 Y55.278 I0.6649 J-0.2188
G1 X48.7442 Y54.7749
G3 X48.7424 Y54.66 I0.6966 J-0.0685
G1 X48.7627 Y54.3543
G3 X48.7763 Y54.2561 I0.6985 J0.0465
G1 X48.8374 Y53.9671
G3 X48.8666 Y53.8667 I0.6849 J0.1447
G1 X48.9683 Y53.5945
G3 X49.0126 Y53.4987 I0.6557 J0.2451
G1 X49.1551 Y53.2431
G3 X49.2185 Y53.1486 I0.6114 J0.3409
G1 X49.414 Y52.9025
G3 X49.4841 Y52.8266 I0.548 J0.4355
G1 X49.7451 Y52.5827
G3 X49.8064 Y52.5315 I0.478 J0.5114
G1 X50.1329 Y52.2898
G3 X50.1843 Y52.2551 I0.4166 J0.5625
G1 X50.5762 Y52.0156
G3 X50.6198 Y51.991 I0.3651 J0.5972
G1 X51.0262 Y51.7809
G3 X51.0463 Y51.7709 I0.3215 J0.6218
G1 X51.6606 Y51.478
G3 X51.6709 Y51.4731 I0.3013 J0.6318
G1 X52.4931 Y51.0973
G3 X52.4994 Y51.0945 I0.291 J0.6366
G1 X53.527 Y50.6369
G1 X54.3644 Y50.2562
G1 X55.0504 Y49.9238
G1 X55.5843 Y49.641
G1 X55.9594 Y49.4139
G1 X56.3403 Y49.1318
G1 X56.6658 Y48.8294
G1 X56.9417 Y48.5041
G1 X57.1699 Y48.1559
G1 X57.3479 Y47.7864
G1 X57.4753 Y47.3922
G1 X57.553 Y46.9665
G1 X57.5791 Y46.5134
G1 X57.5344 Y45.9381
G1 X57.4029 Y45.396
G1 X57.1823 Y44.8729
G1 X56.8683 Y44.364
G1 X56.4712 Y43.8901
G1 X56.0021 Y43.4706
G1 X55.4558 Y43.1033
G1 X54.8281 Y42.7887
G1 X54.1316 Y42.5359
G1 X53.3788 Y42.3535
G1 X52.5675 Y42.2428
G1 X51.7023 Y42.2057
G1 X50.4012 Y42.28
G1 X49.2501 Y42.4982
G1 X48.2419 Y42.8546
G1 X47.3871 Y43.335
G1 X46.7235 Y43.9613
G1 X46.244 Y44.8036
G1 X45.9377 Y45.9165
G1 X45.8777 Y46.6764
G1 X46.3075 Y46.7167
G1 X46.6447 Y46.7483
G1 X46.6651 Y46.4004
G3 X46.6754 Y46.3148 I0.6988 J0.0409
G1 X46.7605 Y45.852
G3 X46.7824 Y45.7647 I0.6885 J0.1266
G1 X46.9242 Y45.323
G3 X46.9576 Y45.2382 I0.6665 J0.2139
G1 X47.1561 Y44.8177
G3 X47.2109 Y44.7219 I0.633 J0.2987
G1 X47.4748 Y44.3351
G3 X47.5565 Y44.2363 I0.5782 J0.3945
G1 X47.8945 Y43.8961
G3 X47.9849 Y43.8194 I0.4966 J0.4934
G1 X48.397 Y43.5257
G3 X48.4861 Y43.4717 I0.4062 J0.5701
G1 X48.9724 Y43.2246
G3 X49.054 Y43.1894 I0.3171 J0.624
G1 X49.6021 Y42.9935
G3 X49.6781 Y42.9711 I0.2356 J0.6592
G1 X50.2757 Y42.8312
G3 X50.3452 Y42.8186 I0.1596 J0.6816
G1 X50.9922 Y42.7346
G3 X51.0542 Y42.7294 I0.0901 J0.6942
G1 X51.7506 Y42.7014
G3 X51.8193 Y42.702 I0.0281 J0.6994
G1 X52.7822 Y42.758
G3 X52.8786 Y42.7703 I-0.0406 J0.6988
G1 X53.72 Y42.9382
G3 X53.8366 Y42.9723 I-0.137 J0.6865
G1 X54.5567 Y43.2521
G3 X54.6864 Y43.3189 I-0.2536 J0.6524
G1 X55.2851 Y43.7107
G3 X55.393 Y43.7978 I-0.3834 J0.5857
G1 X55.8637 Y44.2616
G3 X55.9518 Y44.3673 I-0.4913 J0.4986
G1 X56.288 Y44.8631
G3 X56.3625 Y45.0061 I-0.5793 J0.3929
G1 X56.5642 Y45.5338
G3 X56.6054 Y45.7003 I-0.6539 J0.2499
G1 X56.6726 Y46.26
G3 X56.6748 Y46.4068 I-0.695 J0.0835
G1 X56.6391 Y46.7994
G3 X56.6152 Y46.9279 I-0.6971 J-0.0633
G1 X56.5083 Y47.303
G3 X56.4617 Y47.4232 I-0.6732 J-0.1918
G1 X56.2836 Y47.7809
G3 X56.2216 Y47.8827 I-0.6266 J-0.312
G1 X55.9723 Y48.2229
G3 X55.8616 Y48.342 I-0.5646 J-0.4138
G1 X55.445 Y48.6968
G3 X55.3592 Y48.7593 I-0.4539 J-0.5329
G1 X54.6911 Y49.1722
G3 X54.6422 Y49.1998 I-0.368 J-0.5954
G1 X53.7226 Y49.6708
G3 X53.6917 Y49.6857 I-0.3191 J-0.623
G1 X52.5206 Y50.215
G3 X52.5161 Y50.217 I-0.2883 J-0.6379
G1 X51.5969 Y50.6246
G1 X50.8477 Y50.9764
G1 X50.268 Y51.2719
G1 X49.8676 Y51.5034
G1 X49.3845 Y51.8503
G1 X48.9759 Y52.2066
G1 X48.6448 Y52.566
G1 X48.3877 Y52.9268
G1 X48.1946 Y53.2986
G1 X48.0566 Y53.6959
G1 X47.9725 Y54.1251
G1 X47.944 Y54.5872
G1 X47.9822 Y55.1304
G1 X48.0944 Y55.6362
G1 X48.2807 Y56.1134
G1 X48.5423 Y56.5653
G1 X48.8751 Y56.9772
G1 X49.2797 Y57.3397
G1 X49.7651 Y57.6576
G1 X50.3387 Y57.9302
G1 X50.9834 Y58.1497
G1 X51.6769 Y58.3086
G1 X52.4187 Y58.405
G1 X53.2085 Y58.4374
G1 X54.1449 Y58.3966
G1 X54.9905 Y58.2762
G1 X55.7458 Y58.0795
G1 X56.4169 Y57.8085
G1 X57.0006 Y57.4773
G1 X57.4868 Y57.104
G1 X57.8785 Y56.692
G1 X58.1407 Y56.3025
G1 F300.0 X58.3066 Y56.4141
G1 F400.0 X58.3644 Y56.3282
G1 X58.6195 Y55.8088
G1 X58.801 Y55.3033
G1 X58.9075 Y54.8203
G1 X58.9338 Y54.4706
G1 X58.843 Y54.4634
G1 X58.2934 Y54.4198
G1 X57.7439 Y54.3762
G1 X57.7116 Y54.3736
G1 X57.7003 Y54.5164
G3 X57.6961 Y54.5521 I-0.4984 J-0.0396
G1 X57.6562 Y54.8145
G3 X57.6469 Y54.8608 I-0.4943 J-0.0753
G1 X57.5909 Y55.084
G3 X57.572 Y55.1433 I-0.485 J-0.1216
G1 X57.4397 Y55.4842
G3 X57.4164 Y55.5355 I-0.4661 J-0.1809
G1 X57.2521 Y55.8488
G3 X57.2214 Y55.8998 I-0.4428 J-0.2322
G1 X57.0251 Y56.1855
G3 X56.9875 Y56.2336 I-0.4121 J-0.2831
G1 X56.7593 Y56.4917
G3 X56.7128 Y56.5378 I-0.3745 J-0.3313
G1 X56.4456 Y56.77
G3 X56.3946 Y56.8089 I-0.328 J-0.3773
G1 X56.0816 Y57.0172
G3 X56.0331 Y57.0457 I-0.277 J-0.4163
G1 X55.6743 Y57.23
G3 X55.6301 Y57.2501 I-0.2285 J-0.4448
G1 X55.2255 Y57.4104
G3 X55.1827 Y57.4251 I-0.1842 J-0.4648
G1 X54.7425 Y57.5549
G3 X54.6988 Y57.5657 I-0.1414 J-0.4796
G1 X54.2331 Y57.6584
G3 X54.1918 Y57.6648 I-0.0976 J-0.4904
G1 X53.7007 Y57.7204
G3 X53.6624 Y57.7233 I-0.0563 J-0.4968
G1 X53.1459 Y57.7418
G3 X53.0982 Y57.7413 I-0.0179 J-0.4997
G1 X52.2193 Y57.6889
G3 X52.1499 Y57.6798 I0.0297 J-0.4991
G1 X51.3742 Y57.5228
G3 X51.2921 Y57.4987 I0.0992 J-0.4901
G1 X50.6196 Y57.237
G3 X50.5303 Y57.1915 I0.1813 J-0.466
G1 X49.9611 Y56.8251
G3 X49.8782 Y56.7582 I0.2706 J-0.4204
G1 X49.5322 Y56.4122
G3 X49.4609 Y56.3222 I0.3536 J-0.3536
G1 X49.2137 Y55.9239
G3 X49.1636 Y55.8165 I0.4249 J-0.2636
G1 X49.0153 Y55.3658
G3 X48.9926 Y55.2584 I0.475 J-0.1563
G1 X48.9432 Y54.7554
G3 X48.9419 Y54.6733 I0.4976 J-0.0489
G1 X48.9623 Y54.3676
G3 X48.972 Y54.2974 I0.4989 J0.0332
G1 X49.033 Y54.0085
G3 X49.0539 Y53.9367 I0.4892 J0.1034
G1 X49.1557 Y53.6645
G3 X49.1873 Y53.5961 I0.4683 J0.1751
G1 X49.3298 Y53.3406
G3 X49.375 Y53.273 I0.4367 J0.2435
G1 X49.5706 Y53.0269
G3 X49.6207 Y52.9727 I0.3915 J0.3111
G1 X49.8816 Y52.7288
G3 X49.9255 Y52.6923 I0.3414 J0.3653
G1 X50.2519 Y52.4506
G3 X50.2887 Y52.4258 I0.2976 J0.4018
G1 X50.6805 Y52.1862
G3 X50.7116 Y52.1687 I0.2608 J0.4266
G1 X51.118 Y51.9586
G3 X51.1324 Y51.9514 I0.2296 J0.4441
G1 X51.7467 Y51.6585
G3 X51.754 Y51.655 I0.2152 J0.4513
G1 X52.5762 Y51.2792
G3 X52.5807 Y51.2772 I0.2079 J0.4547
G1 X53.6091 Y50.8193
G1 X54.4494 Y50.4373
G1 X55.1409 Y50.1022
G1 X55.683 Y49.8151
G1 X56.071 Y49.5801
G1 X56.4683 Y49.2859
G1 X56.8107 Y48.9678
G1 X57.1022 Y48.624
G1 X57.3443 Y48.2545
G1 X57.5341 Y47.8609
G1 X57.6697 Y47.4411
G1 X57.752 Y46.9903
G1 X57.7796 Y46.5114
G1 X57.7326 Y45.9066
G1 X57.5935 Y45.3331
G1 X57.3606 Y44.781
G1 X57.0309 Y44.2467
G1 X56.6153 Y43.7506
G1 X56.1251 Y43.3123
G1 X55.5568 Y42.9303
G1 X54.9073 Y42.6047
G1 X54.1894 Y42.3442
G1 X53.416 Y42.1568
G1 X52.5854 Y42.0434
G1 X51.7009 Y42.0055
G1 X50.3768 Y42.0811
G1 X49.1978 Y42.3045
G1 X48.159 Y42.6718
G1 X47.2677 Y43.1727
G1 X46.5645 Y43.8363
G1 X46.0578 Y44.7264
G1 X45.7399 Y45.8818
G1 X45.6628 Y46.8571
G1 X45.7305 Y46.8635
G1 X46.2888 Y46.9158
G1 X46.8368 Y46.9672
G1 X46.8359 Y46.9447
G3 X46.8364 Y46.8959 I0.4996 J-0.0196
G1 X46.8647 Y46.4121
G3 X46.8721 Y46.3509 I0.4991 J0.0292
G1 X46.9572 Y45.8882
G3 X46.9728 Y45.8258 I0.4918 J0.0904
G1 X47.1146 Y45.3842
G3 X47.1385 Y45.3236 I0.4761 J0.1528
G1 X47.337 Y44.903
G3 X47.3761 Y44.8346 I0.4522 J0.2134
G1 X47.64 Y44.4479
G3 X47.6983 Y44.3773 I0.413 J0.2818
G1 X48.0364 Y44.0371
G3 X48.1009 Y43.9823 I0.3547 J0.3524
G1 X48.5131 Y43.6886
G3 X48.5767 Y43.65 I0.2901 J0.4072
G1 X49.0631 Y43.4029
G3 X49.1213 Y43.3778 I0.2265 J0.4457
G1 X49.6694 Y43.1819
G3 X49.7237 Y43.1659 I0.1683 J0.4708
G1 X50.3213 Y43.0259
G3 X50.3709 Y43.0169 I0.114 J0.4868
G1 X51.0179 Y42.9329
G3 X51.0622 Y42.9292 I0.0643 J0.4958
G1 X51.7586 Y42.9012
G3 X51.8077 Y42.9016 I0.0201 J0.4996
G1 X52.7706 Y42.9576
G3 X52.8394 Y42.9664 I-0.029 J0.4992
G1 X53.6809 Y43.1344
G3 X53.7642 Y43.1587 I-0.0979 J0.4903
G1 X54.4842 Y43.4385
G3 X54.5769 Y43.4862 I-0.1811 J0.466
G1 X55.1755 Y43.8781
G3 X55.2527 Y43.9403 I-0.2738 J0.4184
G1 X55.7234 Y44.4041
G3 X55.7862 Y44.4796 I-0.3509 J0.3562
G1 X56.1225 Y44.9754
G3 X56.1757 Y45.0775 I-0.4138 J0.2806
G1 X56.3774 Y45.6053
G3 X56.4068 Y45.7241 I-0.467 J0.1785
G1 X56.4741 Y46.2839
G3 X56.4756 Y46.3887 I-0.4964 J0.0596
G1 X56.44 Y46.7813
G3 X56.4229 Y46.8731 I-0.498 J-0.0452
G1 X56.316 Y47.2482
G3 X56.2827 Y47.3341 I-0.4809 J-0.137
G1 X56.1046 Y47.6917
G3 X56.0603 Y47.7644 I-0.4476 J-0.2229
G1 X55.811 Y48.1047
G3 X55.7319 Y48.1898 I-0.4033 J-0.2956
G1 X55.3153 Y48.5445
G3 X55.254 Y48.5892 I-0.3242 J-0.3807
G1 X54.5859 Y49.0021
G3 X54.551 Y49.0218 I-0.2629 J-0.4253
G1 X53.6314 Y49.4928
G3 X53.6094 Y49.5035 I-0.228 J-0.445
G1 X52.4382 Y50.0327
G3 X52.435 Y50.0341 I-0.2059 J-0.4556
G1 X51.5138 Y50.4427
G1 X50.7598 Y50.7968
G1 X50.1725 Y51.0961
G1 X49.759 Y51.3352
G1 X49.2602 Y51.6934
G1 X48.8362 Y52.063
G1 X48.4893 Y52.4397
G1 X48.2167 Y52.8221
G1 X48.0104 Y53.2193
G1 X47.863 Y53.6436
G1 X47.7737 Y54.0996
G1 X47.7435 Y54.588
G1 X47.7837 Y55.1593
G1 X47.9025 Y55.6946
G1 X48.1 Y56.2004
G1 X48.3769 Y56.6789
G1 X48.7296 Y57.1154
G1 X49.1575 Y57.4988
G1 X49.6669 Y57.8324
G1 X50.2632 Y58.1158
G1 X50.9286 Y58.3424
G1 X51.6416 Y58.5057
G1 X52.4017 Y58.6045
G1 X53.2087 Y58.6376
G1 X54.1634 Y58.596
G1 X55.03 Y58.4726
G1 X55.8087 Y58.2698
G1 X56.5041 Y57.9889
G1 X57.1113 Y57.6444
G1 X57.6209 Y57.2531
G1 X58.0351 Y56.8176
G1 X58.3066 Y56.4141
G1 F300.0 X57.8088 Y56.0791
G1 Z-0.5
G1 F400.0 X57.8439 Y56.027
G1 X58.0662 Y55.5745
G1 X58.2233 Y55.1366
G1 X58.2494 Y55.0182
G1 X58.246 Y55.0179
G1 X58.2264 Y55.0164
G1 X58.1729 Y55.2299
G3 X58.1314 Y55.3604 I-1.067 J-0.2676
G1 X57.9991 Y55.7013
G3 X57.9478 Y55.8142 I-1.0255 J-0.398
G1 X57.8088 Y56.0791
G0 Z3.0
G0 X54.6945 Y49.6518
G0 Z0.9
G1 F300.0 Z-0.5
G1 F400.0 X54.8696 Y49.567
G1 X55.3869 Y49.2929
G1 X55.7364 Y49.0813
G1 X56.0844 Y48.8236
G1 X56.3761 Y48.5525
G1 X56.6207 Y48.2642
G1 X56.8209 Y47.9586
G1 X56.9757 Y47.6374
G1 X57.0866 Y47.2943
G1 X57.1551 Y46.9189
G1 X57.1782 Y46.5174
G1 X57.1381 Y46.0011
G1 X57.0218 Y45.5217
G1 X56.8257 Y45.0567
G1 X56.7847 Y44.9903
G1 X56.9379 Y45.391
G3 X57.0025 Y45.6526 I-1.0275 J0.3927
G1 X57.0698 Y46.2123
G3 X57.0731 Y46.443 I-1.0921 J0.1312
G1 X57.0375 Y46.8355
G3 X56.9999 Y47.0375 I-1.0955 J-0.0994
G1 X56.893 Y47.4126
G3 X56.8198 Y47.6015 I-1.0579 J-0.3014
G1 X56.6417 Y47.9592
G3 X56.5443 Y48.1191 I-0.9847 J-0.4903
G1 X56.2949 Y48.4593
G3 X56.1209 Y48.6465 I-0.8872 J-0.6502
G1 X55.7043 Y49.0013
G3 X55.5695 Y49.0995 I-0.7132 J-0.8375
G1 X54.9014 Y49.5125
G3 X54.8246 Y49.5558 I-0.5783 J-0.9357
G1 X53.9252 Y50.0165
G1 X54.1944 Y49.8941
G1 X54.6945 Y49.6518
G0 Z3.0
G0 X51.9626 Y50.9
G0 Z0.6
G1 F300.0 Z-0.5
G1 F400.0 X51.763 Y50.9885
G1 X51.5456 Y51.0906
G1 X51.9626 Y50.9
G1 F300.0 X51.4121 Y51.1533
G1 F400.0 X51.0236 Y51.3358
G1 X50.937 Y51.3799
G1 X51.4121 Y51.1533
G0 Z3.0
G0 X50.5112 Y51.5969
G0 Z0.6
G1 F300.0 Z-0.5
G1 F400.0 X50.4591 Y51.6234
G1 X50.4527 Y51.6271
G1 X50.5112 Y51.5969
G1 F300.0 X50.3057 Y51.7121
G1 F400.0 X50.0849 Y51.8398
G1 X50.0166 Y51.8889
G1 X50.3057 Y51.7121
G0 Z3.0
G0 X49.0563 Y52.7097
G0 Z0.6
G1 F300.0 Z-0.5
G1 F400.0 X48.956 Y52.8185
G1 X48.7297 Y53.136
G1 X48.5629 Y53.4573
G1 X48.4437 Y53.8005
G1 X48.3701 Y54.1761
G1 X48.3448 Y54.5854
G1 X48.3457 Y54.5971
G1 X48.3636 Y54.3277
G3 X48.3849 Y54.1734 I1.0976 J0.0731
G1 X48.446 Y53.8844
G3 X48.4919 Y53.7266 I1.0762 J0.2274
G1 X48.5937 Y53.4544
G3 X48.6633 Y53.3039 I1.0304 J0.3852
G1 X48.8058 Y53.0483
G3 X48.9053 Y52.8997 I0.9607 J0.5357
G1 X49.0563 Y52.7097
G0 Z3.0
G0 X46.5697 Y45.1277
G0 Z0.6
G1 F300.0 Z-0.5
G3 F400.0 X46.5959 Y45.0675 I1.021 J0.4093
G1 X46.7944 Y44.647
G3 X46.7993 Y44.6367 I0.9948 J0.4695
G1 X46.6164 Y44.958
G1 X46.5697 Y45.1277
G1 F300.0 X46.8713 Y44.5101
G3 F400.0 X46.8805 Y44.4964 I0.9178 J0.6063
G1 X47.136 Y44.122
G1 X47.0415 Y44.2111
G1 X46.8713 Y44.5101
G1 F300.0 X47.0382 Y44.6203
G3 F400.0 X47.0457 Y44.6092 I0.7509 J0.4961
G1 X47.3096 Y44.2224
G3 X47.4146 Y44.0953 I0.7434 J0.5073
G1 X47.7526 Y43.7551
G3 X47.8688 Y43.6565 I0.6384 J0.6343
G1 X48.281 Y43.3628
G3 X48.3955 Y43.2934 I0.5223 J0.733
G1 X48.8818 Y43.0463
G3 X48.9867 Y43.0011 I0.4078 J0.8023
G1 X49.5348 Y42.8052
G3 X49.6325 Y42.7764 I0.3029 J0.8475
G1 X50.2301 Y42.6365
G3 X50.3194 Y42.6202 I0.2052 J0.8763
G1 X50.9664 Y42.5363
G3 X51.0461 Y42.5295 I0.1158 J0.8925
G1 X51.7426 Y42.5015
G3 X51.8309 Y42.5023 I0.0361 J0.8993
G1 X52.7938 Y42.5583
G3 X52.9177 Y42.5742 I-0.0522 J0.8985
G1 X53.7592 Y42.7421
G3 X53.9091 Y42.7858 I-0.1761 J0.8826
G1 X54.6291 Y43.0657
G3 X54.7959 Y43.1515 I-0.3261 J0.8389
G1 X55.3946 Y43.5434
G3 X55.5334 Y43.6553 I-0.4929 J0.753
G1 X56.0041 Y44.1191
G3 X56.1173 Y44.2551 I-0.6317 J0.6411
G1 X56.4535 Y44.7509
G3 X56.5493 Y44.9347 I-0.7449 J0.5051
G1 X56.7511 Y45.4624
G3 X56.804 Y45.6764 I-0.8407 J0.3213
G1 X56.8712 Y46.2362
G3 X56.8739 Y46.4249 I-0.8936 J0.1074
G1 X56.8383 Y46.8174
G3 X56.8076 Y46.9827 I-0.8963 J-0.0813
G1 X56.7007 Y47.3578
G3 X56.6408 Y47.5124 I-0.8656 J-0.2466
G1 X56.4627 Y47.87
G3 X56.383 Y48.0009 I-0.8056 J-0.4012
G1 X56.1336 Y48.3411
G3 X55.9912 Y48.4943 I-0.7259 J-0.532
G1 X55.5747 Y48.849
G3 X55.4643 Y48.9294 I-0.5835 J-0.6852
G1 X54.7962 Y49.3423
G3 X54.7334 Y49.3778 I-0.4732 J-0.7656
G1 X53.8138 Y49.8488
G3 X53.7741 Y49.868 I-0.4103 J-0.801
G1 X52.6029 Y50.3972
G3 X52.5972 Y50.3998 I-0.3706 J-0.8201
G1 X51.6799 Y50.8066
G1 X50.9357 Y51.1561
G1 X50.3635 Y51.4477
G1 X49.9763 Y51.6716
G1 X49.5088 Y52.0073
G1 X49.1156 Y52.3501
G1 X48.8004 Y52.6923
G1 X48.5587 Y53.0314
G1 X48.3787 Y53.378
G1 X48.2501 Y53.7482
G1 X48.1713 Y54.1506
G1 X48.1444 Y54.5863
G1 X48.1806 Y55.1016
G1 X48.2863 Y55.5778
G1 X48.4615 Y56.0264
G1 X48.7076 Y56.4517
G1 X49.0205 Y56.839
G1 X49.4019 Y57.1807
G1 X49.8632 Y57.4828
G1 X50.4141 Y57.7446
G1 X51.0381 Y57.9571
G1 X51.7122 Y58.1115
G1 X52.4358 Y58.2055
G1 X53.2082 Y58.2372
G1 X54.1264 Y58.1972
G1 X54.9511 Y58.0798
G1 X55.6829 Y57.8892
G1 X56.3297 Y57.628
G1 X56.8898 Y57.3102
G1 X57.3526 Y56.9549
G1 X57.722 Y56.5663
G1 X58.0174 Y56.1274
G1 X58.2506 Y55.6526
G1 X58.4159 Y55.1922
G1 X58.4942 Y54.837
G1 X58.2618 Y54.8186
G1 X58.0626 Y54.8027
G1 X58.0516 Y54.8747
G3 X58.0348 Y54.9581 I-0.8897 J-0.1355
G1 X57.9789 Y55.1813
G3 X57.9449 Y55.288 I-0.873 J-0.2189
G1 X57.8126 Y55.6289
G3 X57.7706 Y55.7213 I-0.839 J-0.3256
G1 X57.6064 Y56.0346
G3 X57.5511 Y56.1263 I-0.7971 J-0.418
G1 X57.3548 Y56.412
G3 X57.2872 Y56.4986 I-0.7418 J-0.5096
G1 X57.0589 Y56.7567
G3 X56.9752 Y56.8396 I-0.6742 J-0.5963
G1 X56.7081 Y57.0719
G3 X56.6162 Y57.1419 I-0.5905 J-0.6792
G1 X56.3032 Y57.3502
G3 X56.2159 Y57.4015 I-0.4986 J-0.7493
G1 X55.8571 Y57.5858
G3 X55.7774 Y57.6219 I-0.4112 J-0.8006
G1 X55.3729 Y57.7822
G3 X55.2958 Y57.8088 I-0.3315 J-0.8367
G1 X54.8556 Y57.9386
G3 X54.7769 Y57.958 I-0.2545 J-0.8633
G1 X54.3112 Y58.0507
G3 X54.2368 Y58.0623 I-0.1757 J-0.8827
G1 X53.7458 Y58.1179
G3 X53.6768 Y58.123 I-0.1013 J-0.8943
G1 X53.1603 Y58.1416
G3 X53.0745 Y58.1405 I-0.0323 J-0.8994
G1 X52.1956 Y58.0882
G3 X52.0705 Y58.0719 I0.0535 J-0.8984
G1 X51.2948 Y57.9149
G3 X51.147 Y57.8715 I0.1786 J-0.8821
G1 X50.4745 Y57.6098
G3 X50.3138 Y57.5278 I0.3264 J-0.8387
G1 X49.7446 Y57.1615
G3 X49.5954 Y57.0411 I0.4871 J-0.7568
G1 X49.2493 Y56.695
G3 X49.121 Y56.5331 I0.6364 J-0.6364
G1 X48.8738 Y56.1347
G3 X48.7836 Y55.9416 I0.7648 J-0.4745
G1 X48.6353 Y55.4908
G3 X48.5946 Y55.2976 I0.8549 J-0.2813
G1 X48.5451 Y54.7945
G3 X48.5428 Y54.6467 I0.8957 J-0.088
G1 X48.5632 Y54.341
G3 X48.5806 Y54.2147 I0.898 J0.0598
G1 X48.6417 Y53.9258
G3 X48.6792 Y53.7967 I0.8806 J0.1861
G1 X48.781 Y53.5244
G3 X48.838 Y53.4013 I0.843 J0.3152
G1 X48.9805 Y53.1457
G3 X49.0619 Y53.0241 I0.786 J0.4383
G1 X49.2574 Y52.7781
G3 X49.3475 Y52.6804 I0.7046 J0.5599
G1 X49.6085 Y52.4365
G3 X49.6874 Y52.3708 I0.6145 J0.6575
G1 X50.0138 Y52.1291
G3 X50.08 Y52.0845 I0.5356 J0.7233
G1 X50.4719 Y51.845
G3 X50.5279 Y51.8134 I0.4694 J0.7679
G1 X50.9343 Y51.6033
G3 X50.9602 Y51.5904 I0.4133 J0.7995
G1 X51.5745 Y51.2974
G3 X51.5878 Y51.2912 I0.3874 J0.8123
G1 X52.4099 Y50.9154
G3 X52.418 Y50.9118 I0.3742 J0.8185
G1 X53.4449 Y50.4545
G1 X54.2794 Y50.0752
G1 X54.96 Y49.7454
G1 X55.4856 Y49.467
G1 X55.8479 Y49.2476
G1 X56.2123 Y48.9777
G1 X56.521 Y48.691
G1 X56.7812 Y48.3841
G1 X56.9954 Y48.0573
G1 X57.1618 Y47.7119
G1 X57.2809 Y47.3432
G1 X57.3541 Y46.9427
G1 X57.3787 Y46.5154
G1 X57.3363 Y45.9696
G1 X57.2123 Y45.4588
G1 X57.004 Y44.9648
G1 X56.7057 Y44.4813
G1 X56.3272 Y44.0296
G1 X55.8791 Y43.6289
G1 X55.3548 Y43.2764
G1 X54.7489 Y42.9727
G1 X54.0737 Y42.7277
G1 X53.3416 Y42.5503
G1 X52.5497 Y42.4423
G1 X51.7037 Y42.406
G1 X50.4256 Y42.479
G1 X49.3023 Y42.6918
G1 X48.3249 Y43.0374
G1 X47.5065 Y43.4973
G1 X46.8825 Y44.0862
G1 X46.4302 Y44.8808
G1 X46.1356 Y45.9513
G1 X46.0926 Y46.4957
G1 X46.3262 Y46.5176
G1 X46.4571 Y46.5298
G1 X46.4654 Y46.3887
G3 X46.4787 Y46.2786 I0.8985 J0.0526
G1 X46.5638 Y45.8159
G3 X46.592 Y45.7035 I0.8852 J0.1627
G1 X46.7337 Y45.2619
G3 X46.7768 Y45.1529 I0.8569 J0.2751
G1 X46.9752 Y44.7323
G3 X47.0382 Y44.6203 I0.8139 J0.3841
G1 F300.0 X47.2051 Y44.7306
G3 F400.0 X47.2109 Y44.7219 I0.5841 J0.3859
G1 X47.4748 Y44.3351
G3 X47.5565 Y44.2363 I0.5782 J0.3945
G1 X47.8945 Y43.8961
G3 X47.9849 Y43.8194 I0.4966 J0.4934
G1 X48.397 Y43.5257
G3 X48.4861 Y43.4717 I0.4062 J0.5701
G1 X48.9724 Y43.2246
G3 X49.054 Y43.1894 I0.3171 J0.624
G1 X49.6021 Y42.9935
G3 X49.6781 Y42.9711 I0.2356 J0.6592
G1 X50.2757 Y42.8312
G3 X50.3452 Y42.8186 I0.1596 J0.6816
G1 X50.9922 Y42.7346
G3 X51.0542 Y42.7294 I0.0901 J0.6942
G1 X51.7506 Y42.7014
G3 X51.8193 Y42.702 I0.0281 J0.6994
G1 X52.7822 Y42.758
G3 X52.8786 Y42.7703 I-0.0406 J0.6988
G1 X53.72 Y42.9382
G3 X53.8366 Y42.9723 I-0.137 J0.6865
G1 X54.5567 Y43.2521
G3 X54.6864 Y43.3189 I-0.2536 J0.6524
G1 X55.2851 Y43.7107
G3 X55.393 Y43.7978 I-0.3834 J0.5857
G1 X55.8637 Y44.2616
G3 X55.9518 Y44.3673 I-0.4913 J0.4986
G1 X56.288 Y44.8631
G3 X56.3625 Y45.0061 I-0.5793 J0.3929
G1 X56.5642 Y45.5338
G3 X56.6054 Y45.7003 I-0.6539 J0.2499
G1 X56.6726 Y46.26
G3 X56.6748 Y46.4068 I-0.695 J0.0835
G1 X56.6391 Y46.7994
G3 X56.6152 Y46.9279 I-0.6971 J-0.0633
G1 X56.5083 Y47.303
G3 X56.4617 Y47.4232 I-0.6732 J-0.1918
G1 X56.2836 Y47.7809
G3 X56.2216 Y47.8827 I-0.6266 J-0.312
G1 X55.9723 Y48.2229
G3 X55.8616 Y48.342 I-0.5646 J-0.4138
G1 X55.445 Y48.6968
G3 X55.3592 Y48.7593 I-0.4539 J-0.5329
G1 X54.6911 Y49.1722
G3 X54.6422 Y49.1998 I-0.368 J-0.5954
G1 X53.7226 Y49.6708
G3 X53.6917 Y49.6857 I-0.3191 J-0.623
G1 X52.5206 Y50.215
G3 X52.5161 Y50.217 I-0.2883 J-0.6379
G1 X51.5969 Y50.6246
G1 X50.8477 Y50.9764
G1 X50.268 Y51.2719
G1 X49.8676 Y51.5034
G1 X49.3845 Y51.8503
G1 X48.9759 Y52.2066
G1 X48.6448 Y52.566
G1 X48.3877 Y52.9268
G1 X48.1946 Y53.2986
G1 X48.0566 Y53.6959
G1 X47.9725 Y54.1251
G1 X47.944 Y54.5872
G1 X47.9822 Y55.1304
G1 X48.0944 Y55.6362
G1 X48.2807 Y56.1134
G1 X48.5423 Y56.5653
G1 X48.8751 Y56.9772
G1 X49.2797 Y57.3397
G1 X49.7651 Y57.6576
G1 X50.3387 Y57.9302
G1 X50.9834 Y58.1497
G1 X51.6769 Y58.3086
G1 X52.4187 Y58.405
G1 X53.2085 Y58.4374
G1 X54.1449 Y58.3966
G1 X54.9905 Y58.2762
G1 X55.7458 Y58.0795
G1 X56.4169 Y57.8085
G1 X57.0006 Y57.4773
G1 X57.4868 Y57.104
G1 X57.8785 Y56.692
G1 X58.1909 Y56.2278
G1 X58.4351 Y55.7307
G1 X58.6084 Y55.2477
G1 X58.7091 Y54.7911
G1 X58.7194 Y54.6542
G1 X58.2776 Y54.6192
G1 X57.8929 Y54.5886
G1 X57.8539 Y54.8446
G3 X57.8408 Y54.9095 I-0.692 J-0.1054
G1 X57.7849 Y55.1327
G3 X57.7585 Y55.2156 I-0.679 J-0.1703
G1 X57.6262 Y55.5566
G3 X57.5935 Y55.6284 I-0.6526 J-0.2533
G1 X57.4292 Y55.9417
G3 X57.3863 Y56.013 I-0.6199 J-0.3251
G1 X57.19 Y56.2987
G3 X57.1374 Y56.3661 I-0.577 J-0.3964
G1 X56.9091 Y56.6242
G3 X56.844 Y56.6887 I-0.5243 J-0.4638
G1 X56.5768 Y56.921
G3 X56.5054 Y56.9754 I-0.4593 J-0.5283
G1 X56.1924 Y57.1837
G3 X56.1245 Y57.2236 I-0.3878 J-0.5828
G1 X55.7657 Y57.4079
G3 X55.7037 Y57.436 I-0.3198 J-0.6227
G1 X55.2992 Y57.5963
G3 X55.2393 Y57.617 I-0.2579 J-0.6508
G1 X54.7991 Y57.7467
G3 X54.7378 Y57.7618 I-0.1979 J-0.6714
G1 X54.2722 Y57.8545
G3 X54.2143 Y57.8635 I-0.1367 J-0.6865
G1 X53.7232 Y57.9191
G3 X53.6696 Y57.9231 I-0.0788 J-0.6956
G1 X53.1531 Y57.9417
G3 X53.0863 Y57.9409 I-0.0251 J-0.6995
G1 X52.2074 Y57.8885
G3 X52.1102 Y57.8759 I0.0416 J-0.6988
G1 X51.3345 Y57.7188
G3 X51.2195 Y57.6851 I0.1389 J-0.6861
G1 X50.5471 Y57.4234
G3 X50.4221 Y57.3597 I0.2539 J-0.6523
G1 X49.8529 Y56.9933
G3 X49.7368 Y56.8996 I0.3789 J-0.5886
G1 X49.3907 Y56.5536
G3 X49.2909 Y56.4277 I0.495 J-0.495
G1 X49.0437 Y56.0293
G3 X48.9736 Y55.879 I0.5948 J-0.369
G1 X48.8253 Y55.4283
G3 X48.7936 Y55.278 I0.6649 J-0.2188
G1 X48.7442 Y54.7749
G3 X48.7424 Y54.66 I0.6966 J-0.0685
G1 X48.7627 Y54.3543
G3 X48.7763 Y54.2561 I0.6985 J0.0465
G1 X48.8374 Y53.9671
G3 X48.8666 Y53.8667 I0.6849 J0.1447
G1 X48.9683 Y53.5945
G3 X49.0126 Y53.4987 I0.6557 J0.2451
G1 X49.1551 Y53.2431
G3 X49.2185 Y53.1486 I0.6114 J0.3409
G1 X49.414 Y52.9025
G3 X49.4841 Y52.8266 I0.548 J0.4355
G1 X49.7451 Y52.5827
G3 X49.8064 Y52.5315 I0.478 J0.5114
G1 X50.1329 Y52.2898
G3 X50.1843 Y52.2551 I0.4166 J0.5625
G1 X50.5762 Y52.0156
G3 X50.6198 Y51.991 I0.3651 J0.5972
G1 X51.0262 Y51.7809
G3 X51.0463 Y51.7709 I0.3215 J0.6218
G1 X51.6606 Y51.478
G3 X51.6709 Y51.4731 I0.3013 J0.6318
G1 X52.4931 Y51.0973
G3 X52.4994 Y51.0945 I0.291 J0.6366
G1 X53.527 Y50.6369
G1 X54.3644 Y50.2562
G1 X55.0504 Y49.9238
G1 X55.5843 Y49.641
G1 X55.9594 Y49.4139
G1 X56.3403 Y49.1318
G1 X56.6658 Y48.8294
G1 X56.9417 Y48.5041
G1 X57.1699 Y48.1559
G1 X57.3479 Y47.7864
G1 X57.4753 Y47.3922
G1 X57.553 Y46.9665
G1 X57.5791 Y46.5134
G1 X57.5344 Y45.9381
G1 X57.4029 Y45.396
G1 X57.1823 Y44.8729
G1 X56.8683 Y44.364
G1 X56.4712 Y43.8901
G1 X56.0021 Y43.4706
G1 X55.4558 Y43.1033
G1 X54.8281 Y42.7887
G1 X54.1316 Y42.5359
G1 X53.3788 Y42.3535
G1 X52.5675 Y42.2428
G1 X51.7023 Y42.2057
G1 X50.4012 Y42.28
G1 X49.2501 Y42.4982
G1 X48.2419 Y42.8546
G1 X47.3871 Y43.335
G1 X46.7235 Y43.9613
G1 X46.244 Y44.8036
G1 X45.9377 Y45.9165
G1 X45.8777 Y46.6764
G1 X46.3075 Y46.7167
G1 X46.6447 Y46.7483
G1 X46.6651 Y46.4004
G3 X46.6754 Y46.3148 I0.6988 J0.0409
G1 X46.7605 Y45.852
G3 X46.7824 Y45.7647 I0.6885 J0.1266
G1 X46.9242 Y45.323
G3 X46.9576 Y45.2382 I0.6665 J0.2139
G1 X47.1561 Y44.8177
G3 X47.2051 Y44.7306 I0.633 J0.2987
G1 F300.0 X47.372 Y44.8408
G3 F400.0 X47.3761 Y44.8346 I0.4172 J0.2756
G1 X47.64 Y44.4479
G3 X47.6983 Y44.3773 I0.413 J0.2818
G1 X48.0364 Y44.0371
G3 X48.1009 Y43.9823 I0.3547 J0.3524
G1 X48.5131 Y43.6886
G3 X48.5767 Y43.65 I0.2901 J0.4072
G1 X49.0631 Y43.4029
G3 X49.1213 Y43.3778 I0.2265 J0.4457
G1 X49.6694 Y43.1819
G3 X49.7237 Y43.1659 I0.1683 J0.4708
G1 X50.3213 Y43.0259
G3 X50.3709 Y43.0169 I0.114 J0.4868
G1 X51.0179 Y42.9329
G3 X51.0622 Y42.9292 I0.0643 J0.4958
G1 X51.7586 Y42.9012
G3 X51.8077 Y42.9016 I0.0201 J0.4996
G1 X52.7706 Y42.9576
G3 X52.8394 Y42.9664 I-0.029 J0.4992
G1 X53.6809 Y43.1344
G3 X53.7642 Y43.1587 I-0.0979 J0.4903
G1 X54.4842 Y43.4385
G3 X54.5769 Y43.4862 I-0.1811 J0.466
G1 X55.1755 Y43.8781
G3 X55.2527 Y43.9403 I-0.2738 J0.4184
G1 X55.7234 Y44.4041
G3 X55.7862 Y44.4796 I-0.3509 J0.3562
G1 X56.1225 Y44.9754
G3 X56.1757 Y45.0775 I-0.4138 J0.2806
G1 X56.3774 Y45.6053
G3 X56.4068 Y45.7241 I-0.467 J0.1785
G1 X56.4741 Y46.2839
G3 X56.4756 Y46.3887 I-0.4964 J0.0596
G1 X56.44 Y46.7813
G3 X56.4229 Y46.8731 I-0.498 J-0.0452
G1 X56.316 Y47.2482
G3 X56.2827 Y47.3341 I-0.4809 J-0.137
G1 X56.1046 Y47.6917
G3 X56.0603 Y47.7644 I-0.4476 J-0.2229
G1 X55.811 Y48.1047
G3 X55.7319 Y48.1898 I-0.4033 J-0.2956
G1 X55.3153 Y48.5445
G3 X55.254 Y48.5892 I-0.3242 J-0.3807
G1 X54.5859 Y49.0021
G3 X54.551 Y49.0218 I-0.2629 J-0.4253
G1 X53.6314 Y49.4928
G3 X53.6094 Y49.5035 I-0.228 J-0.445
G1 X52.4382 Y50.0327
G3 X52.435 Y50.0341 I-0.2059 J-0.4556
G1 X51.5138 Y50.4427
G1 X50.7598 Y50.7968
G1 X50.1725 Y51.0961
G1 X49.759 Y51.3352
G1 X49.2602 Y51.6934
G1 X48.8362 Y52.063
G1 X48.4893 Y52.4397
G1 X48.2167 Y52.8221
G1 X48.0104 Y53.2193
G1 X47.863 Y53.6436
G1 X47.7737 Y54.0996
G1 X47.7435 Y54.588
G1 X47.7837 Y55.1593
G1 X47.9025 Y55.6946
G1 X48.1 Y56.2004
G1 X48.3769 Y56.6789
G1 X48.7296 Y57.1154
G1 X49.1575 Y57.4988
G1 X49.6669 Y57.8324
G1 X50.2632 Y58.1158
G1 X50.9286 Y58.3424
G1 X51.6416 Y58.5057
G1 X52.4017 Y58.6045
G1 X53.2087 Y58.6376
G1 X54.1634 Y58.596
G1 X55.03 Y58.4726
G1 X55.8087 Y58.2698
G1 X56.5041 Y57.9889
G1 X57.1113 Y57.6444
G1 X57.6209 Y57.2531
G1 X58.0351 Y56.8176
G1 X58.3644 Y56.3282
G1 X58.6195 Y55.8088
G1 X58.801 Y55.3033
G1 X58.9075 Y54.8203
G1 X58.9338 Y54.4706
G1 X58.843 Y54.4634
G1 X58.2934 Y54.4198
G1 X57.7439 Y54.3762
G1 X57.7116 Y54.3736
G1 X57.7003 Y54.5164
G3 X57.6961 Y54.5521 I-0.4984 J-0.0396
G1 X57.6562 Y54.8145
G3 X57.6469 Y54.8608 I-0.4943 J-0.0753
G1 X57.5909 Y55.084
G3 X57.572 Y55.1433 I-0.485 J-0.1216
G1 X57.4397 Y55.4842
G3 X57.4164 Y55.5355 I-0.4661 J-0.1809
G1 X57.2521 Y55.8488
G3 X57.2214 Y55.8998 I-0.4428 J-0.2322
G1 X57.0251 Y56.1855
G3 X56.9875 Y56.2336 I-0.4121 J-0.2831
G1 X56.7593 Y56.4917
G3 X56.7128 Y56.5378 I-0.3745 J-0.3313
G1 X56.4456 Y56.77
G3 X56.3946 Y56.8089 I-0.328 J-0.3773
G1 X56.0816 Y57.0172
G3 X56.0331 Y57.0457 I-0.277 J-0.4163
G1 X55.6743 Y57.23
G3 X55.6301 Y57.2501 I-0.2285 J-0.4448
G1 X55.2255 Y57.4104
G3 X55.1827 Y57.4251 I-0.1842 J-0.4648
G1 X54.7425 Y57.5549
G3 X54.6988 Y57.5657 I-0.1414 J-0.4796
G1 X54.2331 Y57.6584
G3 X54.1918 Y57.6648 I-0.0976 J-0.4904
G1 X53.7007 Y57.7204
G3 X53.6624 Y57.7233 I-0.0563 J-0.4968
G1 X53.1459 Y57.7418
G3 X53.0982 Y57.7413 I-0.0179 J-0.4997
G1 X52.2193 Y57.6889
G3 X52.1499 Y57.6798 I0.0297 J-0.4991
G1 X51.3742 Y57.5228
G3 X51.2921 Y57.4987 I0.0992 J-0.4901
G1 X50.6196 Y57.237
G3 X50.5303 Y57.1915 I0.1813 J-0.466
G1 X49.9611 Y56.8251
G3 X49.8782 Y56.7582 I0.2706 J-0.4204
G1 X49.5322 Y56.4122
G3 X49.4609 Y56.3222 I0.3536 J-0.3536
G1 X49.2137 Y55.9239
G3 X49.1636 Y55.8165 I0.4249 J-0.2636
G1 X49.0153 Y55.3658
G3 X48.9926 Y55.2584 I0.475 J-0.1563
G1 X48.9432 Y54.7554
G3 X48.9419 Y54.6733 I0.4976 J-0.0489
G1 X48.9623 Y54.3676
G3 X48.972 Y54.2974 I0.4989 J0.0332
G1 X49.033 Y54.0085
G3 X49.0539 Y53.9367 I0.4892 J0.1034
G1 X49.1557 Y53.6645
G3 X49.1873 Y53.5961 I0.4683 J0.1751
G1 X49.3298 Y53.3406
G3 X49.375 Y53.273 I0.4367 J0.2435
G1 X49.5706 Y53.0269
G3 X49.6207 Y52.9727 I0.3915 J0.3111
G1 X49.8816 Y52.7288
G3 X49.9255 Y52.6923 I0.3414 J0.3653
G1 X50.2519 Y52.4506
G3 X50.2887 Y52.4258 I0.2976 J0.4018
G1 X50.6805 Y52.1862
G3 X50.7116 Y52.1687 I0.2608 J0.4266
G1 X51.118 Y51.9586
G3 X51.1324 Y51.9514 I0.2296 J0.4441
G1 X51.7467 Y51.6585
G3 X51.754 Y51.655 I0.2152 J0.4513
G1 X52.5762 Y51.2792
G3 X52.5807 Y51.2772 I0.2079 J0.4547
G1 X53.6091 Y50.8193
G1 X54.4494 Y50.4373
G1 X55.1409 Y50.1022
G1 X55.683 Y49.8151
G1 X56.071 Y49.5801
G1 X56.4683 Y49.2859
G1 X56.8107 Y48.9678
G1 X57.1022 Y48.624
G1 X57.3443 Y48.2545
G1 X57.5341 Y47.8609
G1 X57.6697 Y47.4411
G1 X57.752 Y46.9903
G1 X57.7796 Y46.5114
G1 X57.7326 Y45.9066
G1 X57.5935 Y45.3331
G1 X57.3606 Y44.781
G1 X57.0309 Y44.2467
G1 X56.6153 Y43.7506
G1 X56.1251 Y43.3123
G1 X55.5568 Y42.9303
G1 X54.9073 Y42.6047
G1 X54.1894 Y42.3442
G1 X53.416 Y42.1568
G1 X52.5854 Y42.0434
G1 X51.7009 Y42.0055
G1 X50.3768 Y42.0811
G1 X49.1978 Y42.3045
G1 X48.159 Y42.6718
G1 X47.2677 Y43.1727
G1 X46.5645 Y43.8363
G1 X46.0578 Y44.7264
G1 X45.7399 Y45.8818
G1 X45.6628 Y46.8571
G1 X45.7305 Y46.8635
G1 X46.2888 Y46.9158
G1 X46.8368 Y46.9672
G1 X46.8359 Y46.9447
G3 X46.8364 Y46.8959 I0.4996 J-0.0196
G1 X46.8647 Y46.4121
G3 X46.8721 Y46.3509 I0.4991 J0.0292
G1 X46.9572 Y45.8882
G3 X46.9728 Y45.8258 I0.4918 J0.0904
G1 X47.1146 Y45.3842
G3 X47.1385 Y45.3236 I0.4761 J0.1528
G1 X47.337 Y44.903
G3 X47.372 Y44.8408 I0.4522 J0.2134
G0 Z3.0
G0 X61.1258 Y51.6041
G0 Z1.0
G1 F300.0 Z-0.4
G1 F400.0 X61.1604 Y51.7629
G1 X65.5127
G1 X65.4791 Y51.6041
G1 X61.1258
G1 F300.0 Y51.4041
G1 F400.0 X60.8777
G1 X60.9992 Y51.9629
G1 X65.7595
G1 X65.6412 Y51.4041
G1 X61.1258
G1 F300.0 Y51.2041
G1 F400.0 X60.6295
G1 X60.838 Y52.1629
G1 X66.0063
G1 X65.8032 Y51.2041
G1 X61.1258
G1 F300.0 Y51.6041
G1 Z-0.5
G1 F400.0 X61.1604 Y51.7629
G1 X65.5127
G1 X65.4791 Y51.6041
G1 X61.1258
G1 F300.0 Y51.4041
G1 F400.0 X60.8777
G1 X60.9992 Y51.9629
G1 X65.7595
G1 X65.6412 Y51.4041
G1 X61.1258
G1 F300.0 Y51.2041
G1 F400.0 X60.6295
G1 X60.838 Y52.1629
G1 X66.0063
G1 X65.8032 Y51.2041
G1 X61.1258
G0 Z3.0
G0 X69.6342 Y52.4569
G0 Z1.0
G1 F300.0 Z-0.4
G1 F400.0 X69.6593 Y52.5767
G3 X69.7113 Y52.5033 I0.9227 J0.5981
G3 X69.6342 Y52.4569 I0.5278 J-0.9647
G1 F300.0 X69.7443 Y52.2899
G3 F400.0 X69.3585 Y51.7227 I0.4948 J-0.7513
G1 X69.2936 Y51.4123
G1 X69.2287 Y51.1018
G1 X69.1638 Y50.7913
G1 X69.0989 Y50.4808
G1 X69.034 Y50.1704
G1 X68.969 Y49.8599
G1 X68.9041 Y49.5494
G1 X68.8392 Y49.239
G1 X68.7743 Y48.9285
G1 X68.7094 Y48.618
G1 X68.6445 Y48.3075
G1 X68.5796 Y47.9971
G1 X68.5147 Y47.6866
G1 X68.4498 Y47.3761
G1 X68.3848 Y47.0657
G1 Y47.0656
G1 X68.3199 Y46.7551
G3 X68.6699 Y45.8446 I0.8806 J-0.184
G1 X68.2415
G1 X68.0452
G1 X68.1941 Y46.5556
G1 X68.3821 Y47.4533
G1 X68.5701 Y48.351
G1 X68.7581 Y49.2488
G1 X68.9461 Y50.1465
G1 X69.1341 Y51.0442
G1 X69.3221 Y51.942
G1 X69.5101 Y52.8397
G1 X69.6981 Y53.7374
G1 X69.8861 Y54.6352
G1 X70.0741 Y55.5329
G1 X70.2621 Y56.4306
G1 X70.45 Y57.3284
G1 X70.638 Y58.2261
G1 X70.6762 Y58.4083
G1 X70.7792
G1 X71.0057
G3 X70.6421 Y57.8562 I0.5169 J-0.7363
G1 X70.5833 Y57.5751
G1 X70.5245 Y57.2941
G1 X70.4657 Y57.013
G1 X70.4069 Y56.7319
G1 X70.3481 Y56.4508
G1 X70.2893 Y56.1697
G1 X70.2306 Y55.8887
G1 X70.1718 Y55.6076
G1 X70.113 Y55.3265
G1 X70.0542 Y55.0454
G1 X69.9954 Y54.7644
G1 X69.9366 Y54.4833
G1 X69.8778 Y54.2022
G1 X69.819 Y53.9211
G1 X69.7603 Y53.64
G1 X69.7015 Y53.359
G3 X70.0851 Y52.4249 I0.8805 J-0.1842
G3 X69.7443 Y52.2899 I0.154 J-0.8863
G0 Z3.0
G0 X74.9428 Y52.3794
G0 Z1.0
G1 F300.0 Z-0.4
G1 F400.0 X75.0091 Y52.3895
G1 X75.2151 Y52.4207
G1 X75.4211 Y52.4519
G3 X75.5505 Y52.4815 I-0.1348 J0.8894
G1 X75.6619 Y52.5157
G3 X75.678 Y52.2545 I0.8968 J-0.0757
G1 X75.6376 Y52.267
G3 X75.502 Y52.2977 I-0.2656 J-0.8595
G1 X75.3338 Y52.3223
G1 X75.1657 Y52.3469
G1 X74.9975 Y52.3714
G1 X74.9428 Y52.3794
G0 Z3.0
G0 X77.58 Y50.7462
G0 Z1.0
G1 F300.0 Z-0.4
G1 F400.0 X77.583 Y50.7428
G1 X77.6048 Y50.7082
G1 X77.6681 Y50.608
G1 X77.7313 Y50.5078
G1 X77.7541 Y50.4717
G1 X77.7701 Y50.4332
G1 X77.8153 Y50.3249
G1 X77.8604 Y50.2166
G1 X77.8767 Y50.1776
G1 X77.8868 Y50.1342
G1 X77.9139 Y50.0178
G1 X77.941 Y49.9014
G1 Y49.9013
G1 X77.9521 Y49.8535
G1 X77.9561 Y49.7993
G1 X77.9651 Y49.6747
G1 X77.9742 Y49.5502
G1 X77.9785 Y49.4908
G1 X77.9726 Y49.4093
G1 X77.9725
G1 X77.9619 Y49.2626
G1 X77.9513 Y49.1159
G1 X77.9454 Y49.035
G1 X77.9278 Y48.9558
G1 X77.8959 Y48.8122
G1 X77.8639 Y48.6686
G1 X77.846 Y48.588
G1 X77.8157 Y48.5078
G1 X77.7625 Y48.3673
G1 X77.7093 Y48.2267
G1 X77.6776 Y48.1429
G1 X77.632 Y48.0588
G1 X77.5575 Y47.9213
G1 X77.483 Y47.7839
G1 X77.4356 Y47.6963
G1 X77.3767 Y47.6142
G1 X77.2847 Y47.486
G1 X77.1926 Y47.3578
G1 X77.1351 Y47.2775
G1 X77.0697 Y47.2079
G1 X76.9639 Y47.0951
G1 X76.8581 Y46.9824
G1 X76.7937 Y46.9137
G1 X76.7211 Y46.8546
G1 X76.6385 Y46.7874
G1 X76.6646 Y46.813
G1 X76.7241 Y46.8714
G1 X76.7837 Y46.9298
G1 X76.8432 Y46.9882
G3 X76.9201 Y47.0739 I-0.6299 J0.6423
G1 X76.972 Y47.1398
G1 X77.0239 Y47.2057
G1 X77.0758 Y47.2716
G1 X77.1277 Y47.3375
G3 X77.1914 Y47.4297 I-0.7068 J0.5566
G1 X77.2357 Y47.5031
G1 X77.2799 Y47.5765
G1 X77.3241 Y47.6499
G1 X77.3242
G1 X77.3684 Y47.7233
G3 X77.4174 Y47.8166 I-0.7705 J0.4644
G1 X77.4528 Y47.8947
G1 X77.4881 Y47.9727
G1 X77.5235 Y48.0508
G1 X77.5588 Y48.1289
G3 X77.5972 Y48.2289 I-0.8195 J0.3711
G1 X77.6224 Y48.3088
G1 X77.6477 Y48.3887
G1 X77.6729 Y48.4686
G1 Y48.4687
G1 X77.6982 Y48.5486
G3 X77.7249 Y48.6557 I-0.8578 J0.2711
G1 X77.7401 Y48.7375
G1 X77.7553 Y48.8192
G1 X77.7704 Y48.901
G1 Y48.9009
G1 Y48.901
G1 X77.7856 Y48.9827
G3 X77.799 Y49.0924 I-0.8845 J0.164
G1 X77.8041 Y49.176
G1 X77.8091 Y49.2596
G1 X77.8142 Y49.3432
G1 X77.8192 Y49.4268
G3 X77.8177 Y49.5558 I-0.898 J0.0543
G1 X77.8079 Y49.6743
G1 X77.798 Y49.7929
G1 Y49.7928
G1 Y49.7929
G1 X77.7881 Y49.9114
G1 Y49.9115
G1 X77.7782 Y50.03
G3 X77.7466 Y50.2031 I-0.8965 J-0.0747
G1 X77.7169 Y50.3065
G1 X77.6873 Y50.4099
G1 X77.6577 Y50.5133
G1 X77.6281 Y50.6167
G3 X77.58 Y50.7462 I-0.8648 J-0.2477
G0 Z3.0
G0 X78.2891 Y56.1575
G0 Z1.0
G1 F300.0 Z-0.4
G3 F400.0 X78.2763 Y56.247 I-0.8958 J-0.0831
G1 X78.263 Y56.3151
G1 X78.2629
G1 X78.2496 Y56.3832
G1 X78.2363 Y56.4514
G1 X78.223 Y56.5195
G3 X78.1885 Y56.6461 I-0.8829 J-0.1726
G1 X78.1663 Y56.7091
G1 X78.1441 Y56.772
G1 X78.1219 Y56.8349
G1 X78.0997 Y56.8978
G3 X78.0434 Y57.025 I-0.8484 J-0.2993
G1 X78.0123 Y57.0827
G1 Y57.0828
G1 X77.9813 Y57.1405
G1 X77.9812
G1 X77.9502 Y57.1982
G1 X77.9191 Y57.2559
G3 X77.8468 Y57.369 I-0.7921 J-0.4265
G1 X77.8083 Y57.4204
G1 X77.7698 Y57.4718
G1 X77.7313 Y57.5231
G1 X77.7022 Y57.5619
G1 X77.7106 Y57.5538
G1 X77.7343 Y57.5309
G1 X77.755 Y57.5044
G1 X77.7551
G1 X77.8144 Y57.4286
G1 X77.8737 Y57.3529
G1 X77.8958 Y57.3246
G1 X77.9153 Y57.2914
G1 X77.9652 Y57.2062
G1 X78.0152 Y57.1209
G1 X78.0368 Y57.0842
G1 X78.0542 Y57.0435
G1 X78.0939 Y56.9511
G1 X78.1335 Y56.8587
G1 X78.1516 Y56.8167
G1 X78.1645 Y56.7722
G1 Y56.7721
G1 X78.1929 Y56.675
G1 X78.2212 Y56.5779
G1 X78.2346 Y56.532
G1 X78.2428 Y56.4827
G1 X78.2598 Y56.3808
G1 X78.2768 Y56.2789
G1 X78.2855 Y56.2269
G1 X78.2884 Y56.1708
G1 X78.2891 Y56.1575
G1 F300.0 X78.09 Y56.139
G3 F400.0 X78.08 Y56.2086 I-0.6966 J-0.0646
G1 X78.0667 Y56.2767
G1 X78.0533 Y56.3449
G1 X78.04 Y56.413
G1 X78.0267 Y56.4811
G3 X77.9999 Y56.5796 I-0.6866 J-0.1342
G1 X77.9777 Y56.6425
G1 Y56.6426
G1 X77.9555 Y56.7055
G1 X77.9333 Y56.7684
G1 X77.9111 Y56.8313
G3 X77.8673 Y56.9302 I-0.6597 J-0.2327
G1 X77.8362 Y56.9879
G1 X77.8052 Y57.0457
G1 X77.8051
G1 X77.7741 Y57.1034
G1 X77.743 Y57.1611
G3 X77.6868 Y57.2491 I-0.616 J-0.3317
G1 X77.6483 Y57.3004
G1 X77.6098 Y57.3518
G1 X77.5713 Y57.4032
G1 X77.5328 Y57.4545
G3 X77.4642 Y57.533 I-0.5598 J-0.4196
G1 X77.4198 Y57.5768
G1 Y57.5769
G1 X77.3753 Y57.6207
G1 X77.3308 Y57.6646
G1 X77.2863 Y57.7084
G3 X77.2042 Y57.7778 I-0.4912 J-0.4981
G1 X77.1537 Y57.8142
G1 X77.1033 Y57.8506
G1 X77.0529 Y57.8869
G1 X77.0528
G1 X77.0024 Y57.9233
G3 X76.9119 Y57.9786 I-0.4091 J-0.5675
G1 X76.8555 Y58.0074
G1 X76.7991 Y58.0363
G1 X76.7427 Y58.0652
G1 X76.6863 Y58.094
G3 X76.5706 Y58.1407 I-0.3186 J-0.6228
G1 X76.4981 Y58.1627
G1 X76.4256 Y58.1847
G1 X76.3531 Y58.2066
G1 X76.2806 Y58.2286
G3 X76.1876 Y58.25 I-0.2029 J-0.6695
G1 X76.0889 Y58.2657
G1 X75.9903 Y58.2814
G1 X75.8916 Y58.2971
G1 X75.7929 Y58.3127
G3 X75.7356 Y58.3194 I-0.1099 J-0.6909
G1 X75.6108 Y58.3289
G1 X75.4859 Y58.3383
G1 X75.3611 Y58.3477
G1 X75.2363 Y58.3571
G3 X75.1982 Y58.3589 I-0.0526 J-0.6976
G1 X75.0472 Y58.3621
G1 X74.8962 Y58.3652
G1 X74.7451 Y58.3683
G1 X74.5941 Y58.3715
G3 X74.5796 Y58.3716 I-0.0145 J-0.6994
G1 X74.3885
G1 X74.1974
G1 X74.0064
G1 X73.8153
G1 X73.6243
G1 X73.4332
G1 X73.2421
G1 X73.0511
G1 X72.86
G1 X72.669
G1 X72.4779
G1 X72.2868
G1 X72.0958
G1 X71.9047
G1 X71.7137
G1 X71.5226
G3 X70.8378 Y57.8153 I0.0 J-0.6996
G1 X70.779 Y57.5342
G1 X70.7203 Y57.2531
G1 X70.6615 Y56.972
G1 X70.6027 Y56.691
G1 X70.5439 Y56.4099
G1 X70.4851 Y56.1288
G1 X70.4263 Y55.8477
G1 X70.3675 Y55.5666
G1 X70.3087 Y55.2856
G1 X70.25 Y55.0045
G1 X70.1912 Y54.7234
G1 X70.1324 Y54.4423
G1 X70.0736 Y54.1613
G1 X70.0148 Y53.8802
G1 X69.956 Y53.5991
G1 X69.8972 Y53.318
G3 X70.582 Y52.4752 I0.6848 J-0.1432
G1 X70.7639
G1 X70.9458
G1 X71.1276
G1 X71.3095
G1 X71.4914
G1 X71.6733
G1 X71.8551
G1 X72.037
G1 X72.2189
G1 X72.4008
G1 X72.5826
G1 X72.7645
G1 X72.9464
G1 X73.1282
G1 X73.3101
G1 X73.492
G3 X73.522 Y52.4759 I0.0 J0.6996
G1 X73.7646 Y52.4863
G1 X74.0071 Y52.4967
G1 X74.2497 Y52.5071
G1 X74.4923 Y52.5175
G3 X74.5672 Y52.5248 I-0.03 J0.699
G1 X74.7731 Y52.556
G1 X74.9791 Y52.5872
G1 X75.1851 Y52.6184
G1 X75.3911 Y52.6497
G3 X75.4917 Y52.6726 I-0.1049 J0.6917
G1 X75.6611 Y52.7247
G1 X75.8305 Y52.7767
G1 X75.9708 Y52.8198
G3 X76.0937 Y51.9167 I0.588 J-0.3799
G1 X75.976 Y51.9531
G1 X75.8435 Y51.9941
