( Made using CamBam - http://www.cambam.co.uk )
( assbot-panel-middle 3/26/2014 2:44:02 PM )
( T11 : 1.2 )
( T204 : 2.5 )
G21 G90 G91.1 G64 G40
G0 Z3.0
( T11 : 1.2 )
T11 M6
( Drill )
G17
M3 S1000
G0 X40.0 Y80.0
G98
G81 X40.0 Y80.0 Z-3.0 R3.0 F300.0
G81 Y60.0 Z-3.0
G81 Y40.0 Z-3.0
G81 Y20.0 Z-3.0
G81 X20.0 Y40.0 Z-3.0
G81 Y60.0 Z-3.0
G81 X60.0 Y80.0 Z-3.0
G81 Y95.0 Z-3.0
G81 Y115.0 Z-3.0
G81 X80.0 Z-3.0
G81 Y95.0 Z-3.0
G81 X100.0 Y77.0 Z-3.0
G81 Y15.0 Z-3.0
G81 Y5.0 Z-3.0
G81 X185.0 Y15.0 Z-3.0
G81 X195.0 Y5.0 Z-3.0
G81 X185.0 Y77.0 Z-3.0
G81 X195.0 Y145.0 Z-3.0
G81 X100.0 Z-3.0
G81 X60.0 Y135.0 Z-3.0
G81 X5.0 Y145.0 Z-3.0
G81 Y5.0 Z-3.0
G80
( Profile-cutout )
G0 Z3.0
( T204 : 2.5 )
T204 M6
M3 S1000
G0 X151.25 Y115.0
G0 Z1.0
G1 F300.0 Z-0.5
G2 F500.0 X141.875 Y109.5873 I-6.25 J0.0
G2 Y120.4127 I3.125 J5.4127
G2 X151.25 Y115.0 I3.125 J-5.4127
G1 F300.0 Z-1.0
G2 F500.0 X141.875 Y109.5873 I-6.25 J0.0
G2 Y120.4127 I3.125 J5.4127
G2 X151.25 Y115.0 I3.125 J-5.4127
G1 F300.0 Z-1.5
G2 F500.0 X141.875 Y109.5873 I-6.25 J0.0
G2 Y120.4127 I3.125 J5.4127
G2 X151.25 Y115.0 I3.125 J-5.4127
G1 F300.0 Z-2.0
G2 F500.0 X141.875 Y109.5873 I-6.25 J0.0
G2 Y120.4127 I3.125 J5.4127
G2 X151.25 Y115.0 I3.125 J-5.4127
G1 F300.0 Z-2.5
G2 F500.0 X141.875 Y109.5873 I-6.25 J0.0
G2 Y120.4127 I3.125 J5.4127
G2 X151.25 Y115.0 I3.125 J-5.4127
G1 F300.0 Z-3.0
G2 F500.0 X141.875 Y109.5873 I-6.25 J0.0
G2 Y120.4127 I3.125 J5.4127
G2 X151.25 Y115.0 I3.125 J-5.4127
G0 Z3.0
G0 X146.5158 Y96.0634
G0 Z1.0
G1 F300.0 Z-0.5
G2 F500.0 X151.25 Y90.0 I-1.5158 J-6.0634
G2 X141.875 Y84.5873 I-6.25 J0.0
G2 Y95.4127 I3.125 J5.4127
G2 X146.5158 Y96.0634 I3.125 J-5.4127
G1 F300.0 Z-1.0
G2 F500.0 X151.25 Y90.0 I-1.5158 J-6.0634
G2 X141.875 Y84.5873 I-6.25 J0.0
G2 Y95.4127 I3.125 J5.4127
G2 X146.5158 Y96.0634 I3.125 J-5.4127
G1 F300.0 Z-1.5
G2 F500.0 X151.25 Y90.0 I-1.5158 J-6.0634
G2 X141.875 Y84.5873 I-6.25 J0.0
G2 Y95.4127 I3.125 J5.4127
G2 X146.5158 Y96.0634 I3.125 J-5.4127
G1 F300.0 Z-2.0
G2 F500.0 X151.25 Y90.0 I-1.5158 J-6.0634
G2 X141.875 Y84.5873 I-6.25 J0.0
G2 Y95.4127 I3.125 J5.4127
G2 X146.5158 Y96.0634 I3.125 J-5.4127
G1 F300.0 Z-2.5
G2 F500.0 X151.25 Y90.0 I-1.5158 J-6.0634
G2 X141.875 Y84.5873 I-6.25 J0.0
G2 Y95.4127 I3.125 J5.4127
G2 X146.5158 Y96.0634 I3.125 J-5.4127
G1 F300.0 Z-3.0
G2 F500.0 X151.25 Y90.0 I-1.5158 J-6.0634
G2 X141.875 Y84.5873 I-6.25 J0.0
G2 Y95.4127 I3.125 J5.4127
G2 X146.5158 Y96.0634 I3.125 J-5.4127
G0 Z3.0
G0 Y69.75
G0 Z1.0
G1 F300.0 Z-0.5
G1 F500.0 X178.75
G1 Y22.25
G1 X106.25
G1 Y69.75
G1 X146.5158
G1 F300.0 Z-1.0
G1 F500.0 X178.75
G1 Y22.25
G1 X106.25
G1 Y69.75
G1 X146.5158
G1 F300.0 Z-1.5
G1 F500.0 X178.75
G1 Y22.25
G1 X106.25
G1 Y69.75
G1 X146.5158
G1 F300.0 Z-2.0
G1 F500.0 X178.75
G1 Y22.25
G1 X106.25
G1 Y69.75
G1 X146.5158
G1 F300.0 Z-2.5
G1 F500.0 X178.75
G1 Y22.25
G1 X106.25
G1 Y69.75
G1 X146.5158
G1 F300.0 Z-3.0
G1 F500.0 X178.75
G1 Y22.25
G1 X106.25
G1 Y69.75
G1 X146.5158
G0 Z3.0
G0 X116.75 Y85.25
G0 Z1.0
G1 F300.0 Z-0.5
G1 F500.0 X94.25
G1 Y92.75
G1 X116.75
G1 Y85.25
G1 F300.0 Z-1.0
G1 F500.0 X94.25
G1 Y92.75
G1 X116.75
G1 Y85.25
G1 F300.0 Z-1.5
G1 F500.0 X94.25
G1 Y92.75
G1 X116.75
G1 Y85.25
G1 F300.0 Z-2.0
G1 F500.0 X94.25
G1 Y92.75
G1 X116.75
G1 Y85.25
G1 F300.0 Z-2.5
G1 F500.0 X94.25
G1 Y92.75
G1 X116.75
G1 Y85.25
G1 F300.0 Z-3.0
G1 F500.0 X94.25
G1 Y92.75
G1 X116.75
G1 Y85.25
G0 Z3.0
G0 Y110.25
G0 Z1.0
G1 F300.0 Z-0.5
G1 F500.0 X94.25
G1 Y117.75
G1 X116.75
G1 Y110.25
G1 F300.0 Z-1.0
G1 F500.0 X94.25
G1 Y117.75
G1 X116.75
G1 Y110.25
G1 F300.0 Z-1.5
G1 F500.0 X94.25
G1 Y117.75
G1 X116.75
G1 Y110.25
G1 F300.0 Z-2.0
G1 F500.0 X94.25
G1 Y117.75
G1 X116.75
G1 Y110.25
G1 F300.0 Z-2.5
G1 F500.0 X94.25
G1 Y117.75
G1 X116.75
G1 Y110.25
G1 F300.0 Z-3.0
G1 F500.0 X94.25
G1 Y117.75
G1 X116.75
G1 Y110.25
G0 Z3.0
G0 X36.75
G0 Z1.0
G1 F300.0 Z-0.5
G1 F500.0 Y94.25
G1 X19.25
G1 Y136.75
G1 X36.75
G1 Y110.25
G1 F300.0 Z-1.0
G1 F500.0 Y94.25
G1 X19.25
G1 Y136.75
G1 X36.75
G1 Y110.25
G1 F300.0 Z-1.5
G1 F500.0 Y94.25
G1 X19.25
G1 Y136.75
G1 X36.75
G1 Y110.25
G1 F300.0 Z-2.0
G1 F500.0 Y94.25
G1 X19.25
G1 Y136.75
G1 X36.75
G1 Y110.25
G1 F300.0 Z-2.5
G1 F500.0 Y94.25
G1 X19.25
G1 Y136.75
G1 X36.75
G1 Y110.25
G1 F300.0 Z-3.0
G1 F500.0 Y94.25
G1 X19.25
G1 Y136.75
G1 X36.75
G1 Y110.25
( Profile )
S1000
G0 Z3.0
G0 X0.0 Y-1.25
G0 Z1.0
G1 F300.0 Z-0.5
G1 F800.0 X200.0
G3 X201.25 Y0.0 I0.0 J1.25
G1 Y150.0
G3 X200.0 Y151.25 I-1.25 J0.0
G1 X0.0
G3 X-1.25 Y150.0 I0.0 J-1.25
G1 Y0.0
G3 X0.0 Y-1.25 I1.25 J0.0
G1 F300.0 Z-1.0
G1 F800.0 X200.0
G3 X201.25 Y0.0 I0.0 J1.25
G1 Y150.0
G3 X200.0 Y151.25 I-1.25 J0.0
G1 X0.0
G3 X-1.25 Y150.0 I0.0 J-1.25
G1 Y0.0
G3 X0.0 Y-1.25 I1.25 J0.0
G1 F300.0 Z-1.5
G1 F800.0 X200.0
G3 X201.25 Y0.0 I0.0 J1.25
G1 Y150.0
G3 X200.0 Y151.25 I-1.25 J0.0
G1 X0.0
G3 X-1.25 Y150.0 I0.0 J-1.25
G1 Y0.0
G3 X0.0 Y-1.25 I1.25 J0.0
G1 F300.0 Z-2.0
G1 F800.0 X200.0
G3 X201.25 Y0.0 I0.0 J1.25
G1 Y150.0
G3 X200.0 Y151.25 I-1.25 J0.0
G1 X0.0
G3 X-1.25 Y150.0 I0.0 J-1.25
G1 Y0.0
G3 X0.0 Y-1.25 I1.25 J0.0
G1 F300.0 Z-2.5
G1 F800.0 X200.0
G3 X201.25 Y0.0 I0.0 J1.25
G1 Y150.0
G3 X200.0 Y151.25 I-1.25 J0.0
G1 X0.0
G3 X-1.25 Y150.0 I0.0 J-1.25
G1 Y0.0
G3 X0.0 Y-1.25 I1.25 J0.0
G1 F300.0 Z-3.0
G1 F800.0 X200.0
G3 X201.25 Y0.0 I0.0 J1.25
G1 Y150.0
G3 X200.0 Y151.25 I-1.25 J0.0
G1 X0.0
G3 X-1.25 Y150.0 I0.0 J-1.25
G1 Y0.0
G3 X0.0 Y-1.25 I1.25 J0.0
G0 Z3.0
M5
M30
