( Made using CamBam - http://www.cambam.co.uk )
( assbot-panel-bottom 3/26/2014 2:49:45 PM )
( T11 : 1.2 )
( T204 : 2.5 )
G21 G90 G91.1 G64 G40
G0 Z3.0
( T11 : 1.2 )
T11 M6
( Drill )
G17
M3 S1000
G0 X5.0 Y145.0
G98
G81 X5.0 Y145.0 Z-3.0 R3.0 F300.0
G81 X100.0 Z-3.0
G81 X195.0 Z-3.0
G81 Y5.0 Z-3.0
G81 X100.0 Z-3.0
G81 X5.0 Z-3.0
G80
( Profile-cutout )
G0 Z3.0
( T204 : 2.5 )
T204 M6
M3 S1000
G0 X136.25 Y110.0
G0 Z1.0
G1 F300.0 Z-0.4
G2 F400.0 X111.875 Y95.9271 I-16.25 J0.0
G2 Y124.0729 I8.125 J14.0729
G2 X136.25 Y110.0 I8.125 J-14.0729
G1 F300.0 Z-0.8
G2 F400.0 X111.875 Y95.9271 I-16.25 J0.0
G2 Y124.0729 I8.125 J14.0729
G2 X136.25 Y110.0 I8.125 J-14.0729
G1 F300.0 Z-1.2
G2 F400.0 X111.875 Y95.9271 I-16.25 J0.0
G2 Y124.0729 I8.125 J14.0729
G2 X136.25 Y110.0 I8.125 J-14.0729
G1 F300.0 Z-1.6
G2 F400.0 X111.875 Y95.9271 I-16.25 J0.0
G2 Y124.0729 I8.125 J14.0729
G2 X136.25 Y110.0 I8.125 J-14.0729
G1 F300.0 Z-2.0
G2 F400.0 X111.875 Y95.9271 I-16.25 J0.0
G2 Y124.0729 I8.125 J14.0729
G2 X136.25 Y110.0 I8.125 J-14.0729
G1 F300.0 Z-2.4
G2 F400.0 X111.875 Y95.9271 I-16.25 J0.0
G2 Y124.0729 I8.125 J14.0729
G2 X136.25 Y110.0 I8.125 J-14.0729
G1 F300.0 Z-2.5
G2 F400.0 X111.875 Y95.9271 I-16.25 J0.0
G2 Y124.0729 I8.125 J14.0729
G2 X136.25 Y110.0 I8.125 J-14.0729
G0 Z3.0
G0 X36.75
G0 Z1.0
G1 F300.0 Z-0.4
G1 F400.0 Y94.25
G1 X19.25
G1 Y136.75
G1 X36.75
G1 Y110.0
G1 F300.0 Z-0.8
G1 F400.0 Y94.25
G1 X19.25
G1 Y136.75
G1 X36.75
G1 Y110.0
G1 F300.0 Z-1.2
G1 F400.0 Y94.25
G1 X19.25
G1 Y136.75
G1 X36.75
G1 Y110.0
G1 F300.0 Z-1.6
G1 F400.0 Y94.25
G1 X19.25
G1 Y136.75
G1 X36.75
G1 Y110.0
G1 F300.0 Z-2.0
G1 F400.0 Y94.25
G1 X19.25
G1 Y136.75
G1 X36.75
G1 Y110.0
G1 F300.0 Z-2.4
G1 F400.0 Y94.25
G1 X19.25
G1 Y136.75
G1 X36.75
G1 Y110.0
G1 F300.0 Z-2.5
G1 F400.0 Y94.25
G1 X19.25
G1 Y136.75
G1 X36.75
G1 Y110.0
( Profile )
S1000
G0 Z3.0
G0 X0.0 Y-1.25
G0 Z1.0
G1 F300.0 Z-0.5
G1 F400.0 X200.0
G3 X201.25 Y0.0 I0.0 J1.25
G1 Y150.0
G3 X200.0 Y151.25 I-1.25 J0.0
G1 X0.0
G3 X-1.25 Y150.0 I0.0 J-1.25
G1 Y0.0
G3 X0.0 Y-1.25 I1.25 J0.0
G1 F300.0 Z-1.0
G1 F400.0 X200.0
G3 X201.25 Y0.0 I0.0 J1.25
G1 Y150.0
G3 X200.0 Y151.25 I-1.25 J0.0
G1 X0.0
G3 X-1.25 Y150.0 I0.0 J-1.25
G1 Y0.0
G3 X0.0 Y-1.25 I1.25 J0.0
G1 F300.0 Z-1.5
G1 F400.0 X200.0
G3 X201.25 Y0.0 I0.0 J1.25
G1 Y150.0
G3 X200.0 Y151.25 I-1.25 J0.0
G1 X0.0
G3 X-1.25 Y150.0 I0.0 J-1.25
G1 Y0.0
G3 X0.0 Y-1.25 I1.25 J0.0
G1 F300.0 Z-2.0
G1 F400.0 X200.0
G3 X201.25 Y0.0 I0.0 J1.25
G1 Y150.0
G3 X200.0 Y151.25 I-1.25 J0.0
G1 X0.0
G3 X-1.25 Y150.0 I0.0 J-1.25
G1 Y0.0
G3 X0.0 Y-1.25 I1.25 J0.0
G1 F300.0 Z-2.5
G1 F400.0 X200.0
G3 X201.25 Y0.0 I0.0 J1.25
G1 Y150.0
G3 X200.0 Y151.25 I-1.25 J0.0
G1 X0.0
G3 X-1.25 Y150.0 I0.0 J-1.25
G1 Y0.0
G3 X0.0 Y-1.25 I1.25 J0.0
G0 Z3.0
M5
M30
