( Made using CamBam - http://www.cambam.co.uk )
( asscam_logo-outline-small 11/7/2014 12:40:51 PM )
( T103 : 0.3 )
G21 G90 G91.1 G64 G40
G0 Z3.0
( T103 : 0.3 )
T103 M6
( Pocket1 )
G17
M3 S1000
G0 X55.3219 Y16.4184
G0 Z1.25
G1 F100.0 Z0.0
G1 F150.0 X55.0224 Y16.3134
G3 X54.9716 Y16.2991 I0.0146 J-0.1493
G1 X54.9359 Y16.2818
G3 X54.9347 Y16.2812 I0.0655 J-0.135
G1 X54.8998 Y16.2639
G3 X54.8894 Y16.2582 I0.0667 J-0.1344
G1 X54.8561 Y16.2382
G3 X54.8543 Y16.2371 I0.0771 J-0.1287
G1 X54.821 Y16.2166
G3 X54.8174 Y16.2143 I0.0789 J-0.1276
G1 X54.1396 Y15.7677
G3 X54.1371 Y15.766 I0.0825 J-0.1253
G1 X53.4661 Y15.3044
G3 X53.4589 Y15.2991 I0.085 J-0.1236
G1 X52.8185 Y14.7999
G3 X52.8072 Y14.7901 I0.0922 J-0.1183
G1 X52.2203 Y14.2304
G3 X52.3958 Y13.9903 I0.1035 J-0.1085
G1 X52.5902 Y14.0966
G1 X52.8102 Y14.2129
G1 X53.0398 Y14.3283
G1 X53.2615 Y14.4319
G1 X53.7908 Y14.6489
G1 X54.338 Y14.7454
G1 X54.8884 Y14.7202
G1 X55.429 Y14.56
G1 X55.7965 Y14.4079
G1 X56.1031 Y14.1788
G1 X56.3157 Y13.8837
G1 X56.4054 Y13.514
G1 X56.4203 Y13.1255
G1 X56.3446 Y12.7466
G1 X56.2021 Y12.3686
G1 X56.0206 Y11.9911
G3 X56.2468 Y11.8069 I0.1352 J-0.065
G1 X56.3295 Y11.87
G3 X56.348 Y11.8867 I-0.091 J0.1192
G1 X56.4437 Y11.9891
G3 X56.4491 Y11.9951 I-0.1096 J0.1025
G1 X56.5467 Y12.1115
G3 X56.5516 Y12.1176 I-0.1149 J0.0964
G1 X56.6353 Y12.2287
G3 X56.6358 Y12.2293 I-0.1198 J0.0903
G1 X56.7859 Y12.4307
G3 X56.7931 Y12.4412 I-0.1203 J0.0897
G1 X56.9261 Y12.6553
G1 X57.0608 Y12.8096
G1 X57.2237 Y12.8778
G1 X57.2566 Y12.875
G1 X57.2622 Y12.8698
G1 X57.2628 Y12.8673
G1 X57.2376 Y12.819
G1 X56.6593 Y12.0189
G1 X55.9407 Y11.3358
G1 X55.1575 Y10.691
G3 X55.153 Y10.6872 I0.0953 J-0.1158
G1 X54.3962 Y10.0122
G3 X54.3952 Y10.0113 I0.0998 J-0.1119
G1 X53.6899 Y9.3704
G1 X52.9101 Y8.8386
G1 X52.0612 Y8.4515
G1 X51.1512 Y8.248
G1 X50.8119 Y8.2439
G1 X50.4845 Y8.3123
G1 X50.1798 Y8.4493
G1 X49.8975 Y8.6605
G1 X49.633 Y8.8702
G1 X49.4301 Y9.1178
G1 X49.2949 Y9.3981
G1 X49.2452 Y9.7032
G1 X49.3714 Y10.4986
G1 X49.711 Y11.2381
G1 X50.1972 Y11.9224
G1 X50.7614 Y12.5501
G3 X50.7639 Y12.5531 I-0.1116 J0.1003
G1 X51.2936 Y13.1744
G3 X51.2939 Y13.1746 I-0.1141 J0.0973
G1 X51.8202 Y13.7949
G1 X52.3648 Y14.3893
G1 X52.9602 Y14.9399
G3 X52.766 Y15.1682 I-0.1018 J0.1101
G1 X51.6433 Y14.2912
G3 X51.6305 Y14.28 I0.0923 J-0.1182
G1 X50.6105 Y13.2776
G3 X50.5972 Y13.2627 I0.1051 J-0.107
G1 X49.7214 Y12.1367
G3 X49.7085 Y12.1171 I0.1184 J-0.0921
G1 X49.019 Y10.87
G3 X49.0087 Y10.8468 I0.1313 J-0.0726
G1 X48.7497 Y10.103
G3 X48.7438 Y10.0807 I0.1417 J-0.0493
G1 X48.6004 Y9.297
G3 X48.5981 Y9.2638 I0.1476 J-0.027
G1 X48.6307 Y8.4816
G3 X48.6396 Y8.4365 I0.1499 J0.0063
G1 X48.9084 Y7.698
G3 X48.9433 Y7.6433 I0.141 J0.0513
G1 X49.4723 Y7.1145
G3 X49.5149 Y7.0847 I0.106 J0.1061
G1 X50.1904 Y6.7696
G3 X50.2278 Y6.7578 I0.0634 J0.1359
G1 X50.975 Y6.6261
G3 X51.0068 Y6.624 I0.026 J0.1477
G1 X51.7533 Y6.6525
G3 X51.7752 Y6.6549 I-0.0057 J0.1499
G1 X52.6495 Y6.8184
G3 X52.6711 Y6.8241 I-0.0276 J0.1474
G1 X53.5108 Y7.1153
G3 X53.5251 Y7.1211 I-0.0491 J0.1417
G1 X54.3354 Y7.499
G3 X54.3425 Y7.5025 I-0.0634 J0.1359
G1 X55.1298 Y7.9217
G3 X55.1444 Y7.9306 I-0.0705 J0.1324
G1 X56.1335 Y8.612
G3 X56.1448 Y8.6206 I-0.0851 J0.1235
G1 X57.0647 Y9.3925
G3 X57.0763 Y9.4032 I-0.0964 J0.1149
G1 X57.9091 Y10.2665
G3 X57.9207 Y10.2801 I-0.108 J0.1041
G1 X58.6448 Y11.2367
G1 X58.7916 Y11.4233
G3 X58.8021 Y11.4386 I-0.1179 J0.0927
G1 X58.9241 Y11.641
G3 X58.9295 Y11.6508 I-0.1285 J0.0774
G1 X59.0363 Y11.8623
G3 X59.0368 Y11.8632 I-0.1339 J0.0676
G1 X59.1426 Y12.0768
G3 X59.1458 Y12.0835 I-0.1344 J0.0666
G1 X59.3029 Y12.4444
G3 X59.3033 Y12.4454 I-0.1375 J0.0599
G1 X59.4587 Y12.8087
G3 X59.4617 Y12.8164 I-0.1379 J0.059
G1 X59.596 Y13.1856
G3 X59.6005 Y13.2006 I-0.141 J0.0513
G1 X59.6945 Y13.5779
G3 X59.6962 Y13.5858 I-0.1456 J0.0362
G1 X59.7538 Y13.8851
G3 X59.7555 Y13.896 I-0.1473 J0.0283
G1 X59.7916 Y14.2042
G3 X59.7926 Y14.2195 I-0.149 J0.0175
G1 X59.7971 Y14.5311
G3 X59.7959 Y14.552 I-0.15 J0.0022
G1 X59.757 Y14.8603
G3 X59.7535 Y14.8786 I-0.1488 J-0.0188
G1 X59.6174 Y15.4113
G3 X59.5986 Y15.4547 I-0.1453 J-0.0371
G1 X59.3044 Y15.9161
G3 X59.2775 Y15.9477 I-0.1265 J-0.0806
G1 X58.8646 Y16.3139
G3 X58.8323 Y16.3358 I-0.0995 J-0.1122
G1 X58.3396 Y16.5827
G3 X58.3019 Y16.5957 I-0.0672 J-0.1341
G1 X57.4934 Y16.7578
G3 X57.4611 Y16.7607 I-0.0295 J-0.1471
G1 X56.635 Y16.745
G3 X56.6089 Y16.7423 I0.0028 J-0.15
G1 X55.793 Y16.5821
G3 X55.7722 Y16.5764 I0.0289 J-0.1472
G1 X55.3219 Y16.4184
G0 Z3.0
G0 X54.3094 Y16.023
G0 Z1.25
G1 F100.0 Z0.0
G1 F150.0 X54.0737 Y15.8677
G3 X54.0692 Y15.8647 I0.1484 J-0.2253
G1 X53.3982 Y15.403
G3 X53.3853 Y15.3935 I0.1529 J-0.2222
G1 X53.0996 Y15.1708
G3 X53.0081 Y15.2744 I-0.2412 J-0.1208
G1 X53.3705 Y15.5134
G1 X54.2323 Y15.9892
G1 X54.3094 Y16.023
G0 Z3.0
G0 X54.8064 Y14.6041
G0 Z1.25
G1 F100.0 Z0.0
G1 F150.0 X54.9431 Y14.5695
G2 X54.9728 Y14.5602 I-0.0661 J-0.2615
G1 X55.2768 Y14.4447
G2 X55.3067 Y14.4312 I-0.0958 J-0.2522
G1 X55.5948 Y14.2794
G2 X55.6271 Y14.2593 I-0.1257 J-0.2387
G1 X55.8879 Y14.0707
G2 X55.9634 Y13.9871 I-0.1581 J-0.2186
G1 X56.1424 Y13.6773
G2 X56.1739 Y13.5929 I-0.2336 J-0.135
G1 X56.2406 Y13.2428
G2 X56.2447 Y13.1725 I-0.265 J-0.0505
G1 X56.218 Y12.8106
G2 X56.2077 Y12.7542 I-0.269 J0.0198
G1 X56.1657 Y12.6114
G1 X56.2291 Y12.7797
G1 X56.3001 Y13.135
G1 X56.2861 Y13.4974
G1 X56.2048 Y13.8327
G1 X56.0166 Y14.0938
G1 X55.7368 Y14.303
G1 X55.389 Y14.4469
G1 X54.8684 Y14.6012
G1 X54.8064 Y14.6041
G0 Z3.0
G0 X52.2835 Y14.9432
G0 Z1.25
G1 F100.0 Z0.0
G1 F150.0 X51.767 Y14.5397
G1 X51.8185 Y14.5995
G3 X51.821 Y14.6023 I-0.2043 J0.1765
G1 X52.177 Y15.0263
G3 X52.2835 Y14.9432 I0.2141 J0.1645
G0 Z3.0
G0 X52.1201 Y13.945
G0 Z1.25
G1 F100.0 Z0.0
G3 F150.0 X52.2165 Y13.8744 I0.2037 J0.1769
G1 X52.124 Y13.8155
G3 X52.1035 Y13.801 I0.1449 J-0.2275
G1 X51.8424 Y13.5985
G3 X51.8274 Y13.5859 I0.1653 J-0.2131
G1 X51.7116 Y13.4819
G1 X51.91 Y13.7157
G1 X52.1201 Y13.945
G0 Z3.0
G0 X50.3665 Y15.0375
G0 Z1.25
G1 F100.0 Z0.0
G1 F150.0 X50.3372 Y14.9904
G1 X50.3848 Y15.1682
G1 X50.4598 Y15.3382
G1 X50.545 Y15.4545
G1 X50.5768 Y15.4729
G1 X50.5448 Y15.3719
G1 X50.4551 Y15.1797
G1 X50.3665 Y15.0375
G0 Z3.0
G0 X49.5924 Y12.4564
G0 Z1.25
G1 F100.0 Z0.0
G3 F150.0 X49.7663 Y12.3894 I0.1781 J0.2029
G1 X49.6269 Y12.2102
G3 X49.6037 Y12.1751 I0.2129 J-0.1656
G1 X49.2611 Y11.5553
G1 X49.4343 Y12.0093
G3 X49.4366 Y12.0156 I-0.2523 J0.0963
G1 X49.5924 Y12.4564
G0 Z3.0
G0 X47.2592 Y11.6339
G0 Z1.25
G1 F100.0 Z0.0
G1 F150.0 X47.2671 Y11.6044
G1 X47.2548 Y11.5427
G1 X47.2441 Y11.6103
G1 X47.2592 Y11.6339
G1 F100.0 X47.3751 Y11.6649
G1 F150.0 X47.3903 Y11.6084
G1 X47.3584 Y11.4485
G3 X47.3592 Y11.3391 I0.2648 J-0.0528
G3 X47.2023 Y11.3733 I-0.1334 J-0.2347
G1 X47.193 Y11.3725
G1 X47.1716 Y11.4135
G1 X47.14 Y11.5003
G1 X47.1184 Y11.6365
G1 X47.1781 Y11.7298
G1 X47.3079 Y11.8355
G1 X47.3548 Y11.741
G1 X47.3751 Y11.6649
G0 Z3.0
G0 X48.3515 Y9.256
G0 Z1.25
G1 F100.0 Z0.0
G3 F150.0 X48.3584 Y9.2576 I-0.0827 J0.3811
G3 X48.3585 Y9.2538 I0.3896 J0.0124
G1 X48.3595 Y9.2297
G1 X48.3515 Y9.256
G0 Z3.0
G0 X49.4103 Y9.4345
G0 Z1.25
G1 F100.0 Z0.0
G1 F150.0 X49.3665 Y9.7035
G1 X49.3969 Y9.8953
G1 X49.4092 Y9.7255
G3 X49.4355 Y9.6273 I0.2691 J0.0194
G1 X49.5695 Y9.3506
G3 X49.6094 Y9.2904 I0.2428 J0.1176
G1 X49.8171 Y9.0535
G3 X49.8517 Y9.0204 I0.2029 J0.1778
G1 X50.0976 Y8.8242
G3 X50.1087 Y8.8157 I0.1683 J0.2109
G1 X50.4475 Y8.573
G3 X50.5379 Y8.5309 I0.1571 J0.2193
G1 X50.9319 Y8.4302
G3 X50.9986 Y8.4218 I0.0668 J0.2614
G1 X51.3796
G1 X51.1372 Y8.3676
G1 X50.8235 Y8.3638
G1 X50.5218 Y8.4269
G1 X50.2409 Y8.5531
G1 X49.9706 Y8.7554
G1 X49.7174 Y8.956
G1 X49.5318 Y9.1826
G1 X49.4103 Y9.4345
G0 Z3.0
G0 X48.982 Y7.2656
G0 Z1.25
G1 F100.0 Z0.0
G1 F150.0 X49.271 Y6.9768
G1 X48.9501 Y7.0553
G3 X48.982 Y7.2656 I-0.355 J0.1614
G0 Z3.0
G0 X45.7566 Y7.5756
G0 Z1.25
G1 F100.0 Z0.0
G3 F150.0 X45.7337 Y7.5607 I0.2013 J-0.334
G1 X45.6867 Y7.5277
G1 X45.6217 Y7.5192
G1 X45.4931 Y7.5353
G1 X45.4751 Y7.5411
G1 X45.5278 Y7.6159
G1 X45.6276 Y7.5984
G1 X45.7566 Y7.5756
G1 F100.0 X45.7775 Y7.6938
G1 F150.0 X45.8092 Y7.6882
G1 X45.9502 Y7.6632
G1 X45.9509 Y7.6628
G1 X45.962 Y7.6214
G3 X46.0212 Y7.5116 I0.2608 J0.0698
G1 X45.9583
G3 X45.8027 Y7.4625 I-0.0003 J-0.27
G1 X45.7315 Y7.4125
G1 X45.622 Y7.3982
G1 X45.4672 Y7.4176
G1 X45.2996 Y7.4711
G1 X45.2792 Y7.4806
G1 X45.3448 Y7.565
G3 X45.3525 Y7.5753 I-0.2131 J0.1658
G1 X45.4353 Y7.6929
G1 X45.4696 Y7.7339
G1 X45.4752 Y7.736
G1 X45.5379
G1 X45.6484 Y7.7166
G1 X45.7775 Y7.6938
G0 Z3.0
G0 X50.0259 Y2.5607
G0 Z1.25
G1 F100.0 Z0.0
G1 F150.0 X49.8797 Y2.4052
G1 X49.847 Y2.3764
G1 X49.9761 Y2.516
G1 X50.0259 Y2.5607
G1 F100.0 X50.1134 Y2.4785
G1 F150.0 X49.9633 Y2.3189
G1 X49.7943 Y2.1698
G1 X49.7204 Y2.1338
G1 X49.6893 Y2.1686
G1 X49.6479 Y2.251
G1 X49.6435 Y2.2721
G1 X49.7201 Y2.4158
G1 X49.8918 Y2.6016
G1 X50.1104 Y2.7976
G3 X50.1212 Y2.8077 I-0.1802 J0.2011
G1 X50.3279 Y3.0144
G1 X50.4831 Y3.1535
G3 X50.4884 Y3.1584 I-0.1802 J0.2011
G1 X50.6379 Y3.2997
G1 X50.7529 Y3.3764
G1 X50.887 Y3.4003
G1 X50.8643 Y3.2944
G1 X50.8037 Y3.1551
G1 X50.6886 Y3.0279
G1 X50.5219 Y2.8804
G3 X50.5058 Y2.8649 I0.1789 J-0.2022
G1 X50.354 Y2.7064
G1 X50.1602 Y2.5273
G3 X50.1467 Y2.514 I0.1832 J-0.1983
G1 X50.1134 Y2.4785
G0 Z3.0
G0 X56.0577 Y4.3976
G0 Z1.25
G1 F100.0 Z0.0
G1 F150.0 X56.0641 Y4.4202
G1 X56.1959 Y4.7696
G1 X56.3495 Y5.124
G1 X56.5094 Y5.4669
G1 X56.5141 Y5.4752
G1 X56.5151 Y5.4759
G1 X56.6018 Y5.5217
G3 X56.6626 Y5.5615 I-0.1823 J0.3448
G1 X56.6604 Y5.5453
G1 X56.5838 Y5.3349
G1 X56.4733 Y5.088
G3 X56.465 Y5.0679 I0.356 J-0.1593
G1 X56.3692 Y4.8173
G1 X56.2841 Y4.624
G3 X56.2774 Y4.608 I0.3569 J-0.1573
G1 X56.2085 Y4.4308
G1 X56.1874 Y4.4019
G1 X56.1624 Y4.3946
G1 X56.0577 Y4.3976
G1 F100.0 X56.0543 Y4.2776
G1 F150.0 X56.0537
G1 X55.9014 Y4.2822
G1 X55.9004 Y4.2824
G1 X55.9501 Y4.4578
G1 X56.0846 Y4.8147
G1 X56.2401 Y5.1733
G1 X56.4027 Y5.522
G1 X56.4244 Y5.5601
G1 X56.4545 Y5.5795
G1 X56.5457 Y5.6277
G3 X56.6108 Y5.6759 I-0.1262 J0.2387
G1 X56.6897 Y5.7551
G3 X56.713 Y5.7817 I-0.1913 J0.1906
G3 X56.7255 Y5.7568 I0.2471 J0.1087
G1 X56.7558 Y5.7037
G3 X56.7958 Y5.6501 I0.2346 J0.1337
G1 X56.7776 Y5.5163
G1 X56.6951 Y5.2898
G1 X56.5829 Y5.039
G3 X56.5771 Y5.0251 I0.2465 J-0.1103
G1 X56.4803 Y4.7716
G1 X56.3939 Y4.5756
G3 X56.3893 Y4.5646 I0.2471 J-0.1089
G1 X56.3147 Y4.3727
G1 X56.2603 Y4.2982
G1 X56.178 Y4.2741
G1 X56.0543 Y4.2776
G0 Z3.0
G0 X54.6883 Y7.3038
G0 Z1.25
G1 F100.0 Z0.0
G3 F150.0 X54.6082 Y7.3723 I-0.2912 J-0.2594
G1 X54.962 Y7.5607
G1 X54.6883 Y7.3038
G1 F100.0 X54.7704 Y7.2163
G1 F150.0 X54.6766 Y7.1283
G3 X54.6742 Y7.126 I0.1848 J-0.1969
G1 X54.6587 Y7.1111
G3 X54.2894 Y7.292 I-0.2616 J-0.0667
G1 X53.6387 Y7.009
G1 X52.9678 Y6.7602
G1 X52.2824 Y6.5661
G1 X51.5872 Y6.4479
G1 X51.0061 Y6.4057
G1 X50.4378 Y6.4641
G1 X49.8785 Y6.6094
G1 X49.3248 Y6.8369
G3 X49.2864 Y6.8495 I-0.1026 J-0.2497
G1 X48.7333 Y6.9848
G3 X48.8315 Y7.3472 I-0.1382 J0.2319
G1 X48.6732 Y7.6337
G1 X48.5544 Y7.9189
G1 X48.4768 Y8.2088
G1 X48.4447 Y8.526
G3 X48.4342 Y8.5781 I-0.2686 J-0.0271
G1 X48.2311 Y9.239
G3 X48.2258 Y9.2548 I-0.2581 J-0.0793
G1 X48.1775 Y9.3831
G3 X48.5257 Y9.5542 I0.0913 J0.2541
G1 X48.4826 Y9.3186
G3 X48.4784 Y9.2588 I0.2654 J-0.0485
G1 X48.5111 Y8.4766
G3 X48.5271 Y8.3955 I0.2695 J0.0112
G1 X48.7959 Y7.6571
G3 X48.8587 Y7.5586 I0.2535 J0.0923
G1 X49.3876 Y7.0298
G3 X49.4643 Y6.9762 I0.1907 J0.1908
G1 X50.1398 Y6.6611
G3 X50.207 Y6.6399 I0.114 J0.2445
G1 X50.9542 Y6.5082
G3 X51.0113 Y6.5043 I0.0468 J0.2657
G1 X51.7579 Y6.5328
G3 X51.7972 Y6.5372 I-0.0103 J0.2696
G1 X52.6715 Y6.7007
G3 X52.7103 Y6.711 I-0.0496 J0.2652
G1 X53.55 Y7.0021
G3 X53.5757 Y7.0125 I-0.0884 J0.2549
G1 X54.386 Y7.3904
G3 X54.3988 Y7.3968 I-0.114 J0.2445
G1 X55.1861 Y7.816
G3 X55.2124 Y7.8319 I-0.1268 J0.2381
G1 X56.2014 Y8.5133
G3 X56.2218 Y8.5288 I-0.153 J0.2221
G1 X57.0058 Y9.1867
G1 X56.9383 Y9.1236
G1 X56.3935 Y8.6605
G1 X55.8313 Y8.2108
G3 X55.8152 Y8.1969 I0.1687 J-0.2108
G1 X54.7704 Y7.2163
G0 Z3.0
G0 X57.2917 Y9.4541
G0 Z1.25
G1 F100.0 Z0.0
G1 F150.0 X57.9423 Y10.1284
G1 X57.4562 Y9.6079
G1 X57.2917 Y9.4541
G0 Z3.0
G0 X58.2513 Y10.3195
G0 Z1.25
G1 F100.0 Z0.0
G1 F150.0 X58.454 Y10.5874
G1 X58.3294 Y10.2869
G3 X58.2513 Y10.3195 I-0.1885 J-0.3414
G0 Z3.0
G0 X55.9022 Y11.63
G0 Z1.25
G1 F100.0 Z0.0
G1 F150.0 X55.7817 Y11.5155
G1 X55.7778 Y11.5122
G3 X55.816 Y11.5723 I-0.3084 J0.2383
G1 X55.8646 Y11.6669
G3 X55.9022 Y11.63 I0.2912 J0.2591
G1 F100.0 X55.9849 Y11.5431
G1 F150.0 X55.8613 Y11.4255
G1 X55.0814 Y10.7835
G3 X55.0733 Y10.7765 I0.1715 J-0.2083
G1 X54.761 Y10.498
G1 X55.1585 Y10.9129
G3 X55.1767 Y10.9341 I-0.1948 J0.1866
G1 X55.6824 Y11.585
G3 X55.7093 Y11.6272 I-0.213 J0.1655
G1 X55.8921 Y11.9828
G3 X56.1084 Y11.6605 I0.2637 J-0.0567
G1 X55.9849 Y11.5431
G0 Z3.0
G0 X59.9875 Y13.831
G0 Z1.25
G1 F100.0 Z0.0
G1 F150.0 X59.9892 Y13.8398
G3 X59.9936 Y13.8681 I-0.3827 J0.0736
G1 X60.0297 Y14.1763
G3 X60.0307 Y14.1853 I-0.3871 J0.0454
G1 X60.1415 Y13.8678
G3 X59.9875 Y13.831 I0.0117 J-0.3898
G0 Z3.0
G0 X59.5182 Y16.0269
G0 Z1.25
G1 F100.0 Z0.0
G1 F150.0 X59.5066 Y16.045
G3 X59.4366 Y16.1271 I-0.3287 J-0.2095
G1 X59.2776 Y16.2681
G1 X59.5668 Y16.1777
G3 X59.5182 Y16.0269 I0.3392 J-0.1925
G1 F100.0 X59.417 Y15.9624
G1 F150.0 X59.4054 Y15.9805
G3 X59.3569 Y16.0373 I-0.2275 J-0.145
G1 X58.944 Y16.4035
G3 X58.8859 Y16.4429 I-0.179 J-0.2018
G1 X58.3933 Y16.6898
G3 X58.3254 Y16.7131 I-0.1209 J-0.2412
G1 X57.517 Y16.8752
G3 X57.4589 Y16.8804 I-0.053 J-0.2645
G1 X56.9044 Y16.8699
G1 X57.1914 Y16.9344
G3 X57.2044 Y16.9377 I-0.0592 J0.2634
G1 X57.7562 Y17.0908
G3 X57.9787 Y16.8189 I0.2699 J-0.0061
G1 X58.1323 Y16.7915
G1 X58.2789 Y16.7588
G1 X58.425 Y16.7194
G1 X58.5636 Y16.6765
G1 X59.1549 Y16.4333
G3 X59.1771 Y16.4253 I0.1027 J0.2497
G1 X59.7701 Y16.2398
G3 X59.7418 Y16.2104 I0.1798 J-0.2015
G1 X59.6978 Y16.1572
G3 X59.6481 Y15.9051 I0.2081 J-0.172
G1 X59.6855 Y15.7847
G3 X59.7016 Y15.7444 I0.2579 J0.0801
G1 X59.772 Y15.6029
G1 X59.8971 Y15.3248
G1 X59.9734 Y15.0403
G1 X60.0285 Y14.7273
G1 X60.0857 Y14.4024
G3 X60.0967 Y14.3602 I0.2659 J0.0468
G1 X60.3349 Y13.6776
G3 X59.896 Y13.56 I-0.1817 J-0.1997
G1 X59.709 Y12.9742
G1 X59.4746 Y12.4159
G1 X59.1994 Y11.8689
G1 X58.8929 Y11.3272
G3 X58.8785 Y11.2977 I0.235 J-0.133
G1 X58.3741 Y10.0815
G3 X57.9507 Y10.1371 I-0.2332 J-0.1361
G1 X57.9953 Y10.1833
G3 X58.0162 Y10.2078 I-0.1941 J0.1873
G1 X58.7396 Y11.1636
G1 X58.8857 Y11.3493
G3 X58.9047 Y11.3768 I-0.212 J0.1668
G1 X59.0267 Y11.5792
G3 X59.0364 Y11.5969 I-0.231 J0.1392
G1 X59.1432 Y11.8083
G3 X59.1441 Y11.81 I-0.2408 J0.1216
G1 X59.2499 Y12.0236
G3 X59.2556 Y12.0357 I-0.2417 J0.1198
G1 X59.4127 Y12.3966
G3 X59.4135 Y12.3983 I-0.2473 J0.1077
G1 X59.5688 Y12.7617
G3 X59.5742 Y12.7755 I-0.2481 J0.106
G1 X59.7085 Y13.1447
G3 X59.7168 Y13.1717 I-0.2535 J0.0922
G1 X59.8107 Y13.549
G3 X59.8138 Y13.5632 I-0.2618 J0.0652
G1 X59.8714 Y13.8625
G3 X59.8744 Y13.8821 I-0.2649 J0.051
G1 X59.9105 Y14.1903
G3 X59.9123 Y14.2178 I-0.2679 J0.0314
G1 X59.9168 Y14.5293
G3 X59.9148 Y14.567 I-0.2697 J0.0039
G1 X59.8758 Y14.8753
G3 X59.8696 Y14.9083 I-0.2676 J-0.0338
G1 X59.7334 Y15.4409
G3 X59.6995 Y15.5191 I-0.2614 J-0.0668
G1 X59.417 Y15.9624
G0 Z3.0
G0 X61.6425 Y18.2957
G0 Z1.25
G1 F100.0 Z0.0
G1 F150.0 X61.943 Y18.4404
G1 X62.2639 Y18.5618
G1 X62.5955 Y18.6592
G1 X62.6989 Y18.6821
G1 X62.6939 Y18.6653
G1 X62.6681 Y18.5852
G1 X62.6332 Y18.5502
G1 X62.5214 Y18.5149
G1 X62.3259 Y18.4805
G3 X62.2881 Y18.4709 I0.0468 J-0.2659
G1 X62.1092 Y18.4118
G1 X61.9298 Y18.3693
G3 X61.9123 Y18.3645 I0.0622 J-0.2627
G1 X61.7338 Y18.3093
G1 X61.6425 Y18.2957
G0 Z3.0
G0 X63.2576 Y15.3357
G0 Z1.25
G1 F100.0 Z0.0
G1 F150.0 X63.3724 Y15.3712
G1 X63.4807 Y15.3833
G1 X63.5934 Y15.3762
G1 X63.7334 Y15.3427
G1 X63.9254 Y15.2915
G3 X63.9476 Y15.2862 I0.1006 J0.3768
G1 X64.0526 Y15.2647
G1 X64.0094 Y15.2166
G1 X63.9591 Y15.1629
G1 X63.9346 Y15.1569
G1 X63.8153 Y15.178
G1 X63.613 Y15.2452
G3 X63.5822 Y15.254 I-0.1229 J-0.3701
G1 X63.3652 Y15.3067
G1 X63.2576 Y15.3357
G1 F100.0 X63.2222 Y15.4503
G1 F150.0 X63.3478 Y15.4891
G1 X63.4777 Y15.5037
G1 X63.6112 Y15.4954
G1 X63.7629 Y15.4591
G1 X63.9564 Y15.4074
G3 X63.9717 Y15.4038 I0.0696 J0.2609
G1 X64.1642 Y15.3642
G1 X64.2597 Y15.3331
G1 X64.2173 Y15.2684
G1 X64.0978 Y15.1355
G1 X64.0223 Y15.0548
G1 X63.9385 Y15.0343
G1 X63.7858 Y15.0613
G1 X63.5752 Y15.1313
G3 X63.5539 Y15.1374 I-0.0851 J-0.2562
G1 X63.3355 Y15.1905
G1 X63.1956 Y15.2281
G1 X63.0993 Y15.2573
G1 X63.099 Y15.2698
G3 X63.0296 Y15.4425 I-0.2699 J-0.0081
G1 X63.0718 Y15.435
G3 X63.1985 Y15.443 I0.0469 J0.2659
G1 X63.2222 Y15.4503
G0 Z3.0
G0 X61.6579 Y10.3254
G0 Z1.25
G1 F100.0 Z0.0
G1 F150.0 X61.7551 Y10.0932
G1 X61.8554 Y9.8367
G1 X61.7585 Y9.7829
G1 X61.7302 Y9.8559
G3 X61.7301 Y9.856 I-0.4755 J-0.1844
G1 X61.6529 Y10.0548
G1 X61.5962 Y10.2111
G1 X61.5892 Y10.2396
G3 X61.6579 Y10.3254 I-0.3615 J0.3598
G1 F100.0 X61.5567 Y10.3899
G3 F150.0 X61.6025 Y10.4915 I-0.3289 J0.2095
G1 X61.6026
G1 X61.6762 Y10.4726
G3 X61.7304 Y10.4627 I0.097 J0.3778
G3 X61.7314 Y10.4605 I0.3606 J0.1485
G1 X61.8664 Y10.1382
G1 X61.9876 Y9.8281
G1 X62.0019 Y9.7807
G1 X61.8001 Y9.6688
G1 X61.6953 Y9.6139
G1 X61.6183 Y9.8125
G3 Y9.8126 I-0.3636 J-0.141
G1 X61.5406 Y10.0126
G1 X61.4811 Y10.1763
G1 X61.4558 Y10.2799
G1 X61.489 Y10.3098
G3 X61.5567 Y10.3899 I-0.2613 J0.2896
G1 F100.0 X61.4554 Y10.4543
G3 F150.0 X61.4806 Y10.694 I-0.2277 J0.1451
G1 X61.4653 Y10.7349
G3 X61.6324 Y10.6077 I0.2342 J0.1343
G1 X61.7061 Y10.5888
G3 X61.8124 Y10.5832 I0.0671 J0.2615
G1 X61.8392 Y10.5139
G3 X61.842 Y10.5069 I0.2518 J0.0973
G1 X61.9776 Y10.1833
G1 X62.1011 Y9.8674
G1 X62.1427 Y9.7298
G1 X62.0865 Y9.6904
G1 X61.8571 Y9.5631
G1 X61.6321 Y9.4454
G1 X61.5855 Y9.5652
G1 X61.5064 Y9.7691
G1 Y9.7692
G1 X61.4283 Y9.9704
G1 X61.3661 Y10.1414
G1 X61.3298 Y10.2901
G1 X61.3346 Y10.3322
G1 X61.4086 Y10.3989
G3 X61.4554 Y10.4543 I-0.1809 J0.2005
G1 F100.0 X61.3542 Y10.5188
G3 F150.0 X61.3682 Y10.652 I-0.1265 J0.0806
G1 X61.1 Y11.3688
G1 X60.8328 Y12.0894
G1 X60.5652 Y12.8111
G3 X60.5649 Y12.8119 I-0.1406 J-0.0521
G1 X60.2935 Y13.5309
G3 X60.0103 Y13.5235 I-0.1403 J-0.053
G1 X59.8217 Y12.9326
G1 X59.5836 Y12.3656
G1 X59.3053 Y11.8124
G1 X58.9974 Y11.2681
G3 X58.9894 Y11.2517 I0.1306 J-0.0739
G1 X58.4485 Y9.9476
G3 X58.448 Y9.9464 I0.1386 J-0.0575
G1 X57.9176 Y8.6358
G3 X57.9175 Y8.6356 I0.139 J-0.0563
G1 X57.3893 Y7.3251
G1 X56.8566 Y6.024
G1 X56.824 Y5.9535
G3 X56.8298 Y5.8162 I0.1361 J-0.063
G1 X56.8601 Y5.7631
G3 X56.884 Y5.7316 I0.1303 J0.0743
G1 X56.9212 Y5.6942
G1 X56.9226 Y5.6917
G1 X56.8947 Y5.4873
G1 X56.8064 Y5.2447
G1 X56.6924 Y4.99
G3 X56.6892 Y4.9823 I0.1369 J-0.0613
G1 X56.5913 Y4.726
G1 X56.5037 Y4.5272
G3 X56.5011 Y4.5211 I0.1373 J-0.0605
G1 X56.4209 Y4.3146
G1 X56.3332 Y4.1946
G1 X56.1935 Y4.1536
G1 X56.0502 Y4.1577
G1 X55.8855 Y4.1626
G1 X55.775 Y4.189
G1 X55.7546 Y4.2081
G1 X55.836 Y4.4954
G1 X55.9734 Y4.8598
G1 X56.1306 Y5.2225
G1 X56.296 Y5.5771
G1 X56.3346 Y5.645
G1 X56.3938 Y5.6832
G1 X56.4896 Y5.7338
G3 X56.5258 Y5.7606 I-0.0701 J0.1326
G1 X56.6047 Y5.8398
G3 X56.6371 Y5.8886 I-0.1063 J0.1059
G1 X57.0481 Y6.8865
G1 X57.461 Y7.8866
G3 X57.4611 Y7.8868 I-0.1386 J0.0572
G1 X57.8726 Y8.8876
G3 X57.8728 Y8.8882 I-0.1387 J0.057
G1 X58.2798 Y9.8889
G3 X58.0312 Y10.0478 I-0.1389 J0.0565
G1 X57.5412 Y9.523
G1 X57.0182 Y9.034
G1 X56.4698 Y8.5679
G1 X55.9063 Y8.1171
G3 X55.8974 Y8.1094 I0.0937 J-0.1171
G1 X54.7587 Y7.0408
G3 X54.7574 Y7.0395 I0.1026 J-0.1094
G1 X53.6297 Y5.9545
G3 X53.6293 Y5.9542 I0.104 J-0.1081
G1 X52.5051 Y4.8656
G1 X51.3761 Y3.7857
G3 X51.3692 Y3.7786 I0.1037 J-0.1084
G1 X51.2749 Y3.6758
G1 X51.1573 Y3.5773
G3 X51.1416 Y3.5621 I0.0963 J-0.115
G1 X51.0399 Y3.4479
G3 X51.0053 Y3.3796 I0.112 J-0.0998
G1 X50.9791 Y3.2575
G1 X50.9058 Y3.0892
G1 X50.7731 Y2.9424
G1 X50.6014 Y2.7905
G3 X50.5925 Y2.7819 I0.0994 J-0.1123
G1 X50.4381 Y2.6207
G1 X50.2416 Y2.4392
G3 X50.2341 Y2.4318 I0.1018 J-0.1102
G1 X50.0469 Y2.2326
G1 X49.8615 Y2.0691
G1 X49.7072 Y1.9939
G1 X49.6642 Y2.0166
G1 X49.5892 Y2.1006
G1 X49.5337 Y2.2111
G1 X49.5171 Y2.2901
G1 X49.6215 Y2.4859
G1 X49.8075 Y2.6872
G1 X50.0304 Y2.8869
G3 X50.0363 Y2.8926 I-0.1001 J0.1117
G1 X50.2453 Y3.1016
G1 X50.403 Y3.2428
G3 X50.406 Y3.2456 I-0.1001 J0.1117
G1 X50.5629 Y3.3939
G1 X50.7072 Y3.4902
G1 X50.8808 Y3.5211
G3 X50.9566 Y3.5588 I-0.0263 J0.1477
G1 X51.853 Y4.3905
G3 X51.855 Y4.3925 I-0.102 J0.11
G1 X52.7366 Y5.2417
G3 X52.737 Y5.2421 I-0.1041 J0.108
G1 X53.6144 Y6.0944
G1 X54.5003 Y6.9357
G3 X54.3372 Y7.182 I-0.1033 J0.1088
G1 X53.6835 Y6.8976
G1 X53.005 Y6.646
G1 X52.3088 Y6.4489
G1 X51.6016 Y6.3286
G1 X51.0043 Y6.2852
G1 X50.4165 Y6.3456
G1 X49.8404 Y6.4953
G1 X49.2792 Y6.726
G3 X49.2578 Y6.7329 I-0.057 J-0.1387
G1 X48.566 Y6.9022
G3 X48.5603 Y6.9034 I-0.0356 J-0.1457
G1 X47.8601 Y7.0459
G3 X47.8586 Y7.0462 I-0.0299 J-0.147
G1 X47.1585 Y7.1813
G1 X46.4635 Y7.3275
G3 X46.4546 Y7.3291 I-0.0309 J-0.1468
G1 X46.3045 Y7.3514
G1 X46.1455 Y7.3877
G3 X46.1123 Y7.3915 I-0.0334 J-0.1462
G1 X45.9581 Y7.3916
G3 X45.8717 Y7.3644 I-0.0002 J-0.15
G1 X45.7763 Y7.2973
G1 X45.6223 Y7.2772
G1 X45.4413 Y7.2999
G1 X45.256 Y7.3591
G1 X45.1318 Y7.4167
G1 X45.1236 Y7.4426
G1 X45.155 Y7.5165
G1 X45.2501 Y7.6386
G3 X45.2544 Y7.6444 I-0.1184 J0.0921
G1 X45.3401 Y7.7661
G1 X45.3984 Y7.8358
G1 X45.4542 Y7.856
G1 X45.5483
G1 X45.6692 Y7.8348
G1 X45.8301 Y7.8064
G1 X45.9896 Y7.7781
G1 X46.0533 Y7.7445
G1 X46.0779 Y7.6524
G3 X46.1884 Y7.5452 I0.1449 J0.0388
G1 X46.7736 Y7.4072
G3 X46.7799 Y7.4059 I0.0344 J0.146
G1 X47.3748 Y7.2922
G3 X47.3769 Y7.2919 I0.0281 J0.1473
G1 X47.9737 Y7.1866
G1 X48.566 Y7.0696
G3 X48.7264 Y7.2892 I0.0291 J0.1472
G1 X48.565 Y7.5815
G1 X48.4406 Y7.8801
G1 X48.3584 Y8.1871
G1 X48.3253 Y8.5139
G3 X48.3195 Y8.5429 I-0.1492 J-0.0151
G1 X48.1164 Y9.2038
G3 X48.1134 Y9.2126 I-0.1434 J-0.0441
G1 X47.8691 Y9.8621
G3 X47.868 Y9.8649 I-0.1404 J-0.0528
G1 X47.6104 Y10.5093
G1 X47.3661 Y11.1573
G3 X47.2127 Y11.2538 I-0.1404 J-0.0529
G1 X47.1388 Y11.2473
G1 X47.1108 Y11.2707
G1 X47.0615 Y11.3651
G1 X47.0233 Y11.4702
G1 X46.9928 Y11.6628
G1 X47.0875 Y11.8107
G1 X47.2906 Y11.976
G1 X47.3503 Y12.0224
G1 X47.3668 Y11.9871
G3 X47.3683 Y11.9839 I0.1359 J0.0635
G1 X47.4676 Y11.7836
G1 X47.5134 Y11.6124
G1 X47.4761 Y11.425
G3 X47.4794 Y11.353 I0.1471 J-0.0293
G1 X47.6121 Y10.9068
G3 X47.6163 Y10.8946 I0.1438 J0.0427
G1 X47.7881 Y10.4579
G3 X47.7892 Y10.4553 I0.1396 J0.0549
G1 X47.9685 Y10.0233
G1 X48.1278 Y9.5858
G3 X48.4137 Y9.5984 I0.1409 J0.0513
G1 X48.4708 Y9.8119
G1 X48.5272 Y10.0228
G1 X48.5903 Y10.2274
G1 X48.6625 Y10.4265
G1 X49.0071 Y11.2267
G3 X49.0094 Y11.2325 I-0.1378 J0.0593
G1 X49.3222 Y12.0521
G3 X49.3235 Y12.0556 I-0.1401 J0.0535
G1 X49.6161 Y12.8834
G3 X49.6166 Y12.8848 I-0.1414 J0.05
G1 X49.9013 Y13.7152
G3 X49.9024 Y13.7185 I-0.1419 J0.0487
G1 X49.9825 Y13.971
G1 X50.0799 Y14.2235
G3 X50.0834 Y14.2338 I-0.1399 J0.054
G1 X50.1624 Y14.4931
G3 X50.1683 Y14.5239 I-0.1435 J0.0437
G1 X50.1909 Y14.7852
G1 X50.2158 Y15.0011
G1 X50.2713 Y15.2082
G1 X50.3552 Y15.3986
G1 X50.4631 Y15.5458
G1 X50.5615 Y15.6026
G1 X50.6891 Y15.6626
G1 X50.7439 Y15.6702
G1 X50.7243 Y15.5409
G1 X50.6569 Y15.3282
G1 X50.5608 Y15.1224
G1 X50.4378 Y14.925
G3 X50.4281 Y14.9068 I0.1273 J-0.0793
G1 X50.1939 Y14.3818
G3 X50.1893 Y14.3704 I0.137 J-0.0611
G1 X49.9962 Y13.8198
G3 X49.9949 Y13.8157 I0.1416 J-0.0496
G1 X49.8171 Y13.2578
G1 X49.6287 Y12.708
G3 X49.8878 Y12.5658 I0.1419 J-0.0486
G1 X50.0048 Y12.7124
G1 X50.1207 Y12.8576
G1 X50.239 Y12.999
G1 X50.3612 Y13.1378
G1 X51.0525 Y13.8963
G3 X51.0552 Y13.8993 I-0.1109 J0.101
G1 X51.7277 Y14.6779
G3 X51.7291 Y14.6795 I-0.1135 J0.0981
G1 X52.3915 Y15.4684
G1 X53.0536 Y16.2573
G3 X53.0548 Y16.2588 I-0.1149 J0.0964
G1 X53.2923 Y16.549
G1 X53.5419 Y16.8327
G3 X53.5461 Y16.8377 I-0.1126 J0.0991
G1 X53.7829 Y17.1314
G3 X53.7936 Y17.1464 I-0.1168 J0.0941
G1 X53.9901 Y17.4629
G3 X53.9914 Y17.4651 I-0.1274 J0.0791
G1 X54.1366 Y17.7081
G1 X54.3053 Y17.9288
G1 X54.4972 Y18.1337
G1 X54.6665 Y18.2866
G3 X54.6774 Y18.2902 I-0.0404 J0.1445
G1 X54.7942 Y18.3327
G1 X54.9127 Y18.3375
G1 X54.9257 Y18.332
G1 X54.7848 Y18.1374
G1 X54.6075 Y17.908
G1 X54.4179 Y17.7047
G1 X54.1974 Y17.5318
G3 X54.1788 Y17.5145 I0.0926 J-0.118
G1 X53.6887 Y16.9737
G3 X53.6855 Y16.9701 I0.1111 J-0.1007
G1 X53.212 Y16.413
G3 X53.2105 Y16.4112 I0.1143 J-0.0971
G1 X52.7458 Y15.8467
G1 X52.2762 Y15.2873
G3 X52.4737 Y15.0657 I0.1149 J-0.0964
G1 X53.3083 Y15.6162
G1 X54.1791 Y16.0969
G1 X55.0873 Y16.495
G1 X56.0315 Y16.7967
G1 X57.1651 Y17.0515
G3 X57.1723 Y17.0533 I-0.0329 J0.1463
G1 X58.3003 Y17.3663
G3 X58.3034 Y17.3672 I-0.0401 J0.1445
G1 X59.4256 Y17.7051
G1 X60.5494 Y18.0348
G3 X60.554 Y18.0362 I-0.0422 J0.1439
G1 X60.8007 Y18.1173
G1 X61.0599 Y18.1776
G3 X61.0687 Y18.1799 I-0.034 J0.1461
G1 X61.3259 Y18.2566
G3 X61.3582 Y18.2705 I-0.0428 J0.1438
G1 X61.58 Y18.3988
G1 X61.8957 Y18.5507
G1 X62.2257 Y18.6756
G1 X62.5655 Y18.7755
G1 X62.845 Y18.8373
G1 X62.8499 Y18.8336
G1 X62.8518 Y18.7758
G1 X62.8086 Y18.6299
G1 X62.7735 Y18.5209
G1 X62.6974 Y18.4446
G1 X62.5501 Y18.3981
G1 X62.3467 Y18.3623
G3 X62.3257 Y18.357 I0.026 J-0.1477
G1 X62.1419 Y18.2963
G1 X61.9575 Y18.2526
G3 X61.9477 Y18.2499 I0.0346 J-0.146
G1 X61.7605 Y18.192
G1 X61.6032 Y18.1686
G1 X61.4452 Y18.2056
G3 X61.3708 Y18.2041 I-0.0342 J-0.146
G1 X60.5238 Y17.9684
G3 X60.5226 Y17.9681 I0.0402 J-0.1445
G1 X59.6759 Y17.7246
G3 X59.6753 Y17.7244 I0.0414 J-0.1442
G1 X58.829 Y17.477
G3 X58.8289 Y17.4769 I0.0421 J-0.144
G1 X57.9838 Y17.2286
G3 X57.9998 Y16.937 I0.0423 J-0.1439
G1 X58.1559 Y16.9092
G1 X58.3076 Y16.8754
G1 X58.4583 Y16.8347
G1 X58.6043 Y16.7896
G1 X59.2006 Y16.5442
G3 X59.2129 Y16.5398 I0.0571 J0.1387
G1 X59.832 Y16.3462
G3 X59.8393 Y16.3442 I0.0448 J0.1432
G1 X60.4697 Y16.1815
G3 X60.4712 Y16.1811 I0.0375 J0.1452
G1 X61.1069 Y16.024
G3 X61.1071 Y16.0239 I0.036 J0.1456
G1 X61.5991 Y15.903
G1 X62.0886 Y15.767
G3 X62.0925 Y15.766 I0.0402 J0.1445
G1 X62.5857 Y15.6429
G3 X62.596 Y15.6407 I0.0363 J0.1455
G1 X63.0926 Y15.5532
G3 X63.163 Y15.5576 I0.026 J0.1477
G1 X63.3231 Y15.6071
G1 X63.4748 Y15.6241
G1 X63.6291 Y15.6145
G1 X63.7923 Y15.5754
G1 X63.9873 Y15.5233
G3 X63.9959 Y15.5213 I0.0387 J0.1449
G1 X64.195 Y15.4804
G1 X64.3605 Y15.4264
G1 X64.4163 Y15.3872
G1 X64.4006 Y15.3292
G1 X64.3126 Y15.195
G1 X64.1863 Y15.0543
G1 X64.0855 Y14.9468
G1 X63.9425 Y14.9118
G1 X63.7563 Y14.9447
G1 X63.5374 Y15.0174
G3 X63.5255 Y15.0208 I-0.0473 J-0.1424
G1 X63.3057 Y15.0742
G1 X63.1626 Y15.1127
G1 X63.0222 Y15.1553
G1 X62.9814 Y15.1858
G1 X62.979 Y15.2661
G3 X62.8689 Y15.4063 I-0.1499 J-0.0045
G1 X62.2011 Y15.5899
G3 X62.2002 Y15.5902 I-0.0398 J-0.1446
G1 X61.5223 Y15.7719
G3 X61.5213 Y15.7721 I-0.0388 J-0.1449
G1 X60.8392 Y15.9497
G1 X60.165 Y16.1256
G1 X59.9967 Y16.1809
G3 X59.8343 Y16.1339 I-0.0469 J-0.1425
G1 X59.7903 Y16.0807
G3 X59.7627 Y15.9407 I0.1156 J-0.0956
G1 X59.8001 Y15.8203
G3 X59.809 Y15.7979 I0.1433 J0.0445
G1 X59.8805 Y15.6543
G1 X60.0105 Y15.3652
G1 X60.0907 Y15.0663
G1 X60.1467 Y14.7481
G1 X60.2039 Y14.4232
G3 X60.21 Y14.3998 I0.1477 J0.026
G1 X60.515 Y13.5258
G3 X60.5164 Y13.5221 I0.1416 J0.0494
G1 X60.8453 Y12.6543
G3 X60.8459 Y12.6528 I0.1403 J0.0532
G1 X61.1849 Y11.7882
G1 X61.5199 Y10.9255
G1 X61.5584 Y10.8185
G3 X61.6622 Y10.724 I0.1411 J0.0508
G1 X61.7359 Y10.7051
G3 X61.8247 Y10.7095 I0.0373 J0.1453
G1 X61.8839 Y10.7311
G1 X61.9511 Y10.5571
G3 X61.9527 Y10.5533 I0.1399 J0.0541
G1 X62.0889 Y10.2283
G1 X62.2145 Y9.9067
G1 X62.2828 Y9.6814
G1 X62.1502 Y9.5886
G1 X61.914 Y9.4575
G1 X61.667 Y9.3283
G3 X61.6638 Y9.3265 I0.0695 J-0.1329
G1 X61.5698 Y9.2743
G1 X61.5528 Y9.3181
G1 Y9.3182
G1 X61.4736 Y9.5218
G1 X61.3945 Y9.7257
G1 X61.3159 Y9.9281
G1 X61.2511 Y10.1066
G1 X61.2081 Y10.2825
G1 X61.2206 Y10.3909
G1 X61.3282 Y10.488
G3 X61.3542 Y10.5188 I-0.1005 J0.1114
G0 Z3.0
G0 X61.6579 Y10.3254
G0 Z1.0
G1 F100.0 Z-0.25
G1 F150.0 X61.7551 Y10.0932
G1 X61.8554 Y9.8367
G1 X61.7585 Y9.7829
G1 X61.7302 Y9.8559
G3 X61.7301 Y9.856 I-0.4755 J-0.1844
G1 X61.6529 Y10.0548
G1 X61.5962 Y10.2111
G1 X61.5892 Y10.2396
G3 X61.6579 Y10.3254 I-0.3615 J0.3598
G1 F100.0 X61.5567 Y10.3899
G3 F150.0 X61.6025 Y10.4915 I-0.3289 J0.2095
G1 X61.6026
G1 X61.6762 Y10.4726
G3 X61.7304 Y10.4627 I0.097 J0.3778
G3 X61.7314 Y10.4605 I0.3606 J0.1485
G1 X61.8664 Y10.1382
G1 X61.9876 Y9.8281
G1 X62.0019 Y9.7807
G1 X61.8001 Y9.6688
G1 X61.6953 Y9.6139
G1 X61.6183 Y9.8125
G3 Y9.8126 I-0.3636 J-0.141
G1 X61.5406 Y10.0126
G1 X61.4811 Y10.1763
G1 X61.4558 Y10.2799
G1 X61.489 Y10.3098
G3 X61.5567 Y10.3899 I-0.2613 J0.2896
G1 F100.0 X61.4554 Y10.4543
G3 F150.0 X61.4806 Y10.694 I-0.2277 J0.1451
G1 X61.4653 Y10.7349
G3 X61.6324 Y10.6077 I0.2342 J0.1343
G1 X61.7061 Y10.5888
G3 X61.8124 Y10.5832 I0.0671 J0.2615
G1 X61.8392 Y10.5139
G3 X61.842 Y10.5069 I0.2518 J0.0973
G1 X61.9776 Y10.1833
G1 X62.1011 Y9.8674
G1 X62.1427 Y9.7298
G1 X62.0865 Y9.6904
G1 X61.8571 Y9.5631
G1 X61.6321 Y9.4454
G1 X61.5855 Y9.5652
G1 X61.5064 Y9.7691
G1 Y9.7692
G1 X61.4283 Y9.9704
G1 X61.3661 Y10.1414
G1 X61.3298 Y10.2901
G1 X61.3346 Y10.3322
G1 X61.4086 Y10.3989
G3 X61.4554 Y10.4543 I-0.1809 J0.2005
G0 Z3.0
G0 X58.454 Y10.5874
G0 Z1.0
G1 F100.0 Z-0.25
G1 F150.0 X58.3294 Y10.2869
G3 X58.2513 Y10.3195 I-0.1885 J-0.3414
G1 X58.454 Y10.5874
G0 Z3.0
G0 X57.9423 Y10.1284
G0 Z1.0
G1 F100.0 Z-0.25
G1 F150.0 X57.4562 Y9.6079
G1 X57.2917 Y9.4541
G1 X57.9423 Y10.1284
G0 Z3.0
G0 X55.9022 Y11.63
G0 Z1.0
G1 F100.0 Z-0.25
G1 F150.0 X55.7817 Y11.5155
G1 X55.7778 Y11.5122
G3 X55.816 Y11.5723 I-0.3084 J0.2383
G1 X55.8646 Y11.6669
G3 X55.9022 Y11.63 I0.2912 J0.2591
G0 Z3.0
G0 X54.962 Y7.5607
G0 Z1.0
G1 F100.0 Z-0.25
G1 F150.0 X54.6883 Y7.3038
G3 X54.6082 Y7.3723 I-0.2912 J-0.2594
G1 X54.962 Y7.5607
G0 Z3.0
G0 X56.5141 Y5.4752
G0 Z1.0
G1 F100.0 Z-0.25
G1 F150.0 X56.5151 Y5.4759
G1 X56.6018 Y5.5217
G3 X56.6626 Y5.5615 I-0.1823 J0.3448
G1 X56.6604 Y5.5453
G1 X56.5838 Y5.3349
G1 X56.4733 Y5.088
G3 X56.465 Y5.0679 I0.356 J-0.1593
G1 X56.3692 Y4.8173
G1 X56.2841 Y4.624
G3 X56.2774 Y4.608 I0.3569 J-0.1573
G1 X56.2085 Y4.4308
G1 X56.1874 Y4.4019
G1 X56.1624 Y4.3946
G1 X56.0577 Y4.3976
G1 X56.0641 Y4.4202
G1 X56.1959 Y4.7696
G1 X56.3495 Y5.124
G1 X56.5094 Y5.4669
G1 X56.5141 Y5.4752
G1 F100.0 X56.4098 Y5.5345
G1 F150.0 X56.4244 Y5.5601
G1 X56.4545 Y5.5795
G1 X56.5457 Y5.6277
G3 X56.6108 Y5.6759 I-0.1262 J0.2387
G1 X56.6897 Y5.7551
G3 X56.713 Y5.7817 I-0.1913 J0.1906
G3 X56.7255 Y5.7568 I0.2471 J0.1087
G1 X56.7558 Y5.7037
G3 X56.7958 Y5.6501 I0.2346 J0.1337
G1 X56.7776 Y5.5163
G1 X56.6951 Y5.2898
G1 X56.5829 Y5.039
G3 X56.5771 Y5.0251 I0.2465 J-0.1103
G1 X56.4803 Y4.7716
G1 X56.3939 Y4.5756
G3 X56.3893 Y4.5646 I0.2471 J-0.1089
G1 X56.3147 Y4.3727
G1 X56.2603 Y4.2982
G1 X56.178 Y4.2741
G1 X56.0537 Y4.2776
G1 X55.9014 Y4.2822
G1 X55.9004 Y4.2824
G1 X55.9501 Y4.4578
G1 X56.0846 Y4.8147
G1 X56.2401 Y5.1733
G1 X56.4027 Y5.522
G1 X56.4098 Y5.5345
G0 Z3.0
G0 X50.0259 Y2.5607
G0 Z1.0
G1 F100.0 Z-0.25
G1 F150.0 X49.8797 Y2.4052
G1 X49.847 Y2.3764
G1 X49.9761 Y2.516
G1 X50.0259 Y2.5607
G1 F100.0 X50.1134 Y2.4785
G1 F150.0 X49.9633 Y2.3189
G1 X49.7943 Y2.1698
G1 X49.7204 Y2.1338
G1 X49.6893 Y2.1686
G1 X49.6479 Y2.251
G1 X49.6435 Y2.2721
G1 X49.7201 Y2.4158
G1 X49.8918 Y2.6016
G1 X50.1104 Y2.7976
G3 X50.1212 Y2.8077 I-0.1802 J0.2011
G1 X50.3279 Y3.0144
G1 X50.4831 Y3.1535
G3 X50.4884 Y3.1584 I-0.1802 J0.2011
G1 X50.6379 Y3.2997
G1 X50.7529 Y3.3764
G1 X50.887 Y3.4003
G1 X50.8643 Y3.2944
G1 X50.8037 Y3.1551
G1 X50.6886 Y3.0279
G1 X50.5219 Y2.8804
G3 X50.5058 Y2.8649 I0.1789 J-0.2022
G1 X50.354 Y2.7064
G1 X50.1602 Y2.5273
G3 X50.1467 Y2.514 I0.1832 J-0.1983
G1 X50.1134 Y2.4785
G0 Z3.0
G0 X49.271 Y6.9768
G0 Z1.0
G1 F100.0 Z-0.25
G1 F150.0 X48.9501 Y7.0553
G3 X48.982 Y7.2656 I-0.355 J0.1614
G1 X49.271 Y6.9768
G0 Z3.0
G0 X48.3595 Y9.2297
G0 Z1.0
G1 F100.0 Z-0.25
G1 F150.0 X48.3515 Y9.256
G3 X48.3584 Y9.2576 I-0.0827 J0.3811
G3 X48.3585 Y9.2538 I0.3896 J0.0124
G1 X48.3595 Y9.2297
G1 F100.0 X48.4794 Y9.2347
G1 F150.0 X48.5111 Y8.4766
G3 X48.5271 Y8.3955 I0.2695 J0.0112
G1 X48.7959 Y7.6571
G3 X48.8587 Y7.5586 I0.2535 J0.0923
G1 X49.3876 Y7.0298
G3 X49.4643 Y6.9762 I0.1907 J0.1908
G1 X50.1398 Y6.6611
G3 X50.207 Y6.6399 I0.114 J0.2445
G1 X50.9542 Y6.5082
G3 X51.0113 Y6.5043 I0.0468 J0.2657
G1 X51.7579 Y6.5328
G3 X51.7972 Y6.5372 I-0.0103 J0.2696
G1 X52.6715 Y6.7007
G3 X52.7103 Y6.711 I-0.0496 J0.2652
G1 X53.55 Y7.0021
G3 X53.5757 Y7.0125 I-0.0884 J0.2549
G1 X54.386 Y7.3904
G3 X54.3988 Y7.3968 I-0.114 J0.2445
G1 X55.1861 Y7.816
G3 X55.2124 Y7.8319 I-0.1268 J0.2381
G1 X56.2014 Y8.5133
G3 X56.2218 Y8.5288 I-0.153 J0.2221
G1 X57.0058 Y9.1867
G1 X56.9383 Y9.1236
G1 X56.3935 Y8.6605
G1 X55.8313 Y8.2108
G3 X55.8152 Y8.1969 I0.1687 J-0.2108
G1 X54.6766 Y7.1283
G3 X54.6742 Y7.126 I0.1848 J-0.1969
G1 X54.6587 Y7.1111
G3 X54.2894 Y7.292 I-0.2616 J-0.0667
G1 X53.6387 Y7.009
G1 X52.9678 Y6.7602
G1 X52.2824 Y6.5661
G1 X51.5872 Y6.4479
G1 X51.0061 Y6.4057
G1 X50.4378 Y6.4641
G1 X49.8785 Y6.6094
G1 X49.3248 Y6.8369
G3 X49.2864 Y6.8495 I-0.1026 J-0.2497
G1 X48.7333 Y6.9848
G3 X48.8315 Y7.3472 I-0.1382 J0.2319
G1 X48.6732 Y7.6337
G1 X48.5544 Y7.9189
G1 X48.4768 Y8.2088
G1 X48.4447 Y8.526
G3 X48.4342 Y8.5781 I-0.2686 J-0.0271
G1 X48.2311 Y9.239
G3 X48.2258 Y9.2548 I-0.2581 J-0.0793
G1 X48.1775 Y9.3831
G3 X48.5257 Y9.5542 I0.0913 J0.2541
G1 X48.4826 Y9.3186
G3 X48.4784 Y9.2588 I0.2654 J-0.0485
G1 X48.4794 Y9.2347
G0 Z3.0
G0 X49.2611 Y11.5553
G0 Z1.0
G1 F100.0 Z-0.25
G1 F150.0 X49.4343 Y12.0093
G3 X49.4366 Y12.0156 I-0.2523 J0.0963
G1 X49.5924 Y12.4564
G3 X49.7663 Y12.3894 I0.1781 J0.2029
G1 X49.6269 Y12.2102
G3 X49.6037 Y12.1751 I0.2129 J-0.1656
G1 X49.2611 Y11.5553
G0 Z3.0
G0 X47.2671 Y11.6044
G0 Z1.0
G1 F100.0 Z-0.25
G1 F150.0 X47.2548 Y11.5427
G1 X47.2441 Y11.6103
G1 X47.2592 Y11.6339
G1 X47.2671 Y11.6044
G1 F100.0 X47.3848 Y11.5809
G1 F150.0 X47.3584 Y11.4485
G3 X47.3592 Y11.3391 I0.2648 J-0.0528
G3 X47.2023 Y11.3733 I-0.1334 J-0.2347
G1 X47.193 Y11.3725
G1 X47.1716 Y11.4135
G1 X47.14 Y11.5003
G1 X47.1184 Y11.6365
G1 X47.1781 Y11.7298
G1 X47.3079 Y11.8355
G1 X47.3548 Y11.741
G1 X47.3903 Y11.6084
G1 X47.3848 Y11.5809
G0 Z3.0
G0 X45.7566 Y7.5756
G0 Z1.0
G1 F100.0 Z-0.25
G3 F150.0 X45.7337 Y7.5607 I0.2013 J-0.334
G1 X45.6867 Y7.5277
G1 X45.6217 Y7.5192
G1 X45.4931 Y7.5353
G1 X45.4751 Y7.5411
G1 X45.5278 Y7.6159
G1 X45.6276 Y7.5984
G1 X45.7566 Y7.5756
G1 F100.0 X45.7775 Y7.6938
G1 F150.0 X45.8092 Y7.6882
G1 X45.9502 Y7.6632
G1 X45.9509 Y7.6628
G1 X45.962 Y7.6214
G3 X46.0212 Y7.5116 I0.2608 J0.0698
G1 X45.9583
G3 X45.8027 Y7.4625 I-0.0003 J-0.27
G1 X45.7315 Y7.4125
G1 X45.622 Y7.3982
G1 X45.4672 Y7.4176
G1 X45.2996 Y7.4711
G1 X45.2792 Y7.4806
G1 X45.3448 Y7.565
G3 X45.3525 Y7.5753 I-0.2131 J0.1658
G1 X45.4353 Y7.6929
G1 X45.4696 Y7.7339
G1 X45.4752 Y7.736
G1 X45.5379
G1 X45.6484 Y7.7166
G1 X45.7775 Y7.6938
G0 Z3.0
G0 X50.3372 Y14.9904
G0 Z1.0
G1 F100.0 Z-0.25
G1 F150.0 X50.3848 Y15.1682
G1 X50.4598 Y15.3382
G1 X50.545 Y15.4545
G1 X50.5768 Y15.4729
G1 X50.5448 Y15.3719
G1 X50.4551 Y15.1797
G1 X50.3372 Y14.9904
G0 Z3.0
G0 X51.767 Y14.5397
G0 Z1.0
G1 F100.0 Z-0.25
G1 F150.0 X51.8185 Y14.5995
G3 X51.821 Y14.6023 I-0.2043 J0.1765
G1 X52.177 Y15.0263
G3 X52.2835 Y14.9432 I0.2141 J0.1645
G1 X51.767 Y14.5397
G0 Z3.0
G0 X53.0081 Y15.2744
G0 Z1.0
G1 F100.0 Z-0.25
G1 F150.0 X53.3705 Y15.5134
G1 X54.2323 Y15.9892
G1 X54.3094 Y16.023
G1 X54.0737 Y15.8677
G3 X54.0692 Y15.8647 I0.1484 J-0.2253
G1 X53.3982 Y15.403
G3 X53.3853 Y15.3935 I0.1529 J-0.2222
G1 X53.0996 Y15.1708
G3 X53.0081 Y15.2744 I-0.2412 J-0.1208
G0 Z3.0
G0 X59.2776 Y16.2681
G0 Z1.0
G1 F100.0 Z-0.25
G1 F150.0 X59.5668 Y16.1777
G3 X59.5182 Y16.0269 I0.3392 J-0.1925
G1 X59.5066 Y16.045
G3 X59.4366 Y16.1271 I-0.3287 J-0.2095
G1 X59.2776 Y16.2681
G0 Z3.0
G0 X60.0307 Y14.1853
G0 Z1.0
G1 F100.0 Z-0.25
G1 F150.0 X60.1415 Y13.8678
G3 X59.9875 Y13.831 I0.0117 J-0.3898
G1 X59.9892 Y13.8398
G3 X59.9936 Y13.8681 I-0.3827 J0.0736
G1 X60.0297 Y14.1763
G3 X60.0307 Y14.1853 I-0.3871 J0.0454
G1 F100.0 X59.9112 Y14.1965
G3 F150.0 X59.9123 Y14.2178 I-0.2686 J0.0252
G1 X59.9168 Y14.5293
G3 X59.9148 Y14.567 I-0.2697 J0.0039
G1 X59.8758 Y14.8753
G3 X59.8696 Y14.9083 I-0.2676 J-0.0338
G1 X59.7334 Y15.4409
G3 X59.6995 Y15.5191 I-0.2614 J-0.0668
G1 X59.4054 Y15.9805
G3 X59.3569 Y16.0373 I-0.2275 J-0.145
G1 X58.944 Y16.4035
G3 X58.8859 Y16.4429 I-0.179 J-0.2018
G1 X58.3933 Y16.6898
G3 X58.3254 Y16.7131 I-0.1209 J-0.2412
G1 X57.517 Y16.8752
G3 X57.4589 Y16.8804 I-0.053 J-0.2645
G1 X56.9044 Y16.8699
G1 X57.1914 Y16.9344
G3 X57.2044 Y16.9377 I-0.0592 J0.2634
G1 X57.7562 Y17.0908
G3 X57.9787 Y16.8189 I0.2699 J-0.0061
G1 X58.1323 Y16.7915
G1 X58.2789 Y16.7588
G1 X58.425 Y16.7194
G1 X58.5636 Y16.6765
G1 X59.1549 Y16.4333
G3 X59.1771 Y16.4253 I0.1027 J0.2497
G1 X59.7701 Y16.2398
G3 X59.7418 Y16.2104 I0.1798 J-0.2015
G1 X59.6978 Y16.1572
G3 X59.6481 Y15.9051 I0.2081 J-0.172
G1 X59.6855 Y15.7847
G3 X59.7016 Y15.7444 I0.2579 J0.0801
G1 X59.772 Y15.6029
G1 X59.8971 Y15.3248
G1 X59.9734 Y15.0403
G1 X60.0285 Y14.7273
G1 X60.0857 Y14.4024
G3 X60.0967 Y14.3602 I0.2659 J0.0468
G1 X60.3349 Y13.6776
G3 X59.896 Y13.56 I-0.1817 J-0.1997
G1 X59.709 Y12.9742
G1 X59.4746 Y12.4159
G1 X59.1994 Y11.8689
G1 X58.8929 Y11.3272
G3 X58.8785 Y11.2977 I0.235 J-0.133
G1 X58.3741 Y10.0815
G3 X57.9507 Y10.1371 I-0.2332 J-0.1361
G1 X57.9953 Y10.1833
G3 X58.0162 Y10.2078 I-0.1941 J0.1873
G1 X58.7396 Y11.1636
G1 X58.8857 Y11.3493
G3 X58.9047 Y11.3768 I-0.212 J0.1668
G1 X59.0267 Y11.5792
G3 X59.0364 Y11.5969 I-0.231 J0.1392
G1 X59.1432 Y11.8083
G3 X59.1441 Y11.81 I-0.2408 J0.1216
G1 X59.2499 Y12.0236
G3 X59.2556 Y12.0357 I-0.2417 J0.1198
G1 X59.4127 Y12.3966
G3 X59.4135 Y12.3983 I-0.2473 J0.1077
G1 X59.5688 Y12.7617
G3 X59.5742 Y12.7755 I-0.2481 J0.106
G1 X59.7085 Y13.1447
G3 X59.7168 Y13.1717 I-0.2535 J0.0922
G1 X59.8107 Y13.549
G3 X59.8138 Y13.5632 I-0.2618 J0.0652
G1 X59.8714 Y13.8625
G3 X59.8744 Y13.8821 I-0.2649 J0.051
G1 X59.9105 Y14.1903
G3 X59.9112 Y14.1965 I-0.2679 J0.0314
G0 Z3.0
G0 X63.2576 Y15.3357
G0 Z1.0
G1 F100.0 Z-0.25
G1 F150.0 X63.3724 Y15.3712
G1 X63.4807 Y15.3833
G1 X63.5934 Y15.3762
G1 X63.7334 Y15.3427
G1 X63.9254 Y15.2915
G3 X63.9476 Y15.2862 I0.1006 J0.3768
G1 X64.0526 Y15.2647
G1 X64.0094 Y15.2166
G1 X63.9591 Y15.1629
G1 X63.9346 Y15.1569
G1 X63.8153 Y15.178
G1 X63.613 Y15.2452
G3 X63.5822 Y15.254 I-0.1229 J-0.3701
G1 X63.3652 Y15.3067
G1 X63.2576 Y15.3357
G1 F100.0 X63.2222 Y15.4503
G1 F150.0 X63.3478 Y15.4891
G1 X63.4777 Y15.5037
G1 X63.6112 Y15.4954
G1 X63.7629 Y15.4591
G1 X63.9564 Y15.4074
G3 X63.9717 Y15.4038 I0.0696 J0.2609
G1 X64.1642 Y15.3642
G1 X64.2597 Y15.3331
G1 X64.2173 Y15.2684
G1 X64.0978 Y15.1355
G1 X64.0223 Y15.0548
G1 X63.9385 Y15.0343
G1 X63.7858 Y15.0613
G1 X63.5752 Y15.1313
G3 X63.5539 Y15.1374 I-0.0851 J-0.2562
G1 X63.3355 Y15.1905
G1 X63.1956 Y15.2281
G1 X63.0993 Y15.2573
G1 X63.099 Y15.2698
G3 X63.0296 Y15.4425 I-0.2699 J-0.0081
G1 X63.0718 Y15.435
G3 X63.1985 Y15.443 I0.0469 J0.2659
G1 X63.2222 Y15.4503
G0 Z3.0
G0 X62.5214 Y18.5149
G0 Z1.0
G1 F100.0 Z-0.25
G1 F150.0 X62.3259 Y18.4805
G3 X62.2881 Y18.4709 I0.0468 J-0.2659
G1 X62.1092 Y18.4118
G1 X61.9298 Y18.3693
G3 X61.9123 Y18.3645 I0.0622 J-0.2627
G1 X61.7338 Y18.3093
G1 X61.6425 Y18.2957
G1 X61.943 Y18.4404
G1 X62.2639 Y18.5618
G1 X62.5955 Y18.6592
G1 X62.6989 Y18.6821
G1 X62.6939 Y18.6653
G1 X62.6681 Y18.5852
G1 X62.6332 Y18.5502
G1 X62.5214 Y18.5149
G1 F100.0 X62.5576 Y18.4005
G1 F150.0 X62.5501 Y18.3981
G1 X62.3467 Y18.3623
G3 X62.3257 Y18.357 I0.026 J-0.1477
G1 X62.1419 Y18.2963
G1 X61.9575 Y18.2526
G3 X61.9477 Y18.2499 I0.0346 J-0.146
G1 X61.7605 Y18.192
G1 X61.6032 Y18.1686
G1 X61.4452 Y18.2056
G3 X61.3708 Y18.2041 I-0.0342 J-0.146
G1 X60.5238 Y17.9684
G3 X60.5226 Y17.9681 I0.0402 J-0.1445
G1 X59.6759 Y17.7246
G3 X59.6753 Y17.7244 I0.0414 J-0.1442
G1 X58.829 Y17.477
G3 X58.8289 Y17.4769 I0.0421 J-0.144
G1 X57.9838 Y17.2286
G3 X57.9998 Y16.937 I0.0423 J-0.1439
G1 X58.1559 Y16.9092
G1 X58.3076 Y16.8754
G1 X58.4583 Y16.8347
G1 X58.6043 Y16.7896
G1 X59.2006 Y16.5442
G3 X59.2129 Y16.5398 I0.0571 J0.1387
G1 X59.832 Y16.3462
G3 X59.8393 Y16.3442 I0.0448 J0.1432
G1 X60.4697 Y16.1815
G3 X60.4712 Y16.1811 I0.0375 J0.1452
G1 X61.1069 Y16.024
G3 X61.1071 Y16.0239 I0.036 J0.1456
G1 X61.5991 Y15.903
G1 X62.0886 Y15.767
G3 X62.0925 Y15.766 I0.0402 J0.1445
G1 X62.5857 Y15.6429
G3 X62.596 Y15.6407 I0.0363 J0.1455
G1 X63.0926 Y15.5532
G3 X63.163 Y15.5576 I0.026 J0.1477
G1 X63.3231 Y15.6071
G1 X63.4748 Y15.6241
G1 X63.6291 Y15.6145
G1 X63.7923 Y15.5754
G1 X63.9873 Y15.5233
G3 X63.9959 Y15.5213 I0.0387 J0.1449
G1 X64.195 Y15.4804
G1 X64.3605 Y15.4264
G1 X64.4163 Y15.3872
G1 X64.4006 Y15.3292
G1 X64.3126 Y15.195
G1 X64.1863 Y15.0543
G1 X64.0855 Y14.9468
G1 X63.9425 Y14.9118
G1 X63.7563 Y14.9447
G1 X63.5374 Y15.0174
G3 X63.5255 Y15.0208 I-0.0473 J-0.1424
G1 X63.3057 Y15.0742
G1 X63.1626 Y15.1127
G1 X63.0222 Y15.1553
G1 X62.9814 Y15.1858
G1 X62.979 Y15.2661
G3 X62.8689 Y15.4063 I-0.1499 J-0.0045
G1 X62.2011 Y15.5899
G3 X62.2002 Y15.5902 I-0.0398 J-0.1446
G1 X61.5223 Y15.7719
G3 X61.5213 Y15.7721 I-0.0388 J-0.1449
G1 X60.8392 Y15.9497
G1 X60.165 Y16.1256
G1 X59.9967 Y16.1809
G3 X59.8343 Y16.1339 I-0.0469 J-0.1425
G1 X59.7903 Y16.0807
G3 X59.7627 Y15.9407 I0.1156 J-0.0956
G1 X59.8001 Y15.8203
G3 X59.809 Y15.7979 I0.1433 J0.0445
G1 X59.8805 Y15.6543
G1 X60.0105 Y15.3652
G1 X60.0907 Y15.0663
G1 X60.1467 Y14.7481
G1 X60.2039 Y14.4232
G3 X60.21 Y14.3998 I0.1477 J0.026
G1 X60.515 Y13.5258
G3 X60.5164 Y13.5221 I0.1416 J0.0494
G1 X60.8453 Y12.6543
G3 X60.8459 Y12.6528 I0.1403 J0.0532
G1 X61.1849 Y11.7882
G1 X61.5199 Y10.9255
G1 X61.5584 Y10.8185
G3 X61.6622 Y10.724 I0.1411 J0.0508
G1 X61.7359 Y10.7051
G3 X61.8247 Y10.7095 I0.0373 J0.1453
G1 X61.8839 Y10.7311
G1 X61.9511 Y10.5571
G3 X61.9527 Y10.5533 I0.1399 J0.0541
G1 X62.0889 Y10.2283
G1 X62.2145 Y9.9067
G1 X62.2828 Y9.6814
G1 X62.1502 Y9.5886
G1 X61.914 Y9.4575
G1 X61.667 Y9.3283
G3 X61.6638 Y9.3265 I0.0695 J-0.1329
G1 X61.5698 Y9.2743
G1 X61.5528 Y9.3181
G1 Y9.3182
G1 X61.4736 Y9.5218
G1 X61.3945 Y9.7257
G1 X61.3159 Y9.9281
G1 X61.2511 Y10.1066
G1 X61.2081 Y10.2825
G1 X61.2206 Y10.3909
G1 X61.3282 Y10.488
G3 X61.3682 Y10.652 I-0.1005 J0.1114
G1 X61.1 Y11.3688
G1 X60.8328 Y12.0894
G1 X60.5652 Y12.8111
G3 X60.5649 Y12.8119 I-0.1406 J-0.0521
G1 X60.2935 Y13.5309
G3 X60.0103 Y13.5235 I-0.1403 J-0.053
G1 X59.8217 Y12.9326
G1 X59.5836 Y12.3656
G1 X59.3053 Y11.8124
G1 X58.9974 Y11.2681
G3 X58.9894 Y11.2517 I0.1306 J-0.0739
G1 X58.4485 Y9.9476
G3 X58.448 Y9.9464 I0.1386 J-0.0575
G1 X57.9176 Y8.6358
G3 X57.9175 Y8.6356 I0.139 J-0.0563
G1 X57.3893 Y7.3251
G1 X56.8566 Y6.024
G1 X56.824 Y5.9535
G3 X56.8298 Y5.8162 I0.1361 J-0.063
G1 X56.8601 Y5.7631
G3 X56.884 Y5.7316 I0.1303 J0.0743
G1 X56.9212 Y5.6942
G1 X56.9226 Y5.6917
G1 X56.8947 Y5.4873
G1 X56.8064 Y5.2447
G1 X56.6924 Y4.99
G3 X56.6892 Y4.9823 I0.1369 J-0.0613
G1 X56.5913 Y4.726
G1 X56.5037 Y4.5272
G3 X56.5011 Y4.5211 I0.1373 J-0.0605
G1 X56.4209 Y4.3146
G1 X56.3332 Y4.1946
G1 X56.1935 Y4.1536
G1 X56.0502 Y4.1577
G1 X55.8855 Y4.1626
G1 X55.775 Y4.189
G1 X55.7546 Y4.2081
G1 X55.836 Y4.4954
G1 X55.9734 Y4.8598
G1 X56.1306 Y5.2225
G1 X56.296 Y5.5771
G1 X56.3346 Y5.645
G1 X56.3938 Y5.6832
G1 X56.4896 Y5.7338
G3 X56.5258 Y5.7606 I-0.0701 J0.1326
G1 X56.6047 Y5.8398
G3 X56.6371 Y5.8886 I-0.1063 J0.1059
G1 X57.0481 Y6.8865
G1 X57.461 Y7.8866
G3 X57.4611 Y7.8868 I-0.1386 J0.0572
G1 X57.8726 Y8.8876
G3 X57.8728 Y8.8882 I-0.1387 J0.057
G1 X58.2798 Y9.8889
G3 X58.0312 Y10.0478 I-0.1389 J0.0565
G1 X57.5412 Y9.523
G1 X57.0182 Y9.034
G1 X56.4698 Y8.5679
G1 X55.9063 Y8.1171
G3 X55.8974 Y8.1094 I0.0937 J-0.1171
G1 X54.7587 Y7.0408
G3 X54.7574 Y7.0395 I0.1026 J-0.1094
G1 X53.6297 Y5.9545
G3 X53.6293 Y5.9542 I0.104 J-0.1081
G1 X52.5051 Y4.8656
G1 X51.3761 Y3.7857
G3 X51.3692 Y3.7786 I0.1037 J-0.1084
G1 X51.2749 Y3.6758
G1 X51.1573 Y3.5773
G3 X51.1416 Y3.5621 I0.0963 J-0.115
G1 X51.0399 Y3.4479
G3 X51.0053 Y3.3796 I0.112 J-0.0998
G1 X50.9791 Y3.2575
G1 X50.9058 Y3.0892
G1 X50.7731 Y2.9424
G1 X50.6014 Y2.7905
G3 X50.5925 Y2.7819 I0.0994 J-0.1123
G1 X50.4381 Y2.6207
G1 X50.2416 Y2.4392
G3 X50.2341 Y2.4318 I0.1018 J-0.1102
G1 X50.0469 Y2.2326
G1 X49.8615 Y2.0691
G1 X49.7072 Y1.9939
G1 X49.6642 Y2.0166
G1 X49.5892 Y2.1006
G1 X49.5337 Y2.2111
G1 X49.5171 Y2.2901
G1 X49.6215 Y2.4859
G1 X49.8075 Y2.6872
G1 X50.0304 Y2.8869
G3 X50.0363 Y2.8926 I-0.1001 J0.1117
G1 X50.2453 Y3.1016
G1 X50.403 Y3.2428
G3 X50.406 Y3.2456 I-0.1001 J0.1117
G1 X50.5629 Y3.3939
G1 X50.7072 Y3.4902
G1 X50.8808 Y3.5211
G3 X50.9566 Y3.5588 I-0.0263 J0.1477
G1 X51.853 Y4.3905
G3 X51.855 Y4.3925 I-0.102 J0.11
G1 X52.7366 Y5.2417
G3 X52.737 Y5.2421 I-0.1041 J0.108
G1 X53.6144 Y6.0944
G1 X54.5003 Y6.9357
G3 X54.3372 Y7.182 I-0.1033 J0.1088
G1 X53.6835 Y6.8976
G1 X53.005 Y6.646
G1 X52.3088 Y6.4489
G1 X51.6016 Y6.3286
G1 X51.0043 Y6.2852
G1 X50.4165 Y6.3456
G1 X49.8404 Y6.4953
G1 X49.2792 Y6.726
G3 X49.2578 Y6.7329 I-0.057 J-0.1387
G1 X48.566 Y6.9022
G3 X48.5603 Y6.9034 I-0.0356 J-0.1457
G1 X47.8601 Y7.0459
G3 X47.8586 Y7.0462 I-0.0299 J-0.147
G1 X47.1585 Y7.1813
G1 X46.4635 Y7.3275
G3 X46.4546 Y7.3291 I-0.0309 J-0.1468
G1 X46.3045 Y7.3514
G1 X46.1455 Y7.3877
G3 X46.1123 Y7.3915 I-0.0334 J-0.1462
G1 X45.9581 Y7.3916
G3 X45.8717 Y7.3644 I-0.0002 J-0.15
G1 X45.7763 Y7.2973
G1 X45.6223 Y7.2772
G1 X45.4413 Y7.2999
G1 X45.256 Y7.3591
G1 X45.1318 Y7.4167
G1 X45.1236 Y7.4426
G1 X45.155 Y7.5165
G1 X45.2501 Y7.6386
G3 X45.2544 Y7.6444 I-0.1184 J0.0921
G1 X45.3401 Y7.7661
G1 X45.3984 Y7.8358
G1 X45.4542 Y7.856
G1 X45.5483
G1 X45.6692 Y7.8348
G1 X45.8301 Y7.8064
G1 X45.9896 Y7.7781
G1 X46.0533 Y7.7445
G1 X46.0779 Y7.6524
G3 X46.1884 Y7.5452 I0.1449 J0.0388
G1 X46.7736 Y7.4072
G3 X46.7799 Y7.4059 I0.0344 J0.146
G1 X47.3748 Y7.2922
G3 X47.3769 Y7.2919 I0.0281 J0.1473
G1 X47.9737 Y7.1866
G1 X48.566 Y7.0696
G3 X48.7264 Y7.2892 I0.0291 J0.1472
G1 X48.565 Y7.5815
G1 X48.4406 Y7.8801
G1 X48.3584 Y8.1871
G1 X48.3253 Y8.5139
G3 X48.3195 Y8.5429 I-0.1492 J-0.0151
G1 X48.1164 Y9.2038
G3 X48.1134 Y9.2126 I-0.1434 J-0.0441
G1 X47.8691 Y9.8621
G3 X47.868 Y9.8649 I-0.1404 J-0.0528
G1 X47.6104 Y10.5093
G1 X47.3661 Y11.1573
G3 X47.2127 Y11.2538 I-0.1404 J-0.0529
G1 X47.1388 Y11.2473
G1 X47.1108 Y11.2707
G1 X47.0615 Y11.3651
G1 X47.0233 Y11.4702
G1 X46.9928 Y11.6628
G1 X47.0875 Y11.8107
G1 X47.2906 Y11.976
G1 X47.3503 Y12.0224
G1 X47.3668 Y11.9871
G3 X47.3683 Y11.9839 I0.1359 J0.0635
G1 X47.4676 Y11.7836
G1 X47.5134 Y11.6124
G1 X47.4761 Y11.425
G3 X47.4794 Y11.353 I0.1471 J-0.0293
G1 X47.6121 Y10.9068
G3 X47.6163 Y10.8946 I0.1438 J0.0427
G1 X47.7881 Y10.4579
G3 X47.7892 Y10.4553 I0.1396 J0.0549
G1 X47.9685 Y10.0233
G1 X48.1278 Y9.5858
G3 X48.4137 Y9.5984 I0.1409 J0.0513
G1 X48.4708 Y9.8119
G1 X48.5272 Y10.0228
G1 X48.5903 Y10.2274
G1 X48.6625 Y10.4265
G1 X49.0071 Y11.2267
G3 X49.0094 Y11.2325 I-0.1378 J0.0593
G1 X49.3222 Y12.0521
G3 X49.3235 Y12.0556 I-0.1401 J0.0535
G1 X49.6161 Y12.8834
G3 X49.6166 Y12.8848 I-0.1414 J0.05
G1 X49.9013 Y13.7152
G3 X49.9024 Y13.7185 I-0.1419 J0.0487
G1 X49.9825 Y13.971
G1 X50.0799 Y14.2235
G3 X50.0834 Y14.2338 I-0.1399 J0.054
G1 X50.1624 Y14.4931
G3 X50.1683 Y14.5239 I-0.1435 J0.0437
G1 X50.1909 Y14.7852
G1 X50.2158 Y15.0011
G1 X50.2713 Y15.2082
G1 X50.3552 Y15.3986
G1 X50.4631 Y15.5458
G1 X50.5615 Y15.6026
G1 X50.6891 Y15.6626
G1 X50.7439 Y15.6702
G1 X50.7243 Y15.5409
G1 X50.6569 Y15.3282
G1 X50.5608 Y15.1224
G1 X50.4378 Y14.925
G3 X50.4281 Y14.9068 I0.1273 J-0.0793
G1 X50.1939 Y14.3818
G3 X50.1893 Y14.3704 I0.137 J-0.0611
G1 X49.9962 Y13.8198
G3 X49.9949 Y13.8157 I0.1416 J-0.0496
G1 X49.8171 Y13.2578
G1 X49.6287 Y12.708
G3 X49.8878 Y12.5658 I0.1419 J-0.0486
G1 X50.0048 Y12.7124
G1 X50.1207 Y12.8576
G1 X50.239 Y12.999
G1 X50.3612 Y13.1378
G1 X51.0525 Y13.8963
G3 X51.0552 Y13.8993 I-0.1109 J0.101
G1 X51.7277 Y14.6779
G3 X51.7291 Y14.6795 I-0.1135 J0.0981
G1 X52.3915 Y15.4684
G1 X53.0536 Y16.2573
G3 X53.0548 Y16.2588 I-0.1149 J0.0964
G1 X53.2923 Y16.549
G1 X53.5419 Y16.8327
G3 X53.5461 Y16.8377 I-0.1126 J0.0991
G1 X53.7829 Y17.1314
G3 X53.7936 Y17.1464 I-0.1168 J0.0941
G1 X53.9901 Y17.4629
G3 X53.9914 Y17.4651 I-0.1274 J0.0791
G1 X54.1366 Y17.7081
G1 X54.3053 Y17.9288
G1 X54.4972 Y18.1337
G1 X54.6665 Y18.2866
G3 X54.6774 Y18.2902 I-0.0404 J0.1445
G1 X54.7942 Y18.3327
G1 X54.9127 Y18.3375
G1 X54.9257 Y18.332
G1 X54.7848 Y18.1374
G1 X54.6075 Y17.908
G1 X54.4179 Y17.7047
G1 X54.1974 Y17.5318
G3 X54.1788 Y17.5145 I0.0926 J-0.118
G1 X53.6887 Y16.9737
G3 X53.6855 Y16.9701 I0.1111 J-0.1007
G1 X53.212 Y16.413
G3 X53.2105 Y16.4112 I0.1143 J-0.0971
G1 X52.7458 Y15.8467
G1 X52.2762 Y15.2873
G3 X52.4737 Y15.0657 I0.1149 J-0.0964
G1 X53.3083 Y15.6162
G1 X54.1791 Y16.0969
G1 X55.0873 Y16.495
G1 X56.0315 Y16.7967
G1 X57.1651 Y17.0515
G3 X57.1723 Y17.0533 I-0.0329 J0.1463
G1 X58.3003 Y17.3663
G3 X58.3034 Y17.3672 I-0.0401 J0.1445
G1 X59.4256 Y17.7051
G1 X60.5494 Y18.0348
G3 X60.554 Y18.0362 I-0.0422 J0.1439
G1 X60.8007 Y18.1173
G1 X61.0599 Y18.1776
G3 X61.0687 Y18.1799 I-0.034 J0.1461
G1 X61.3259 Y18.2566
G3 X61.3582 Y18.2705 I-0.0428 J0.1438
G1 X61.58 Y18.3988
G1 X61.8957 Y18.5507
G1 X62.2257 Y18.6756
G1 X62.5655 Y18.7755
G1 X62.845 Y18.8373
G1 X62.8499 Y18.8336
G1 X62.8518 Y18.7758
G1 X62.8086 Y18.6299
G1 X62.7735 Y18.5209
G1 X62.6974 Y18.4446
G1 X62.5576 Y18.4005
G0 Z3.0
G0 X55.8546 Y13.9353
G0 Z1.25
G1 F100.0 Z0.0
G3 F150.0 X55.8177 Y13.9737 I-0.1248 J-0.0832
G1 X55.5569 Y14.1623
G3 X55.5389 Y14.1735 I-0.0879 J-0.1215
G1 X55.2509 Y14.3252
G3 X55.2343 Y14.3327 I-0.0699 J-0.1327
G1 X54.9303 Y14.4482
G3 X54.9137 Y14.4534 I-0.0533 J-0.1402
G1 X54.6041 Y14.5316
G3 X54.5688 Y14.5362 I-0.0367 J-0.1454
G1 X54.1143 Y14.5407
G3 X54.0772 Y14.5364 I-0.0015 J-0.15
G1 X53.6431 Y14.4302
G3 X53.6214 Y14.4231 I0.0357 J-0.1457
G1 X53.2014 Y14.2494
G3 X53.194 Y14.246 I0.0573 J-0.1386
G1 X52.7827 Y14.0491
G3 X52.7809 Y14.0483 I0.0648 J-0.1353
G1 X52.481 Y13.8998
G3 X52.467 Y13.8919 I0.0666 J-0.1344
G1 X52.1883 Y13.7144
G3 X52.1769 Y13.7064 I0.0806 J-0.1265
G1 X51.9158 Y13.5038
G3 X51.9074 Y13.4969 I0.0919 J-0.1185
G1 X51.6605 Y13.2748
G3 X51.6564 Y13.2711 I0.1003 J-0.1116
G1 X51.0988 Y12.7313
G3 X51.0943 Y12.7268 I0.1043 J-0.1078
G1 X50.5559 Y12.1594
G3 X50.5466 Y12.1487 I0.1088 J-0.1033
G1 X50.0663 Y11.5357
G3 X50.054 Y11.5174 I0.1181 J-0.0925
G1 X49.6698 Y10.8427
G3 X49.6575 Y10.815 I0.1303 J-0.0742
G1 X49.6028 Y10.6471
G3 X49.5995 Y10.6357 I0.1426 J-0.0465
G1 X49.5569 Y10.4586
G3 X49.555 Y10.4495 I0.1458 J-0.0351
G1 X49.5233 Y10.2689
G3 X49.5216 Y10.2559 I0.1477 J-0.0259
G1 X49.5059 Y10.0751
G3 X49.5057 Y10.0513 I0.1494 J-0.013
G1 X49.5286 Y9.7341
G3 X49.5432 Y9.6795 I0.1496 J0.0108
G1 X49.6773 Y9.4028
G3 X49.6995 Y9.3693 I0.135 J0.0654
G1 X49.9071 Y9.1324
G3 X49.9264 Y9.114 I0.1128 J0.0989
G1 X50.1723 Y8.9178
G3 X50.1785 Y8.9131 I0.0936 J0.1172
G1 X50.5172 Y8.6703
G3 X50.5675 Y8.6469 I0.0874 J0.1219
G1 X50.9615 Y8.5463
G3 X50.9986 Y8.5416 I0.0371 J0.1453
G1 X51.4155
G3 X51.4401 Y8.5436 I0.0 J0.15
G1 X51.8496 Y8.6115
G3 X51.8831 Y8.6212 I-0.0245 J0.148
G1 X52.4148 Y8.8441
G3 X52.4234 Y8.8481 I-0.058 J0.1383
G1 X52.9415 Y9.1047
G3 X52.9545 Y9.112 I-0.0666 J0.1344
G1 X53.4423 Y9.4169
G3 X53.4592 Y9.4292 I-0.0795 J0.1272
G1 X53.8989 Y9.7982
G3 X53.9085 Y9.8071 I-0.0964 J0.1149
G1 X54.4943 Y10.3928
G3 X54.4966 Y10.3951 I-0.1061 J0.1061
G1 X55.072 Y10.9958
G3 X55.0821 Y11.0075 I-0.1083 J0.1038
G1 X55.5878 Y11.6585
G3 X55.6028 Y11.6819 I-0.1185 J0.092
G1 X55.981 Y12.4177
G3 X55.9915 Y12.4439 I-0.1334 J0.0686
G1 X56.0929 Y12.788
G3 X56.0986 Y12.8194 I-0.1439 J0.0424
G1 X56.1252 Y13.1813
G3 X56.123 Y13.2204 I-0.1496 J0.011
G1 X56.0562 Y13.5704
G3 X56.0388 Y13.6174 I-0.1473 J-0.0281
G1 X55.8597 Y13.9272
G3 X55.8546 Y13.9353 I-0.1299 J-0.0751
G1 F100.0 Z-0.25
G3 F150.0 X55.8177 Y13.9737 I-0.1248 J-0.0832
G1 X55.5569 Y14.1623
G3 X55.5389 Y14.1735 I-0.0879 J-0.1215
G1 X55.2509 Y14.3252
G3 X55.2343 Y14.3327 I-0.0699 J-0.1327
G1 X54.9303 Y14.4482
G3 X54.9137 Y14.4534 I-0.0533 J-0.1402
G1 X54.6041 Y14.5316
G3 X54.5688 Y14.5362 I-0.0367 J-0.1454
G1 X54.1143 Y14.5407
G3 X54.0772 Y14.5364 I-0.0015 J-0.15
G1 X53.6431 Y14.4302
G3 X53.6214 Y14.4231 I0.0357 J-0.1457
G1 X53.2014 Y14.2494
G3 X53.194 Y14.246 I0.0573 J-0.1386
G1 X52.7827 Y14.0491
G3 X52.7809 Y14.0483 I0.0648 J-0.1353
G1 X52.481 Y13.8998
G3 X52.467 Y13.8919 I0.0666 J-0.1344
G1 X52.1883 Y13.7144
G3 X52.1769 Y13.7064 I0.0806 J-0.1265
G1 X51.9158 Y13.5038
G3 X51.9074 Y13.4969 I0.0919 J-0.1185
G1 X51.6605 Y13.2748
G3 X51.6564 Y13.2711 I0.1003 J-0.1116
G1 X51.0988 Y12.7313
G3 X51.0943 Y12.7268 I0.1043 J-0.1078
G1 X50.5559 Y12.1594
G3 X50.5466 Y12.1487 I0.1088 J-0.1033
G1 X50.0663 Y11.5357
G3 X50.054 Y11.5174 I0.1181 J-0.0925
G1 X49.6698 Y10.8427
G3 X49.6575 Y10.815 I0.1303 J-0.0742
G1 X49.6028 Y10.6471
G3 X49.5995 Y10.6357 I0.1426 J-0.0465
G1 X49.5569 Y10.4586
G3 X49.555 Y10.4495 I0.1458 J-0.0351
G1 X49.5233 Y10.2689
G3 X49.5216 Y10.2559 I0.1477 J-0.0259
G1 X49.5059 Y10.0751
G3 X49.5057 Y10.0513 I0.1494 J-0.013
G1 X49.5286 Y9.7341
G3 X49.5432 Y9.6795 I0.1496 J0.0108
G1 X49.6773 Y9.4028
G3 X49.6995 Y9.3693 I0.135 J0.0654
G1 X49.9071 Y9.1324
G3 X49.9264 Y9.114 I0.1128 J0.0989
G1 X50.1723 Y8.9178
G3 X50.1785 Y8.9131 I0.0936 J0.1172
G1 X50.5172 Y8.6703
G3 X50.5675 Y8.6469 I0.0874 J0.1219
G1 X50.9615 Y8.5463
G3 X50.9986 Y8.5416 I0.0371 J0.1453
G1 X51.4155
G3 X51.4401 Y8.5436 I0.0 J0.15
G1 X51.8496 Y8.6115
G3 X51.8831 Y8.6212 I-0.0245 J0.148
G1 X52.4148 Y8.8441
G3 X52.4234 Y8.8481 I-0.058 J0.1383
G1 X52.9415 Y9.1047
G3 X52.9545 Y9.112 I-0.0666 J0.1344
G1 X53.4423 Y9.4169
G3 X53.4592 Y9.4292 I-0.0795 J0.1272
G1 X53.8989 Y9.7982
G3 X53.9085 Y9.8071 I-0.0964 J0.1149
G1 X54.4943 Y10.3928
G3 X54.4966 Y10.3951 I-0.1061 J0.1061
G1 X55.072 Y10.9958
G3 X55.0821 Y11.0075 I-0.1083 J0.1038
G1 X55.5878 Y11.6585
G3 X55.6028 Y11.6819 I-0.1185 J0.092
G1 X55.981 Y12.4177
G3 X55.9915 Y12.4439 I-0.1334 J0.0686
G1 X56.0929 Y12.788
G3 X56.0986 Y12.8194 I-0.1439 J0.0424
G1 X56.1252 Y13.1813
G3 X56.123 Y13.2204 I-0.1496 J0.011
G1 X56.0562 Y13.5704
G3 X56.0388 Y13.6174 I-0.1473 J-0.0281
G1 X55.8597 Y13.9272
G3 X55.8546 Y13.9353 I-0.1299 J-0.0751
G0 Z3.0
G0 X56.0604 Y14.2106
G0 Z1.0
G1 F100.0 Z-0.25
G1 F150.0 X56.1031 Y14.1788
G1 X56.3157 Y13.8837
G1 X56.4054 Y13.514
G1 X56.4203 Y13.1255
G1 X56.3446 Y12.7466
G1 X56.2021 Y12.3686
G1 X56.0206 Y11.9911
G3 X56.2468 Y11.8069 I0.1352 J-0.065
G1 X56.3295 Y11.87
G3 X56.348 Y11.8867 I-0.091 J0.1192
G1 X56.4437 Y11.9891
G3 X56.4491 Y11.9951 I-0.1096 J0.1025
G1 X56.5467 Y12.1115
G3 X56.5516 Y12.1176 I-0.1149 J0.0964
G1 X56.6353 Y12.2287
G3 X56.6358 Y12.2293 I-0.1198 J0.0903
G1 X56.7859 Y12.4307
G3 X56.7931 Y12.4412 I-0.1203 J0.0897
G1 X56.9261 Y12.6553
G1 X57.0608 Y12.8096
G1 X57.2237 Y12.8778
G1 X57.2566 Y12.875
G1 X57.2622 Y12.8698
G1 X57.2628 Y12.8673
G1 X57.2376 Y12.819
G1 X56.6593 Y12.0189
G1 X55.9407 Y11.3358
G1 X55.1575 Y10.691
G3 X55.153 Y10.6872 I0.0953 J-0.1158
G1 X54.3962 Y10.0122
G3 X54.3952 Y10.0113 I0.0998 J-0.1119
G1 X53.6899 Y9.3704
G1 X52.9101 Y8.8386
G1 X52.0612 Y8.4515
G1 X51.1512 Y8.248
G1 X50.8119 Y8.2439
G1 X50.4845 Y8.3123
G1 X50.1798 Y8.4493
G1 X49.8975 Y8.6605
G1 X49.633 Y8.8702
G1 X49.4301 Y9.1178
G1 X49.2949 Y9.3981
G1 X49.2452 Y9.7032
G1 X49.3714 Y10.4986
G1 X49.711 Y11.2381
G1 X50.1972 Y11.9224
G1 X50.7614 Y12.5501
G3 X50.7639 Y12.5531 I-0.1116 J0.1003
G1 X51.2936 Y13.1744
G3 X51.2939 Y13.1746 I-0.1141 J0.0973
G1 X51.8202 Y13.7949
G1 X52.3648 Y14.3893
G1 X52.9602 Y14.9399
G3 X52.766 Y15.1682 I-0.1018 J0.1101
G1 X51.6433 Y14.2912
G3 X51.6305 Y14.28 I0.0923 J-0.1182
G1 X50.6105 Y13.2776
G3 X50.5972 Y13.2627 I0.1051 J-0.107
G1 X49.7214 Y12.1367
G3 X49.7085 Y12.1171 I0.1184 J-0.0921
G1 X49.019 Y10.87
G3 X49.0087 Y10.8468 I0.1313 J-0.0726
G1 X48.7497 Y10.103
G3 X48.7438 Y10.0807 I0.1417 J-0.0493
G1 X48.6004 Y9.297
G3 X48.5981 Y9.2638 I0.1476 J-0.027
G1 X48.6307 Y8.4816
G3 X48.6396 Y8.4365 I0.1499 J0.0063
G1 X48.9084 Y7.698
G3 X48.9433 Y7.6433 I0.141 J0.0513
G1 X49.4723 Y7.1145
G3 X49.5149 Y7.0847 I0.106 J0.1061
G1 X50.1904 Y6.7696
G3 X50.2278 Y6.7578 I0.0634 J0.1359
G1 X50.975 Y6.6261
G3 X51.0068 Y6.624 I0.026 J0.1477
G1 X51.7533 Y6.6525
G3 X51.7752 Y6.6549 I-0.0057 J0.1499
G1 X52.6495 Y6.8184
G3 X52.6711 Y6.8241 I-0.0276 J0.1474
G1 X53.5108 Y7.1153
G3 X53.5251 Y7.1211 I-0.0491 J0.1417
G1 X54.3354 Y7.499
G3 X54.3425 Y7.5025 I-0.0634 J0.1359
G1 X55.1298 Y7.9217
G3 X55.1444 Y7.9306 I-0.0705 J0.1324
G1 X56.1335 Y8.612
G3 X56.1448 Y8.6206 I-0.0851 J0.1235
G1 X57.0647 Y9.3925
G3 X57.0763 Y9.4032 I-0.0964 J0.1149
G1 X57.9091 Y10.2665
G3 X57.9207 Y10.2801 I-0.108 J0.1041
G1 X58.6448 Y11.2367
G1 X58.7916 Y11.4233
G3 X58.8021 Y11.4386 I-0.1179 J0.0927
G1 X58.9241 Y11.641
G3 X58.9295 Y11.6508 I-0.1285 J0.0774
G1 X59.0363 Y11.8623
G3 X59.0368 Y11.8632 I-0.1339 J0.0676
G1 X59.1426 Y12.0768
G3 X59.1458 Y12.0835 I-0.1344 J0.0666
G1 X59.3029 Y12.4444
G3 X59.3033 Y12.4454 I-0.1375 J0.0599
G1 X59.4587 Y12.8087
G3 X59.4617 Y12.8164 I-0.1379 J0.059
G1 X59.596 Y13.1856
G3 X59.6005 Y13.2006 I-0.141 J0.0513
G1 X59.6945 Y13.5779
G3 X59.6962 Y13.5858 I-0.1456 J0.0362
G1 X59.7538 Y13.8851
G3 X59.7555 Y13.896 I-0.1473 J0.0283
G1 X59.7916 Y14.2042
G3 X59.7926 Y14.2195 I-0.149 J0.0175
G1 X59.7971 Y14.5311
G3 X59.7959 Y14.552 I-0.15 J0.0022
G1 X59.757 Y14.8603
G3 X59.7535 Y14.8786 I-0.1488 J-0.0188
G1 X59.6174 Y15.4113
G3 X59.5986 Y15.4547 I-0.1453 J-0.0371
G1 X59.3044 Y15.9161
G3 X59.2775 Y15.9477 I-0.1265 J-0.0806
G1 X58.8646 Y16.3139
G3 X58.8323 Y16.3358 I-0.0995 J-0.1122
G1 X58.3396 Y16.5827
G3 X58.3019 Y16.5957 I-0.0672 J-0.1341
G1 X57.4934 Y16.7578
G3 X57.4611 Y16.7607 I-0.0295 J-0.1471
G1 X56.635 Y16.745
G3 X56.6089 Y16.7423 I0.0028 J-0.15
G1 X55.793 Y16.5821
G3 X55.7722 Y16.5764 I0.0289 J-0.1472
G1 X55.0224 Y16.3134
G3 X54.9716 Y16.2991 I0.0146 J-0.1493
G1 X54.9359 Y16.2818
G3 X54.9347 Y16.2812 I0.0655 J-0.135
G1 X54.8998 Y16.2639
G3 X54.8894 Y16.2582 I0.0667 J-0.1344
G1 X54.8561 Y16.2382
G3 X54.8543 Y16.2371 I0.0771 J-0.1287
G1 X54.821 Y16.2166
G3 X54.8174 Y16.2143 I0.0789 J-0.1276
G1 X54.1396 Y15.7677
G3 X54.1371 Y15.766 I0.0825 J-0.1253
G1 X53.4661 Y15.3044
G3 X53.4589 Y15.2991 I0.085 J-0.1236
G1 X52.8185 Y14.7999
G3 X52.8072 Y14.7901 I0.0922 J-0.1183
G1 X52.2203 Y14.2304
G3 X52.3958 Y13.9903 I0.1035 J-0.1085
G1 X52.5902 Y14.0966
G1 X52.8102 Y14.2129
G1 X53.0398 Y14.3283
G1 X53.2615 Y14.4319
G1 X53.7908 Y14.6489
G1 X54.338 Y14.7454
G1 X54.8884 Y14.7202
G1 X55.429 Y14.56
G1 X55.7965 Y14.4079
G1 X56.0604 Y14.2106
G0 Z3.0
G0 X54.3094 Y16.023
G0 Z0.75
G1 F100.0 Z-0.5
G1 F150.0 X54.0737 Y15.8677
G3 X54.0692 Y15.8647 I0.1484 J-0.2253
G1 X53.3982 Y15.403
G3 X53.3853 Y15.3935 I0.1529 J-0.2222
G1 X53.0996 Y15.1708
G3 X53.0081 Y15.2744 I-0.2412 J-0.1208
G1 X53.3705 Y15.5134
G1 X54.2323 Y15.9892
G1 X54.3094 Y16.023
G0 Z3.0
G0 X52.2835 Y14.9432
G0 Z0.75
G1 F100.0 Z-0.5
G1 F150.0 X51.767 Y14.5397
G1 X51.8185 Y14.5995
G3 X51.821 Y14.6023 I-0.2043 J0.1765
G1 X52.177 Y15.0263
G3 X52.2835 Y14.9432 I0.2141 J0.1645
G0 Z3.0
G0 X50.5768 Y15.4729
G0 Z0.75
G1 F100.0 Z-0.5
G1 F150.0 X50.5448 Y15.3719
G1 X50.4551 Y15.1797
G1 X50.3372 Y14.9904
G1 X50.3848 Y15.1682
G1 X50.4598 Y15.3382
G1 X50.545 Y15.4545
G1 X50.5768 Y15.4729
G0 Z3.0
G0 X49.5924 Y12.4564
G0 Z0.75
G1 F100.0 Z-0.5
G3 F150.0 X49.7663 Y12.3894 I0.1781 J0.2029
G1 X49.6269 Y12.2102
G3 X49.6037 Y12.1751 I0.2129 J-0.1656
G1 X49.2611 Y11.5553
G1 X49.4343 Y12.0093
G3 X49.4366 Y12.0156 I-0.2523 J0.0963
G1 X49.5924 Y12.4564
G0 Z3.0
G0 X47.2592 Y11.6339
G0 Z0.75
G1 F100.0 Z-0.5
G1 F150.0 X47.2671 Y11.6044
G1 X47.2548 Y11.5427
G1 X47.2441 Y11.6103
G1 X47.2592 Y11.6339
G1 F100.0 X47.3751 Y11.6649
G1 F150.0 X47.3903 Y11.6084
G1 X47.3584 Y11.4485
G3 X47.3592 Y11.3391 I0.2648 J-0.0528
G3 X47.2023 Y11.3733 I-0.1334 J-0.2347
G1 X47.193 Y11.3725
G1 X47.1716 Y11.4135
G1 X47.14 Y11.5003
G1 X47.1184 Y11.6365
G1 X47.1781 Y11.7298
G1 X47.3079 Y11.8355
G1 X47.3548 Y11.741
G1 X47.3751 Y11.6649
G0 Z3.0
G0 X48.3515 Y9.256
G0 Z0.75
G1 F100.0 Z-0.5
G3 F150.0 X48.3584 Y9.2576 I-0.0827 J0.3811
G3 X48.3585 Y9.2538 I0.3896 J0.0124
G1 X48.3595 Y9.2297
G1 X48.3515 Y9.256
G0 Z3.0
G0 X48.982 Y7.2656
G0 Z0.75
G1 F100.0 Z-0.5
G1 F150.0 X49.271 Y6.9768
G1 X48.9501 Y7.0553
G3 X48.982 Y7.2656 I-0.355 J0.1614
G0 Z3.0
G0 X45.7566 Y7.5756
G0 Z0.75
G1 F100.0 Z-0.5
G3 F150.0 X45.7337 Y7.5607 I0.2013 J-0.334
G1 X45.6867 Y7.5277
G1 X45.6217 Y7.5192
G1 X45.4931 Y7.5353
G1 X45.4751 Y7.5411
G1 X45.5278 Y7.6159
G1 X45.6276 Y7.5984
G1 X45.7566 Y7.5756
G1 F100.0 X45.7775 Y7.6938
G1 F150.0 X45.8092 Y7.6882
G1 X45.9502 Y7.6632
G1 X45.9509 Y7.6628
G1 X45.962 Y7.6214
G3 X46.0212 Y7.5116 I0.2608 J0.0698
G1 X45.9583
G3 X45.8027 Y7.4625 I-0.0003 J-0.27
G1 X45.7315 Y7.4125
G1 X45.622 Y7.3982
G1 X45.4672 Y7.4176
G1 X45.2996 Y7.4711
G1 X45.2792 Y7.4806
G1 X45.3448 Y7.565
G3 X45.3525 Y7.5753 I-0.2131 J0.1658
G1 X45.4353 Y7.6929
G1 X45.4696 Y7.7339
G1 X45.4752 Y7.736
G1 X45.5379
G1 X45.6484 Y7.7166
G1 X45.7775 Y7.6938
G0 Z3.0
G0 X50.0259 Y2.5607
G0 Z0.75
G1 F100.0 Z-0.5
G1 F150.0 X49.8797 Y2.4052
G1 X49.847 Y2.3764
G1 X49.9761 Y2.516
G1 X50.0259 Y2.5607
G1 F100.0 X50.1134 Y2.4785
G1 F150.0 X49.9633 Y2.3189
G1 X49.7943 Y2.1698
G1 X49.7204 Y2.1338
G1 X49.6893 Y2.1686
G1 X49.6479 Y2.251
G1 X49.6435 Y2.2721
G1 X49.7201 Y2.4158
G1 X49.8918 Y2.6016
G1 X50.1104 Y2.7976
G3 X50.1212 Y2.8077 I-0.1802 J0.2011
G1 X50.3279 Y3.0144
G1 X50.4831 Y3.1535
G3 X50.4884 Y3.1584 I-0.1802 J0.2011
G1 X50.6379 Y3.2997
G1 X50.7529 Y3.3764
G1 X50.887 Y3.4003
G1 X50.8643 Y3.2944
G1 X50.8037 Y3.1551
G1 X50.6886 Y3.0279
G1 X50.5219 Y2.8804
G3 X50.5058 Y2.8649 I0.1789 J-0.2022
G1 X50.354 Y2.7064
G1 X50.1602 Y2.5273
G3 X50.1467 Y2.514 I0.1832 J-0.1983
G1 X50.1134 Y2.4785
G0 Z3.0
G0 X56.0577 Y4.3976
G0 Z0.75
G1 F100.0 Z-0.5
G1 F150.0 X56.0641 Y4.4202
G1 X56.1959 Y4.7696
G1 X56.3495 Y5.124
G1 X56.5094 Y5.4669
G1 X56.5141 Y5.4752
G1 X56.5151 Y5.4759
G1 X56.6018 Y5.5217
G3 X56.6626 Y5.5615 I-0.1823 J0.3448
G1 X56.6604 Y5.5453
G1 X56.5838 Y5.3349
G1 X56.4733 Y5.088
G3 X56.465 Y5.0679 I0.356 J-0.1593
G1 X56.3692 Y4.8173
G1 X56.2841 Y4.624
G3 X56.2774 Y4.608 I0.3569 J-0.1573
G1 X56.2085 Y4.4308
G1 X56.1874 Y4.4019
G1 X56.1624 Y4.3946
G1 X56.0577 Y4.3976
G1 F100.0 X56.0543 Y4.2776
G1 F150.0 X56.0537
G1 X55.9014 Y4.2822
G1 X55.9004 Y4.2824
G1 X55.9501 Y4.4578
G1 X56.0846 Y4.8147
G1 X56.2401 Y5.1733
G1 X56.4027 Y5.522
G1 X56.4244 Y5.5601
G1 X56.4545 Y5.5795
G1 X56.5457 Y5.6277
G3 X56.6108 Y5.6759 I-0.1262 J0.2387
G1 X56.6897 Y5.7551
G3 X56.713 Y5.7817 I-0.1913 J0.1906
G3 X56.7255 Y5.7568 I0.2471 J0.1087
G1 X56.7558 Y5.7037
G3 X56.7958 Y5.6501 I0.2346 J0.1337
G1 X56.7776 Y5.5163
G1 X56.6951 Y5.2898
G1 X56.5829 Y5.039
G3 X56.5771 Y5.0251 I0.2465 J-0.1103
G1 X56.4803 Y4.7716
G1 X56.3939 Y4.5756
G3 X56.3893 Y4.5646 I0.2471 J-0.1089
G1 X56.3147 Y4.3727
G1 X56.2603 Y4.2982
G1 X56.178 Y4.2741
G1 X56.0543 Y4.2776
G0 Z3.0
G0 X54.6883 Y7.3038
G0 Z0.75
G1 F100.0 Z-0.5
G3 F150.0 X54.6082 Y7.3723 I-0.2912 J-0.2594
G1 X54.962 Y7.5607
G1 X54.6883 Y7.3038
G1 F100.0 X54.7704 Y7.2163
G1 F150.0 X54.6766 Y7.1283
G3 X54.6742 Y7.126 I0.1848 J-0.1969
G1 X54.6587 Y7.1111
G3 X54.2894 Y7.292 I-0.2616 J-0.0667
G1 X53.6387 Y7.009
G1 X52.9678 Y6.7602
G1 X52.2824 Y6.5661
G1 X51.5872 Y6.4479
G1 X51.0061 Y6.4057
G1 X50.4378 Y6.4641
G1 X49.8785 Y6.6094
G1 X49.3248 Y6.8369
G3 X49.2864 Y6.8495 I-0.1026 J-0.2497
G1 X48.7333 Y6.9848
G3 X48.8315 Y7.3472 I-0.1382 J0.2319
G1 X48.6732 Y7.6337
G1 X48.5544 Y7.9189
G1 X48.4768 Y8.2088
G1 X48.4447 Y8.526
G3 X48.4342 Y8.5781 I-0.2686 J-0.0271
G1 X48.2311 Y9.239
G3 X48.2258 Y9.2548 I-0.2581 J-0.0793
G1 X48.1775 Y9.3831
G3 X48.5257 Y9.5542 I0.0913 J0.2541
G1 X48.4826 Y9.3186
G3 X48.4784 Y9.2588 I0.2654 J-0.0485
G1 X48.5111 Y8.4766
G3 X48.5271 Y8.3955 I0.2695 J0.0112
G1 X48.7959 Y7.6571
G3 X48.8587 Y7.5586 I0.2535 J0.0923
G1 X49.3876 Y7.0298
G3 X49.4643 Y6.9762 I0.1907 J0.1908
G1 X50.1398 Y6.6611
G3 X50.207 Y6.6399 I0.114 J0.2445
G1 X50.9542 Y6.5082
G3 X51.0113 Y6.5043 I0.0468 J0.2657
G1 X51.7579 Y6.5328
G3 X51.7972 Y6.5372 I-0.0103 J0.2696
G1 X52.6715 Y6.7007
G3 X52.7103 Y6.711 I-0.0496 J0.2652
G1 X53.55 Y7.0021
G3 X53.5757 Y7.0125 I-0.0884 J0.2549
G1 X54.386 Y7.3904
G3 X54.3988 Y7.3968 I-0.114 J0.2445
G1 X55.1861 Y7.816
G3 X55.2124 Y7.8319 I-0.1268 J0.2381
G1 X56.2014 Y8.5133
G3 X56.2218 Y8.5288 I-0.153 J0.2221
G1 X57.0058 Y9.1867
G1 X56.9383 Y9.1236
G1 X56.3935 Y8.6605
G1 X55.8313 Y8.2108
G3 X55.8152 Y8.1969 I0.1687 J-0.2108
G1 X54.7704 Y7.2163
G0 Z3.0
G0 X57.2917 Y9.4541
G0 Z0.75
G1 F100.0 Z-0.5
G1 F150.0 X57.9423 Y10.1284
G1 X57.4562 Y9.6079
G1 X57.2917 Y9.4541
G0 Z3.0
G0 X58.2513 Y10.3195
G0 Z0.75
G1 F100.0 Z-0.5
G1 F150.0 X58.454 Y10.5874
G1 X58.3294 Y10.2869
G3 X58.2513 Y10.3195 I-0.1885 J-0.3414
G0 Z3.0
G0 X61.5892 Y10.2396
G0 Z0.75
G1 F100.0 Z-0.5
G3 F150.0 X61.6579 Y10.3254 I-0.3615 J0.3598
G1 X61.7551 Y10.0932
G1 X61.8554 Y9.8367
G1 X61.7585 Y9.7829
G1 X61.7302 Y9.8559
G3 X61.7301 Y9.856 I-0.4755 J-0.1844
G1 X61.6529 Y10.0548
G1 X61.5962 Y10.2111
G1 X61.5892 Y10.2396
G1 F100.0 X61.5041 Y10.3243
G3 F150.0 X61.6025 Y10.4915 I-0.2764 J0.2751
G1 X61.6026
G1 X61.6762 Y10.4726
G3 X61.7304 Y10.4627 I0.097 J0.3778
G3 X61.7314 Y10.4605 I0.3606 J0.1485
G1 X61.8664 Y10.1382
G1 X61.9876 Y9.8281
G1 X62.0019 Y9.7807
G1 X61.8001 Y9.6688
G1 X61.6953 Y9.6139
G1 X61.6183 Y9.8125
G3 Y9.8126 I-0.3636 J-0.141
G1 X61.5406 Y10.0126
G1 X61.4811 Y10.1763
G1 X61.4558 Y10.2799
G1 X61.489 Y10.3098
G3 X61.5041 Y10.3243 I-0.2613 J0.2896
G1 F100.0 X61.4191 Y10.4089
G3 F150.0 X61.4806 Y10.694 I-0.1914 J0.1905
G1 X61.4653 Y10.7349
G3 X61.6324 Y10.6077 I0.2342 J0.1343
G1 X61.7061 Y10.5888
G3 X61.8124 Y10.5832 I0.0671 J0.2615
G1 X61.8392 Y10.5139
G3 X61.842 Y10.5069 I0.2518 J0.0973
G1 X61.9776 Y10.1833
G1 X62.1011 Y9.8674
G1 X62.1427 Y9.7298
G1 X62.0865 Y9.6904
G1 X61.8571 Y9.5631
G1 X61.6321 Y9.4454
G1 X61.5855 Y9.5652
G1 X61.5064 Y9.7691
G1 Y9.7692
G1 X61.4283 Y9.9704
G1 X61.3661 Y10.1414
G1 X61.3298 Y10.2901
G1 X61.3346 Y10.3322
G1 X61.4086 Y10.3989
G3 X61.4191 Y10.4089 I-0.1809 J0.2005
G0 Z3.0
G0 X60.1415 Y13.8678
G0 Z0.75
G1 F100.0 Z-0.5
G3 F150.0 X59.9875 Y13.831 I0.0117 J-0.3898
G1 X59.9892 Y13.8398
G3 X59.9936 Y13.8681 I-0.3827 J0.0736
G1 X60.0297 Y14.1763
G3 X60.0307 Y14.1853 I-0.3871 J0.0454
G1 X60.1415 Y13.8678
G0 Z3.0
G0 X59.5182 Y16.0269
G0 Z0.75
G1 F100.0 Z-0.5
G1 F150.0 X59.5066 Y16.045
G3 X59.4366 Y16.1271 I-0.3287 J-0.2095
G1 X59.2776 Y16.2681
G1 X59.5668 Y16.1777
G3 X59.5182 Y16.0269 I0.3392 J-0.1925
G1 F100.0 X59.417 Y15.9624
G1 F150.0 X59.4054 Y15.9805
G3 X59.3569 Y16.0373 I-0.2275 J-0.145
G1 X58.944 Y16.4035
G3 X58.8859 Y16.4429 I-0.179 J-0.2018
G1 X58.3933 Y16.6898
G3 X58.3254 Y16.7131 I-0.1209 J-0.2412
G1 X57.517 Y16.8752
G3 X57.4589 Y16.8804 I-0.053 J-0.2645
G1 X56.9044 Y16.8699
G1 X57.1914 Y16.9344
G3 X57.2044 Y16.9377 I-0.0592 J0.2634
G1 X57.7562 Y17.0908
G3 X57.9787 Y16.8189 I0.2699 J-0.0061
G1 X58.1323 Y16.7915
G1 X58.2789 Y16.7588
G1 X58.425 Y16.7194
G1 X58.5636 Y16.6765
G1 X59.1549 Y16.4333
G3 X59.1771 Y16.4253 I0.1027 J0.2497
G1 X59.7701 Y16.2398
G3 X59.7418 Y16.2104 I0.1798 J-0.2015
G1 X59.6978 Y16.1572
G3 X59.6481 Y15.9051 I0.2081 J-0.172
G1 X59.6855 Y15.7847
G3 X59.7016 Y15.7444 I0.2579 J0.0801
G1 X59.772 Y15.6029
G1 X59.8971 Y15.3248
G1 X59.9734 Y15.0403
G1 X60.0285 Y14.7273
G1 X60.0857 Y14.4024
G3 X60.0967 Y14.3602 I0.2659 J0.0468
G1 X60.3349 Y13.6776
G3 X59.896 Y13.56 I-0.1817 J-0.1997
G1 X59.709 Y12.9742
G1 X59.4746 Y12.4159
G1 X59.1994 Y11.8689
G1 X58.8929 Y11.3272
G3 X58.8785 Y11.2977 I0.235 J-0.133
G1 X58.3741 Y10.0815
G3 X57.9507 Y10.1371 I-0.2332 J-0.1361
G1 X57.9953 Y10.1833
G3 X58.0162 Y10.2078 I-0.1941 J0.1873
G1 X58.7396 Y11.1636
G1 X58.8857 Y11.3493
G3 X58.9047 Y11.3768 I-0.212 J0.1668
G1 X59.0267 Y11.5792
G3 X59.0364 Y11.5969 I-0.231 J0.1392
G1 X59.1432 Y11.8083
G3 X59.1441 Y11.81 I-0.2408 J0.1216
G1 X59.2499 Y12.0236
G3 X59.2556 Y12.0357 I-0.2417 J0.1198
G1 X59.4127 Y12.3966
G3 X59.4135 Y12.3983 I-0.2473 J0.1077
G1 X59.5688 Y12.7617
G3 X59.5742 Y12.7755 I-0.2481 J0.106
G1 X59.7085 Y13.1447
G3 X59.7168 Y13.1717 I-0.2535 J0.0922
G1 X59.8107 Y13.549
G3 X59.8138 Y13.5632 I-0.2618 J0.0652
G1 X59.8714 Y13.8625
G3 X59.8744 Y13.8821 I-0.2649 J0.051
G1 X59.9105 Y14.1903
G3 X59.9123 Y14.2178 I-0.2679 J0.0314
G1 X59.9168 Y14.5293
G3 X59.9148 Y14.567 I-0.2697 J0.0039
G1 X59.8758 Y14.8753
G3 X59.8696 Y14.9083 I-0.2676 J-0.0338
G1 X59.7334 Y15.4409
G3 X59.6995 Y15.5191 I-0.2614 J-0.0668
G1 X59.417 Y15.9624
G0 Z3.0
G0 X61.6425 Y18.2957
G0 Z0.75
G1 F100.0 Z-0.5
G1 F150.0 X61.943 Y18.4404
G1 X62.2639 Y18.5618
G1 X62.5955 Y18.6592
G1 X62.6989 Y18.6821
G1 X62.6939 Y18.6653
G1 X62.6681 Y18.5852
G1 X62.6332 Y18.5502
G1 X62.5214 Y18.5149
G1 X62.3259 Y18.4805
G3 X62.2881 Y18.4709 I0.0468 J-0.2659
G1 X62.1092 Y18.4118
G1 X61.9298 Y18.3693
G3 X61.9123 Y18.3645 I0.0622 J-0.2627
G1 X61.7338 Y18.3093
G1 X61.6425 Y18.2957
G0 Z3.0
G0 X63.2576 Y15.3357
G0 Z0.75
G1 F100.0 Z-0.5
G1 F150.0 X63.3724 Y15.3712
G1 X63.4807 Y15.3833
G1 X63.5934 Y15.3762
G1 X63.7334 Y15.3427
G1 X63.9254 Y15.2915
G3 X63.9476 Y15.2862 I0.1006 J0.3768
G1 X64.0526 Y15.2647
G1 X64.0094 Y15.2166
G1 X63.9591 Y15.1629
G1 X63.9346 Y15.1569
G1 X63.8153 Y15.178
G1 X63.613 Y15.2452
G3 X63.5822 Y15.254 I-0.1229 J-0.3701
G1 X63.3652 Y15.3067
G1 X63.2576 Y15.3357
G1 F100.0 X63.2222 Y15.4503
G1 F150.0 X63.3478 Y15.4891
G1 X63.4777 Y15.5037
G1 X63.6112 Y15.4954
G1 X63.7629 Y15.4591
G1 X63.9564 Y15.4074
G3 X63.9717 Y15.4038 I0.0696 J0.2609
G1 X64.1642 Y15.3642
G1 X64.2597 Y15.3331
G1 X64.2173 Y15.2684
G1 X64.0978 Y15.1355
G1 X64.0223 Y15.0548
G1 X63.9385 Y15.0343
G1 X63.7858 Y15.0613
G1 X63.5752 Y15.1313
G3 X63.5539 Y15.1374 I-0.0851 J-0.2562
G1 X63.3355 Y15.1905
G1 X63.1956 Y15.2281
G1 X63.0993 Y15.2573
G1 X63.099 Y15.2698
G3 X63.0296 Y15.4425 I-0.2699 J-0.0081
G1 X63.0718 Y15.435
G3 X63.1985 Y15.443 I0.0469 J0.2659
G1 X63.2222 Y15.4503
G1 F100.0 X63.1867 Y15.5649
G1 F150.0 X63.3231 Y15.6071
G1 X63.4748 Y15.6241
G1 X63.6291 Y15.6145
G1 X63.7923 Y15.5754
G1 X63.9873 Y15.5233
G3 X63.9959 Y15.5213 I0.0387 J0.1449
G1 X64.195 Y15.4804
G1 X64.3605 Y15.4264
G1 X64.4163 Y15.3872
G1 X64.4006 Y15.3292
G1 X64.3126 Y15.195
G1 X64.1863 Y15.0543
G1 X64.0855 Y14.9468
G1 X63.9425 Y14.9118
G1 X63.7563 Y14.9447
G1 X63.5374 Y15.0174
G3 X63.5255 Y15.0208 I-0.0473 J-0.1424
G1 X63.3057 Y15.0742
G1 X63.1626 Y15.1127
G1 X63.0222 Y15.1553
G1 X62.9814 Y15.1858
G1 X62.979 Y15.2661
G3 X62.8689 Y15.4063 I-0.1499 J-0.0045
G1 X62.2011 Y15.5899
G3 X62.2002 Y15.5902 I-0.0398 J-0.1446
G1 X61.5223 Y15.7719
G3 X61.5213 Y15.7721 I-0.0388 J-0.1449
G1 X60.8392 Y15.9497
G1 X60.165 Y16.1256
G1 X59.9967 Y16.1809
G3 X59.8343 Y16.1339 I-0.0469 J-0.1425
G1 X59.7903 Y16.0807
G3 X59.7627 Y15.9407 I0.1156 J-0.0956
G1 X59.8001 Y15.8203
G3 X59.809 Y15.7979 I0.1433 J0.0445
G1 X59.8805 Y15.6543
G1 X60.0105 Y15.3652
G1 X60.0907 Y15.0663
G1 X60.1467 Y14.7481
G1 X60.2039 Y14.4232
G3 X60.21 Y14.3998 I0.1477 J0.026
G1 X60.515 Y13.5258
G3 X60.5164 Y13.5221 I0.1416 J0.0494
G1 X60.8453 Y12.6543
G3 X60.8459 Y12.6528 I0.1403 J0.0532
G1 X61.1849 Y11.7882
G1 X61.5199 Y10.9255
G1 X61.5584 Y10.8185
G3 X61.6622 Y10.724 I0.1411 J0.0508
G1 X61.7359 Y10.7051
G3 X61.8247 Y10.7095 I0.0373 J0.1453
G1 X61.8839 Y10.7311
G1 X61.9511 Y10.5571
G3 X61.9527 Y10.5533 I0.1399 J0.0541
G1 X62.0889 Y10.2283
G1 X62.2145 Y9.9067
G1 X62.2828 Y9.6814
G1 X62.1502 Y9.5886
G1 X61.914 Y9.4575
G1 X61.667 Y9.3283
G3 X61.6638 Y9.3265 I0.0695 J-0.1329
G1 X61.5698 Y9.2743
G1 X61.5528 Y9.3181
G1 Y9.3182
G1 X61.4736 Y9.5218
G1 X61.3945 Y9.7257
G1 X61.3159 Y9.9281
G1 X61.2511 Y10.1066
G1 X61.2081 Y10.2825
G1 X61.2206 Y10.3909
G1 X61.3282 Y10.488
G3 X61.3682 Y10.652 I-0.1005 J0.1114
G1 X61.1 Y11.3688
G1 X60.8328 Y12.0894
G1 X60.5652 Y12.8111
G3 X60.5649 Y12.8119 I-0.1406 J-0.0521
G1 X60.2935 Y13.5309
G3 X60.0103 Y13.5235 I-0.1403 J-0.053
G1 X59.8217 Y12.9326
G1 X59.5836 Y12.3656
G1 X59.3053 Y11.8124
G1 X58.9974 Y11.2681
G3 X58.9894 Y11.2517 I0.1306 J-0.0739
G1 X58.4485 Y9.9476
G3 X58.448 Y9.9464 I0.1386 J-0.0575
G1 X57.9176 Y8.6358
G3 X57.9175 Y8.6356 I0.139 J-0.0563
G1 X57.3893 Y7.3251
G1 X56.8566 Y6.024
G1 X56.824 Y5.9535
G3 X56.8298 Y5.8162 I0.1361 J-0.063
G1 X56.8601 Y5.7631
G3 X56.884 Y5.7316 I0.1303 J0.0743
G1 X56.9212 Y5.6942
G1 X56.9226 Y5.6917
G1 X56.8947 Y5.4873
G1 X56.8064 Y5.2447
G1 X56.6924 Y4.99
G3 X56.6892 Y4.9823 I0.1369 J-0.0613
G1 X56.5913 Y4.726
G1 X56.5037 Y4.5272
G3 X56.5011 Y4.5211 I0.1373 J-0.0605
G1 X56.4209 Y4.3146
G1 X56.3332 Y4.1946
G1 X56.1935 Y4.1536
G1 X56.0502 Y4.1577
G1 X55.8855 Y4.1626
G1 X55.775 Y4.189
G1 X55.7546 Y4.2081
G1 X55.836 Y4.4954
G1 X55.9734 Y4.8598
G1 X56.1306 Y5.2225
G1 X56.296 Y5.5771
G1 X56.3346 Y5.645
G1 X56.3938 Y5.6832
G1 X56.4896 Y5.7338
G3 X56.5258 Y5.7606 I-0.0701 J0.1326
G1 X56.6047 Y5.8398
G3 X56.6371 Y5.8886 I-0.1063 J0.1059
G1 X57.0481 Y6.8865
G1 X57.461 Y7.8866
G3 X57.4611 Y7.8868 I-0.1386 J0.0572
G1 X57.8726 Y8.8876
G3 X57.8728 Y8.8882 I-0.1387 J0.057
G1 X58.2798 Y9.8889
G3 X58.0312 Y10.0478 I-0.1389 J0.0565
G1 X57.5412 Y9.523
G1 X57.0182 Y9.034
G1 X56.4698 Y8.5679
G1 X55.9063 Y8.1171
G3 X55.8974 Y8.1094 I0.0937 J-0.1171
G1 X54.7587 Y7.0408
G3 X54.7574 Y7.0395 I0.1026 J-0.1094
G1 X53.6297 Y5.9545
G3 X53.6293 Y5.9542 I0.104 J-0.1081
G1 X52.5051 Y4.8656
G1 X51.3761 Y3.7857
G3 X51.3692 Y3.7786 I0.1037 J-0.1084
G1 X51.2749 Y3.6758
G1 X51.1573 Y3.5773
G3 X51.1416 Y3.5621 I0.0963 J-0.115
G1 X51.0399 Y3.4479
G3 X51.0053 Y3.3796 I0.112 J-0.0998
G1 X50.9791 Y3.2575
G1 X50.9058 Y3.0892
G1 X50.7731 Y2.9424
G1 X50.6014 Y2.7905
G3 X50.5925 Y2.7819 I0.0994 J-0.1123
G1 X50.4381 Y2.6207
G1 X50.2416 Y2.4392
G3 X50.2341 Y2.4318 I0.1018 J-0.1102
G1 X50.0469 Y2.2326
G1 X49.8615 Y2.0691
G1 X49.7072 Y1.9939
G1 X49.6642 Y2.0166
G1 X49.5892 Y2.1006
G1 X49.5337 Y2.2111
G1 X49.5171 Y2.2901
G1 X49.6215 Y2.4859
G1 X49.8075 Y2.6872
G1 X50.0304 Y2.8869
G3 X50.0363 Y2.8926 I-0.1001 J0.1117
G1 X50.2453 Y3.1016
G1 X50.403 Y3.2428
G3 X50.406 Y3.2456 I-0.1001 J0.1117
G1 X50.5629 Y3.3939
G1 X50.7072 Y3.4902
G1 X50.8808 Y3.5211
G3 X50.9566 Y3.5588 I-0.0263 J0.1477
G1 X51.853 Y4.3905
G3 X51.855 Y4.3925 I-0.102 J0.11
G1 X52.7366 Y5.2417
G3 X52.737 Y5.2421 I-0.1041 J0.108
G1 X53.6144 Y6.0944
G1 X54.5003 Y6.9357
G3 X54.3372 Y7.182 I-0.1033 J0.1088
G1 X53.6835 Y6.8976
G1 X53.005 Y6.646
G1 X52.3088 Y6.4489
G1 X51.6016 Y6.3286
G1 X51.0043 Y6.2852
G1 X50.4165 Y6.3456
G1 X49.8404 Y6.4953
G1 X49.2792 Y6.726
G3 X49.2578 Y6.7329 I-0.057 J-0.1387
G1 X48.566 Y6.9022
G3 X48.5603 Y6.9034 I-0.0356 J-0.1457
G1 X47.8601 Y7.0459
G3 X47.8586 Y7.0462 I-0.0299 J-0.147
G1 X47.1585 Y7.1813
G1 X46.4635 Y7.3275
G3 X46.4546 Y7.3291 I-0.0309 J-0.1468
G1 X46.3045 Y7.3514
G1 X46.1455 Y7.3877
G3 X46.1123 Y7.3915 I-0.0334 J-0.1462
G1 X45.9581 Y7.3916
G3 X45.8717 Y7.3644 I-0.0002 J-0.15
G1 X45.7763 Y7.2973
G1 X45.6223 Y7.2772
G1 X45.4413 Y7.2999
G1 X45.256 Y7.3591
G1 X45.1318 Y7.4167
G1 X45.1236 Y7.4426
G1 X45.155 Y7.5165
G1 X45.2501 Y7.6386
G3 X45.2544 Y7.6444 I-0.1184 J0.0921
G1 X45.3401 Y7.7661
G1 X45.3984 Y7.8358
G1 X45.4542 Y7.856
G1 X45.5483
G1 X45.6692 Y7.8348
G1 X45.8301 Y7.8064
G1 X45.9896 Y7.7781
G1 X46.0533 Y7.7445
G1 X46.0779 Y7.6524
G3 X46.1884 Y7.5452 I0.1449 J0.0388
G1 X46.7736 Y7.4072
G3 X46.7799 Y7.4059 I0.0344 J0.146
G1 X47.3748 Y7.2922
G3 X47.3769 Y7.2919 I0.0281 J0.1473
G1 X47.9737 Y7.1866
G1 X48.566 Y7.0696
G3 X48.7264 Y7.2892 I0.0291 J0.1472
G1 X48.565 Y7.5815
G1 X48.4406 Y7.8801
G1 X48.3584 Y8.1871
G1 X48.3253 Y8.5139
G3 X48.3195 Y8.5429 I-0.1492 J-0.0151
G1 X48.1164 Y9.2038
G3 X48.1134 Y9.2126 I-0.1434 J-0.0441
G1 X47.8691 Y9.8621
G3 X47.868 Y9.8649 I-0.1404 J-0.0528
G1 X47.6104 Y10.5093
G1 X47.3661 Y11.1573
G3 X47.2127 Y11.2538 I-0.1404 J-0.0529
G1 X47.1388 Y11.2473
G1 X47.1108 Y11.2707
G1 X47.0615 Y11.3651
G1 X47.0233 Y11.4702
G1 X46.9928 Y11.6628
G1 X47.0875 Y11.8107
G1 X47.2906 Y11.976
G1 X47.3503 Y12.0224
G1 X47.3668 Y11.9871
G3 X47.3683 Y11.9839 I0.1359 J0.0635
G1 X47.4676 Y11.7836
G1 X47.5134 Y11.6124
G1 X47.4761 Y11.425
G3 X47.4794 Y11.353 I0.1471 J-0.0293
G1 X47.6121 Y10.9068
G3 X47.6163 Y10.8946 I0.1438 J0.0427
G1 X47.7881 Y10.4579
G3 X47.7892 Y10.4553 I0.1396 J0.0549
G1 X47.9685 Y10.0233
G1 X48.1278 Y9.5858
G3 X48.4137 Y9.5984 I0.1409 J0.0513
G1 X48.4708 Y9.8119
G1 X48.5272 Y10.0228
G1 X48.5903 Y10.2274
G1 X48.6625 Y10.4265
G1 X49.0071 Y11.2267
G3 X49.0094 Y11.2325 I-0.1378 J0.0593
G1 X49.3222 Y12.0521
G3 X49.3235 Y12.0556 I-0.1401 J0.0535
G1 X49.6161 Y12.8834
G3 X49.6166 Y12.8848 I-0.1414 J0.05
G1 X49.9013 Y13.7152
G3 X49.9024 Y13.7185 I-0.1419 J0.0487
G1 X49.9825 Y13.971
G1 X50.0799 Y14.2235
G3 X50.0834 Y14.2338 I-0.1399 J0.054
G1 X50.1624 Y14.4931
G3 X50.1683 Y14.5239 I-0.1435 J0.0437
G1 X50.1909 Y14.7852
G1 X50.2158 Y15.0011
G1 X50.2713 Y15.2082
G1 X50.3552 Y15.3986
G1 X50.4631 Y15.5458
G1 X50.5615 Y15.6026
G1 X50.6891 Y15.6626
G1 X50.7439 Y15.6702
G1 X50.7243 Y15.5409
G1 X50.6569 Y15.3282
G1 X50.5608 Y15.1224
G1 X50.4378 Y14.925
G3 X50.4281 Y14.9068 I0.1273 J-0.0793
G1 X50.1939 Y14.3818
G3 X50.1893 Y14.3704 I0.137 J-0.0611
G1 X49.9962 Y13.8198
G3 X49.9949 Y13.8157 I0.1416 J-0.0496
G1 X49.8171 Y13.2578
G1 X49.6287 Y12.708
G3 X49.8878 Y12.5658 I0.1419 J-0.0486
G1 X50.0048 Y12.7124
G1 X50.1207 Y12.8576
G1 X50.239 Y12.999
G1 X50.3612 Y13.1378
G1 X51.0525 Y13.8963
G3 X51.0552 Y13.8993 I-0.1109 J0.101
G1 X51.7277 Y14.6779
G3 X51.7291 Y14.6795 I-0.1135 J0.0981
G1 X52.3915 Y15.4684
G1 X53.0536 Y16.2573
G3 X53.0548 Y16.2588 I-0.1149 J0.0964
G1 X53.2923 Y16.549
G1 X53.5419 Y16.8327
G3 X53.5461 Y16.8377 I-0.1126 J0.0991
G1 X53.7829 Y17.1314
G3 X53.7936 Y17.1464 I-0.1168 J0.0941
G1 X53.9901 Y17.4629
G3 X53.9914 Y17.4651 I-0.1274 J0.0791
G1 X54.1366 Y17.7081
G1 X54.3053 Y17.9288
G1 X54.4972 Y18.1337
G1 X54.6665 Y18.2866
G3 X54.6774 Y18.2902 I-0.0404 J0.1445
G1 X54.7942 Y18.3327
G1 X54.9127 Y18.3375
G1 X54.9257 Y18.332
G1 X54.7848 Y18.1374
G1 X54.6075 Y17.908
G1 X54.4179 Y17.7047
G1 X54.1974 Y17.5318
G3 X54.1788 Y17.5145 I0.0926 J-0.118
G1 X53.6887 Y16.9737
G3 X53.6855 Y16.9701 I0.1111 J-0.1007
G1 X53.212 Y16.413
G3 X53.2105 Y16.4112 I0.1143 J-0.0971
G1 X52.7458 Y15.8467
G1 X52.2762 Y15.2873
G3 X52.4737 Y15.0657 I0.1149 J-0.0964
G1 X53.3083 Y15.6162
G1 X54.1791 Y16.0969
G1 X55.0873 Y16.495
G1 X56.0315 Y16.7967
G1 X57.1651 Y17.0515
G3 X57.1723 Y17.0533 I-0.0329 J0.1463
G1 X58.3003 Y17.3663
G3 X58.3034 Y17.3672 I-0.0401 J0.1445
G1 X59.4256 Y17.7051
G1 X60.5494 Y18.0348
G3 X60.554 Y18.0362 I-0.0422 J0.1439
G1 X60.8007 Y18.1173
G1 X61.0599 Y18.1776
G3 X61.0687 Y18.1799 I-0.034 J0.1461
G1 X61.3259 Y18.2566
G3 X61.3582 Y18.2705 I-0.0428 J0.1438
G1 X61.58 Y18.3988
G1 X61.8957 Y18.5507
G1 X62.2257 Y18.6756
G1 X62.5655 Y18.7755
G1 X62.845 Y18.8373
G1 X62.8499 Y18.8336
G1 X62.8518 Y18.7758
G1 X62.8086 Y18.6299
G1 X62.7735 Y18.5209
G1 X62.6974 Y18.4446
G1 X62.5501 Y18.3981
G1 X62.3467 Y18.3623
G3 X62.3257 Y18.357 I0.026 J-0.1477
G1 X62.1419 Y18.2963
G1 X61.9575 Y18.2526
G3 X61.9477 Y18.2499 I0.0346 J-0.146
G1 X61.7605 Y18.192
G1 X61.6032 Y18.1686
G1 X61.4452 Y18.2056
G3 X61.3708 Y18.2041 I-0.0342 J-0.146
G1 X60.5238 Y17.9684
G3 X60.5226 Y17.9681 I0.0402 J-0.1445
G1 X59.6759 Y17.7246
G3 X59.6753 Y17.7244 I0.0414 J-0.1442
G1 X58.829 Y17.477
G3 X58.8289 Y17.4769 I0.0421 J-0.144
G1 X57.9838 Y17.2286
G3 X57.9998 Y16.937 I0.0423 J-0.1439
G1 X58.1559 Y16.9092
G1 X58.3076 Y16.8754
G1 X58.4583 Y16.8347
G1 X58.6043 Y16.7896
G1 X59.2006 Y16.5442
G3 X59.2129 Y16.5398 I0.0571 J0.1387
G1 X59.832 Y16.3462
G3 X59.8393 Y16.3442 I0.0448 J0.1432
G1 X60.4697 Y16.1815
G3 X60.4712 Y16.1811 I0.0375 J0.1452
G1 X61.1069 Y16.024
G3 X61.1071 Y16.0239 I0.036 J0.1456
G1 X61.5991 Y15.903
G1 X62.0886 Y15.767
G3 X62.0925 Y15.766 I0.0402 J0.1445
G1 X62.5857 Y15.6429
G3 X62.596 Y15.6407 I0.0363 J0.1455
G1 X63.0926 Y15.5532
G3 X63.163 Y15.5576 I0.026 J0.1477
G1 X63.1867 Y15.5649
G0 Z3.0
G0 X47.2896 Y17.4064
G0 Z1.25
G1 F100.0 Z0.0
G1 F150.0 X47.2776 Y17.3489
G3 X47.1776 Y17.4064 I-0.2423 J-0.3056
G1 X47.2896
G1 F100.0 Y17.5264
G1 F150.0 X47.4372
G1 X46.392 Y12.5186
G1 X46.2151
G1 X46.7224 Y14.8827
G1 X47.2956 Y16.9719
G3 X46.8129 Y17.1965 I-0.2604 J0.0714
G1 X46.9997 Y17.5264
G1 X47.2896
G0 Z3.0
G0 X46.787 Y17.1507
G0 Z1.25
G1 F100.0 Z0.0
G1 F150.0 X46.207 Y16.0056
G1 X44.6111 Y13.2026
G1 X45.135 Y14.2324
G1 X46.787 Y17.1507
G0 Z3.0
G0 X43.1006 Y17.321
G0 Z1.25
G1 F100.0 Z0.0
G3 F150.0 X42.8001 Y17.2813 I-0.1032 J-0.3761
G1 X42.8262 Y17.4064
G1 X43.0873
G1 X43.1006 Y17.321
G1 F100.0 X43.0688 Y17.2053
G3 F150.0 X42.7308 Y16.9876 I-0.0714 J-0.2604
G1 X42.5464 Y15.8359
G1 X41.8545 Y12.5186
G1 X41.6834
G1 X42.7287 Y17.5264
G1 X43.19
G1 X43.7135 Y14.1663
G1 X43.8566 Y12.8143
G3 X44.2805 Y12.6219 I0.2685 J0.0284
G1 X44.2217 Y12.5186
G1 X43.8945
G1 X43.3751 Y15.8397
G1 X43.2661 Y16.9708
G3 X43.0688 Y17.2053 I-0.2688 J-0.0259
G1 F100.0 X43.0371 Y17.0896
G3 F150.0 X42.8493 Y16.9686 I-0.0397 J-0.1447
G1 X42.6644 Y15.8141
G1 X41.9521 Y12.3986
G1 X41.5358
G1 X42.6311 Y17.6464
G1 X43.2928
G1 X43.8325 Y14.1818
G1 X43.9759 Y12.8269
G3 X44.2588 Y12.7747 I0.1492 J0.0158
G1 X45.0293 Y14.2892
G1 X46.9297 Y17.6464
G1 X47.5849
G1 X46.4895 Y12.3986
G1 X46.0666
G1 X46.6058 Y14.9112
G1 X47.1799 Y17.0036
G3 X46.9014 Y17.1111 I-0.1447 J0.0397
G1 X46.3127 Y15.9488
G1 X44.2915 Y12.3986
G1 X43.7918
G1 X43.256 Y15.8246
G1 X43.1467 Y16.9593
G3 X43.0371 Y17.0896 I-0.1493 J-0.0144
G0 Z3.0
G0 X43.1006 Y17.321
G0 Z1.0
G1 F100.0 Z-0.25
G3 F150.0 X42.8001 Y17.2813 I-0.1032 J-0.3761
G1 X42.8262 Y17.4064
G1 X43.0873
G1 X43.1006 Y17.321
G1 F100.0 X43.0688 Y17.2053
G3 F150.0 X42.7308 Y16.9876 I-0.0714 J-0.2604
G1 X42.5464 Y15.8359
G1 X41.8545 Y12.5186
G1 X41.6834
G1 X42.7287 Y17.5264
G1 X43.19
G1 X43.7135 Y14.1663
G1 X43.8566 Y12.8143
G3 X44.2805 Y12.6219 I0.2685 J0.0284
G1 X44.2217 Y12.5186
G1 X43.8945
G1 X43.3751 Y15.8397
G1 X43.2661 Y16.9708
G3 X43.0688 Y17.2053 I-0.2688 J-0.0259
G0 Z3.0
G0 X45.9081 Y15.5981
G0 Z1.0
G1 F100.0 Z-0.25
G1 F150.0 X46.787 Y17.1507
G1 X46.207 Y16.0056
G1 X44.6111 Y13.2026
G1 X45.135 Y14.2324
G1 X45.9081 Y15.5981
G0 Z3.0
G0 X47.1776 Y17.4064
G0 Z1.0
G1 F100.0 Z-0.25
G1 F150.0 X47.2896
G1 X47.2776 Y17.3489
G3 X47.1776 Y17.4064 I-0.2423 J-0.3056
G1 F100.0 Y17.5264
G1 F150.0 X47.4372
G1 X46.392 Y12.5186
G1 X46.2151
G1 X46.7224 Y14.8827
G1 X47.2956 Y16.9719
G3 X46.8129 Y17.1965 I-0.2604 J0.0714
G1 X46.9997 Y17.5264
G1 X47.1776
G1 F100.0 Y17.6464
G1 F150.0 X47.5849
G1 X46.4895 Y12.3986
G1 X46.0666
G1 X46.6058 Y14.9112
G1 X47.1799 Y17.0036
G3 X46.9014 Y17.1111 I-0.1447 J0.0397
G1 X46.3127 Y15.9488
G1 X44.2915 Y12.3986
G1 X43.7918
G1 X43.256 Y15.8246
G1 X43.1467 Y16.9593
G3 X42.8493 Y16.9686 I-0.1493 J-0.0144
G1 X42.6644 Y15.8141
G1 X41.9521 Y12.3986
G1 X41.5358
G1 X42.6311 Y17.6464
G1 X43.2928
G1 X43.8325 Y14.1818
G1 X43.9759 Y12.8269
G3 X44.2588 Y12.7747 I0.1492 J0.0158
G1 X45.0293 Y14.2892
G1 X46.9297 Y17.6464
G1 X47.1776
G0 Z3.0
G0 Y17.4064
G0 Z0.75
G1 F100.0 Z-0.5
G1 F150.0 X47.2896
G1 X47.2776 Y17.3489
G3 X47.1776 Y17.4064 I-0.2423 J-0.3056
G1 F100.0 Y17.5264
G1 F150.0 X47.4372
G1 X46.392 Y12.5186
G1 X46.2151
G1 X46.7224 Y14.8827
G1 X47.2956 Y16.9719
G3 X46.8129 Y17.1965 I-0.2604 J0.0714
G1 X46.9997 Y17.5264
G1 X47.1776
G0 Z3.0
G0 X46.787 Y17.1507
G0 Z0.75
G1 F100.0 Z-0.5
G1 F150.0 X46.207 Y16.0056
G1 X44.6111 Y13.2026
G1 X45.135 Y14.2324
G1 X46.787 Y17.1507
G0 Z3.0
G0 X43.1006 Y17.321
G0 Z0.75
G1 F100.0 Z-0.5
G3 F150.0 X42.8001 Y17.2813 I-0.1032 J-0.3761
G1 X42.8262 Y17.4064
G1 X43.0873
G1 X43.1006 Y17.321
G1 F100.0 X43.0688 Y17.2053
G3 F150.0 X42.7308 Y16.9876 I-0.0714 J-0.2604
G1 X42.5464 Y15.8359
G1 X41.8545 Y12.5186
G1 X41.6834
G1 X42.7287 Y17.5264
G1 X43.19
G1 X43.7135 Y14.1663
G1 X43.8566 Y12.8143
G3 X44.2805 Y12.6219 I0.2685 J0.0284
G1 X44.2217 Y12.5186
G1 X43.8945
G1 X43.3751 Y15.8397
G1 X43.2661 Y16.9708
G3 X43.0688 Y17.2053 I-0.2688 J-0.0259
G1 F100.0 X43.0371 Y17.0896
G3 F150.0 X42.8493 Y16.9686 I-0.0397 J-0.1447
G1 X42.6644 Y15.8141
G1 X41.9521 Y12.3986
G1 X41.5358
G1 X42.6311 Y17.6464
G1 X43.2928
G1 X43.8325 Y14.1818
G1 X43.9759 Y12.8269
G3 X44.2588 Y12.7747 I0.1492 J0.0158
G1 X45.0293 Y14.2892
G1 X46.9297 Y17.6464
G1 X47.5849
G1 X46.4895 Y12.3986
G1 X46.0666
G1 X46.6058 Y14.9112
G1 X47.1799 Y17.0036
G3 X46.9014 Y17.1111 I-0.1447 J0.0397
G1 X46.3127 Y15.9488
G1 X44.2915 Y12.3986
G1 X43.7918
G1 X43.256 Y15.8246
G1 X43.1467 Y16.9593
G3 X43.0371 Y17.0896 I-0.1493 J-0.0144
G0 Z3.0
G0 X39.8874 Y14.2511
G0 Z1.25
G1 F100.0 Z0.0
G1 F150.0 X39.9104 Y14.112
G3 X39.8382 Y14.1725 I-0.2848 J-0.2664
G3 X39.8874 Y14.2511 I-0.3035 J0.2445
G0 Z3.0
G0 X37.3549 Y14.2347
G0 Z1.25
G1 F100.0 Z0.0
G3 F150.0 X37.2375 Y14.208 I0.0266 J-0.3891
G1 X37.316 Y14.3465
G3 X37.3549 Y14.2347 I0.3833 J0.0705
G1 F100.0 X37.4609 Y14.2908
G3 F150.0 X37.6993 Y14.1472 I0.2384 J0.1262
G1 X39.5347
G3 X39.8013 Y14.4583 I0.0 J0.2698
G1 X39.5865 Y15.8453
G1 X39.4319 Y17.221
G3 X38.9215 Y17.3093 I-0.2681 J-0.0301
G1 X38.3721 Y16.1841
G1 X37.4635 Y14.548
G3 X37.4609 Y14.2908 I0.2358 J-0.131
G1 F100.0 X37.5668 Y14.3468
G3 F150.0 X37.6993 Y14.267 I0.1326 J0.0702
G1 X39.5347
G3 X39.683 Y14.44 I0.0 J0.15
G1 X39.4677 Y15.8295
G1 X39.3129 Y17.2077
G3 X39.0291 Y17.2567 I-0.1491 J-0.0167
G1 X38.4783 Y16.1287
G1 X37.5682 Y14.4898
G3 X37.5668 Y14.3468 I0.1311 J-0.0728
G0 Z3.0
G0 Y14.1156
G0 Z1.25
G1 F100.0 Z0.0
G1 F150.0 X37.3815
G3 X37.1456 Y13.9769 I0.0 J-0.27
G1 X36.3335 Y12.5186
G1 X36.1419
G1 X38.9806 Y17.5264
G1 X39.4684
G1 X40.295 Y12.5186
G1 X40.1226
G1 X39.8918 Y13.8904
G3 X39.6256 Y14.1156 I-0.2663 J-0.0448
G1 X37.5668
G1 F100.0 Y13.9956
G1 F150.0 X37.3815
G3 X37.2504 Y13.9185 I0.0 J-0.15
G1 X36.404 Y12.3986
G1 X35.936
G1 X38.9107 Y17.6464
G1 X39.5702
G1 X40.4365 Y12.3986
G1 X40.0211
G1 X39.7735 Y13.8705
G3 X39.6256 Y13.9956 I-0.1479 J-0.0249
G1 X37.5668
G0 Z3.0
G0 X37.3549 Y14.2347
G0 Z1.0
G1 F100.0 Z-0.25
G3 F150.0 X37.2375 Y14.208 I0.0266 J-0.3891
G1 X37.316 Y14.3465
G3 X37.3549 Y14.2347 I0.3833 J0.0705
G0 Z3.0
G0 X39.8382 Y14.1725
G0 Z1.0
G1 F100.0 Z-0.25
G3 F150.0 X39.8874 Y14.2511 I-0.3035 J0.2445
G1 X39.9104 Y14.112
G3 X39.8382 Y14.1725 I-0.2848 J-0.2664
G1 F100.0 X39.7448 Y14.2478
G3 F150.0 X39.8013 Y14.4583 I-0.2101 J0.1692
G1 X39.5865 Y15.8453
G1 X39.4319 Y17.221
G3 X38.9215 Y17.3093 I-0.2681 J-0.0301
G1 X38.3721 Y16.1841
G1 X37.4635 Y14.548
G3 X37.6993 Y14.1472 I0.2358 J-0.131
G1 X39.5347
G3 X39.7448 Y14.2478 I0.0 J0.2698
G1 F100.0 X39.6515 Y14.3229
G3 F150.0 X39.683 Y14.44 I-0.1168 J0.0941
G1 X39.4677 Y15.8295
G1 X39.3129 Y17.2077
G3 X39.0291 Y17.2567 I-0.1491 J-0.0167
G1 X38.4783 Y16.1287
G1 X37.5682 Y14.4898
G3 X37.6993 Y14.267 I0.1311 J-0.0728
G1 X39.5347
G3 X39.6515 Y14.3229 I0.0 J0.15
G1 F100.0 X39.6402 Y14.1152
G3 F150.0 X39.6256 Y14.1156 I-0.0147 J-0.2696
G1 X37.3815
G3 X37.1456 Y13.9769 I0.0 J-0.27
G1 X36.3335 Y12.5186
G1 X36.1419
G1 X38.9806 Y17.5264
G1 X39.4684
G1 X40.295 Y12.5186
G1 X40.1226
G1 X39.8918 Y13.8904
G3 X39.6402 Y14.1152 I-0.2663 J-0.0448
G1 F100.0 X39.6337 Y13.9953
G3 F150.0 X39.6256 Y13.9956 I-0.0082 J-0.1498
G1 X37.3815
G3 X37.2504 Y13.9185 I0.0 J-0.15
G1 X36.404 Y12.3986
G1 X35.936
G1 X38.9107 Y17.6464
G1 X39.5702
G1 X40.4365 Y12.3986
G1 X40.0211
G1 X39.7735 Y13.8705
G3 X39.6337 Y13.9953 I-0.1479 J-0.0249
G0 Z3.0
G0 X39.8382 Y14.1725
G0 Z0.75
G1 F100.0 Z-0.5
G3 F150.0 X39.8874 Y14.2511 I-0.3035 J0.2445
G1 X39.9104 Y14.112
G3 X39.8382 Y14.1725 I-0.2848 J-0.2664
G0 Z3.0
G0 X37.3549 Y14.2347
G0 Z0.75
G1 F100.0 Z-0.5
G3 F150.0 X37.2375 Y14.208 I0.0266 J-0.3891
G1 X37.316 Y14.3465
G3 X37.3549 Y14.2347 I0.3833 J0.0705
G1 F100.0 X37.4609 Y14.2908
G3 F150.0 X37.6993 Y14.1472 I0.2384 J0.1262
G1 X39.5347
G3 X39.8013 Y14.4583 I0.0 J0.2698
G1 X39.5865 Y15.8453
G1 X39.4319 Y17.221
G3 X38.9215 Y17.3093 I-0.2681 J-0.0301
G1 X38.3721 Y16.1841
G1 X37.4635 Y14.548
G3 X37.4609 Y14.2908 I0.2358 J-0.131
G1 F100.0 X37.5668 Y14.3468
G3 F150.0 X37.6993 Y14.267 I0.1326 J0.0702
G1 X39.5347
G3 X39.683 Y14.44 I0.0 J0.15
G1 X39.4677 Y15.8295
G1 X39.3129 Y17.2077
G3 X39.0291 Y17.2567 I-0.1491 J-0.0167
G1 X38.4783 Y16.1287
G1 X37.5682 Y14.4898
G3 X37.5668 Y14.3468 I0.1311 J-0.0728
G0 Z3.0
G0 Y14.1156
G0 Z0.75
G1 F100.0 Z-0.5
G1 F150.0 X37.3815
G3 X37.1456 Y13.9769 I0.0 J-0.27
G1 X36.3335 Y12.5186
G1 X36.1419
G1 X38.9806 Y17.5264
G1 X39.4684
G1 X40.295 Y12.5186
G1 X40.1226
G1 X39.8918 Y13.8904
G3 X39.6256 Y14.1156 I-0.2663 J-0.0448
G1 X37.5668
G1 F100.0 Y13.9956
G1 F150.0 X37.3815
G3 X37.2504 Y13.9185 I0.0 J-0.15
G1 X36.404 Y12.3986
G1 X35.936
G1 X38.9107 Y17.6464
G1 X39.5702
G1 X40.4365 Y12.3986
G1 X40.0211
G1 X39.7735 Y13.8705
G3 X39.6256 Y13.9956 I-0.1479 J-0.0249
G1 X37.5668
G0 Z3.0
G0 X35.1666 Y13.832
G0 Z1.25
G1 F100.0 Z0.0
G1 F150.0 X35.1521 Y13.7982
G1 X34.9421 Y13.4453
G1 X34.8184 Y13.2942
G1 X34.8947 Y13.3954
G3 X34.9216 Y13.4373 I-0.2635 J0.1987
G1 X35.0751 Y13.7216
G3 X35.0935 Y13.7619 I-0.2904 J0.1568
G1 X35.1222 Y13.8381
G1 X35.1666 Y13.832
G0 Z3.0
G0 X35.4541 Y16.4369
G0 Z1.25
G1 F100.0 Z0.0
G1 F150.0 X35.4527 Y16.4426
G3 X35.4382 Y16.4874 I-0.3204 J-0.0789
G1 X35.3397 Y16.7311
G3 X35.3142 Y16.7814 I-0.306 J-0.1237
G1 X35.1866 Y16.9871
G3 X35.1472 Y17.0385 I-0.2804 J-0.174
G1 X34.9952 Y17.2011
G1 X35.0439 Y17.1668
G1 X35.2433 Y16.9575
G1 X35.3978 Y16.7119
G1 X35.5089 Y16.442
G1 X35.4541 Y16.4369
G0 Z3.0
G0 X32.6293 Y17.2297
G0 Z1.25
G1 F100.0 Z0.0
G1 F150.0 X32.3635 Y17.0357
G3 X32.3073 Y16.9836 I0.1946 J-0.2665
G1 X31.9689 Y16.588
G3 X31.9347 Y16.5399 I0.2508 J-0.2145
G1 X31.6963 Y16.1319
G3 X31.6731 Y16.0835 I0.2849 J-0.1665
G1 X31.5028 Y15.6391
G3 X31.4881 Y15.5896 I0.3082 J-0.1181
G1 X31.386 Y15.1088
G3 X31.3795 Y15.0619 I0.3228 J-0.0686
G1 X31.3454 Y14.5446
G3 Y14.5014 I0.3293 J-0.0217
G1 X31.3717 Y14.0991
G3 X31.3789 Y14.0485 I0.3293 J0.0215
G1 X31.4577 Y13.6968
G3 X31.4772 Y13.637 I0.322 J0.0721
G1 X31.6085 Y13.3359
G3 X31.6449 Y13.2726 I0.3025 J0.1319
G1 X31.8287 Y13.0221
G3 X31.8778 Y12.9687 I0.2661 J0.1952
G1 X32.1037 Y12.7716
G3 X32.1624 Y12.7307 I0.2169 J0.2487
G1 X32.3922 Y12.6052
G1 X32.3458 Y12.6178
G1 X32.035 Y12.7777
G1 X31.7695 Y13.0001
G1 X31.5552 Y13.2827
G1 X31.3988 Y13.6279
G1 X31.3012 Y14.0455
G1 X31.2676 Y14.5366
G1 X31.3198 Y15.2005
G1 X31.4734 Y15.7935
G1 X31.7267 Y16.3222
G1 X32.0817 Y16.7929
G1 X32.4577 Y17.1309
G1 X32.6293 Y17.2297
G1 F100.0 X32.6647 Y17.1813
G1 F150.0 X32.3989 Y16.9872
G3 X32.3529 Y16.9446 I0.1592 J-0.2181
G1 X32.0145 Y16.549
G3 X31.9865 Y16.5097 I0.2052 J-0.1755
G1 X31.7481 Y16.1017
G3 X31.7291 Y16.062 I0.2331 J-0.1362
G1 X31.5588 Y15.6176
G3 X31.5468 Y15.5771 I0.2521 J-0.0966
G1 X31.4447 Y15.0963
G3 X31.4393 Y15.0579 I0.2641 J-0.0561
G1 X31.4053 Y14.5407
G3 Y14.5053 I0.2694 J-0.0177
G1 X31.4315 Y14.103
G3 X31.4375 Y14.0616 I0.2694 J0.0176
G1 X31.5162 Y13.7099
G3 X31.5322 Y13.661 I0.2635 J0.059
G1 X31.6635 Y13.3599
G3 X31.6933 Y13.3081 I0.2475 J0.1079
G1 X31.8771 Y13.0576
G3 X31.9173 Y13.0139 I0.2177 J0.1597
G1 X32.1432 Y12.8169
G3 X32.1912 Y12.7834 I0.1775 J0.2035
G1 X32.4487 Y12.6427
G3 X32.5025 Y12.6204 I0.1295 J0.2369
G1 X32.7918 Y12.536
G3 X32.8439 Y12.5262 I0.0757 J0.2592
G1 X33.1649 Y12.4981
G3 X33.211 Y12.498 I0.0235 J0.269
G1 X33.4918 Y12.5216
G3 X33.5379 Y12.5295 I-0.0226 J0.2691
G1 X33.8049 Y12.5997
G3 X33.8495 Y12.6158 I-0.0687 J0.2611
G1 X34.1028 Y12.7328
G3 X34.142 Y12.7551 I-0.1133 J0.2451
G1 X34.3816 Y12.919
G3 X34.4154 Y12.9464 I-0.1525 J0.2228
G1 X34.6323 Y13.1531
G3 X34.6616 Y13.186 I-0.1863 J0.1955
G1 X34.8468 Y13.4315
G3 X34.8688 Y13.4658 I-0.2156 J0.1626
G1 X35.0223 Y13.7501
G3 X35.0373 Y13.7831 I-0.2376 J0.1283
G1 X35.083 Y13.9042
G1 X35.2364 Y13.8828
G1 X35.2528 Y13.8805
G1 X35.2057 Y13.7708
G1 X34.9913 Y13.4108
G1 X34.7447 Y13.1095
G1 X34.4646 Y12.8632
G1 X34.1582 Y12.6711
G1 X33.8351 Y12.5344
G1 X33.4939 Y12.4524
G1 X33.1323 Y12.425
G1 X32.6991 Y12.4599
G1 X32.324 Y12.5615
G1 X32.0016 Y12.7275
G1 X31.7257 Y12.9584
G1 X31.5033 Y13.2518
G1 X31.3417 Y13.6085
G1 X31.2417 Y14.0366
G1 X31.2075 Y14.5369
G1 X31.2604 Y15.2104
G1 X31.4167 Y15.8142
G1 X31.6752 Y16.3535
G1 X32.0373 Y16.8336
G1 X32.4223 Y17.1797
G1 X32.8462 Y17.4239
G1 X33.3139 Y17.5705
G1 X33.8351 Y17.6203
G1 X34.2111 Y17.5937
G1 X34.5439 Y17.5156
G1 X34.8327 Y17.3887
G1 X35.0832 Y17.2125
G1 X35.2909 Y16.9945
G1 X35.4514 Y16.7395
G1 X35.5684 Y16.455
G1 X35.5797 Y16.3883
G1 X35.5229 Y16.383
G1 X35.4082 Y16.3723
G1 X35.3944 Y16.4283
G3 X35.3826 Y16.4649 I-0.2622 J-0.0646
G1 X35.2841 Y16.7086
G3 X35.2632 Y16.7498 I-0.2503 J-0.1012
G1 X35.1356 Y16.9555
G3 X35.1034 Y16.9975 I-0.2294 J-0.1423
G1 X34.9467 Y17.1651
G3 X34.9054 Y17.2011 I-0.1972 J-0.1844
G1 X34.7218 Y17.331
G3 X34.6756 Y17.3573 I-0.1559 J-0.2204
G1 X34.4671 Y17.4501
G3 X34.42 Y17.4661 I-0.1098 J-0.2467
G1 X34.1867 Y17.5218
G3 X34.1435 Y17.5285 I-0.0627 J-0.2626
G1 X33.8854 Y17.5472
G3 X33.8345 Y17.5461 I-0.0195 J-0.2693
G1 X33.3499 Y17.4895
G3 X33.2833 Y17.473 I0.0313 J-0.2682
G1 X32.8474 Y17.3034
G3 X32.7861 Y17.2699 I0.0979 J-0.2516
G1 X32.6647 Y17.1813
G1 F100.0 X32.7355 Y17.0844
G1 F150.0 X32.4697 Y16.8903
G3 X32.4441 Y16.8666 I0.0884 J-0.1212
G1 X32.1057 Y16.471
G3 X32.0901 Y16.4491 I0.114 J-0.0975
G1 X31.8517 Y16.0411
G3 X31.8412 Y16.0191 I0.1295 J-0.0757
G1 X31.6709 Y15.5747
G3 X31.6642 Y15.5522 I0.1401 J-0.0537
G1 X31.562 Y15.0714
G3 X31.5591 Y15.05 I0.1467 J-0.0312
G1 X31.525 Y14.5328
G3 Y14.5131 I0.1497 J-0.0099
G1 X31.5513 Y14.1108
G3 X31.5546 Y14.0878 I0.1497 J0.0098
G1 X31.6333 Y13.7361
G3 X31.6422 Y13.709 I0.1464 J0.0328
G1 X31.7735 Y13.4079
G3 X31.79 Y13.3791 I0.1375 J0.0599
G1 X31.9738 Y13.1286
G3 X31.9962 Y13.1043 I0.1209 J0.0887
G1 X32.222 Y12.9073
G3 X32.2487 Y12.8887 I0.0986 J0.113
G1 X32.5063 Y12.748
G3 X32.5362 Y12.7356 I0.0719 J0.1316
G1 X32.8254 Y12.6512
G3 X32.8544 Y12.6457 I0.042 J0.144
G1 X33.1753 Y12.6176
G3 X33.201 I0.0131 J0.1494
G1 X33.4817 Y12.6412
G3 X33.5073 Y12.6456 I-0.0126 J0.1495
G1 X33.7744 Y12.7158
G3 X33.7991 Y12.7247 I-0.0382 J0.1451
G1 X34.0525 Y12.8418
G3 X34.0742 Y12.8541 I-0.0629 J0.1362
G1 X34.3138 Y13.018
G3 X34.3326 Y13.0333 I-0.0847 J0.1238
G1 X34.5495 Y13.24
G3 X34.5658 Y13.2582 I-0.1035 J0.1086
G1 X34.751 Y13.5037
G3 X34.7632 Y13.5228 I-0.1198 J0.0903
G1 X34.9167 Y13.8071
G3 X34.9251 Y13.8254 I-0.132 J0.0713
G1 X35.0045 Y14.0362
G1 X35.0694 Y14.0272
G1 X35.2529 Y14.0017
G1 X35.4252 Y13.9777
G1 X35.3128 Y13.7162
G1 X35.0899 Y13.3417
G1 X34.8313 Y13.0259
G1 X34.5365 Y12.7667
G1 X34.2138 Y12.5643
G1 X33.8727 Y12.42
G1 X33.5125 Y12.3335
G1 X33.132 Y12.3046
G1 X32.6784 Y12.3411
G1 X32.2803 Y12.449
G1 X31.9348 Y12.6269
G1 X31.6383 Y12.8751
G1 X31.3996 Y13.19
G1 X31.2275 Y13.5697
G1 X31.1226 Y14.0187
G1 X31.0872 Y14.5375
G1 X31.1416 Y15.2303
G1 X31.3035 Y15.8556
G1 X31.5722 Y16.4162
G1 X31.9485 Y16.9151
G1 X32.3515 Y17.2774
G1 X32.7977 Y17.5345
G1 X33.29 Y17.6887
G1 X33.8336 Y17.7407
G1 X34.2291 Y17.7127
G1 X34.5821 Y17.6299
G1 X34.8919 Y17.4937
G1 X35.162 Y17.3038
G1 X35.3861 Y17.0686
G1 X35.5584 Y16.7946
G1 X35.6845 Y16.4882
G1 X35.7195 Y16.2809
G1 X35.534 Y16.2636
G1 X35.3609 Y16.2474
G1 X35.3164 Y16.2433
G1 X35.2779 Y16.3996
G3 X35.2713 Y16.4199 I-0.1456 J-0.0359
G1 X35.1728 Y16.6637
G3 X35.1612 Y16.6865 I-0.1391 J-0.0562
G1 X35.0336 Y16.8922
G3 X35.0157 Y16.9156 I-0.1275 J-0.0791
G1 X34.859 Y17.0831
G3 X34.8361 Y17.1031 I-0.1096 J-0.1025
G1 X34.6524 Y17.2331
G3 X34.6268 Y17.2477 I-0.0866 J-0.1224
G1 X34.4183 Y17.3405
G3 X34.3921 Y17.3494 I-0.061 J-0.137
G1 X34.1588 Y17.4051
G3 X34.1348 Y17.4088 I-0.0348 J-0.1459
G1 X33.8767 Y17.4275
G3 X33.8484 Y17.4269 I-0.0109 J-0.1496
G1 X33.3638 Y17.3704
G3 X33.3268 Y17.3612 I0.0174 J-0.149
G1 X32.8909 Y17.1916
G3 X32.8568 Y17.1729 I0.0544 J-0.1398
G1 X32.7355 Y17.0844
G1 F100.0 X32.6293 Y17.2297
G1 Z-0.25
G1 F150.0 X32.3635 Y17.0357
G3 X32.3073 Y16.9836 I0.1946 J-0.2665
G1 X31.9689 Y16.588
G3 X31.9347 Y16.5399 I0.2508 J-0.2145
G1 X31.6963 Y16.1319
G3 X31.6731 Y16.0835 I0.2849 J-0.1665
G1 X31.5028 Y15.6391
G3 X31.4881 Y15.5896 I0.3082 J-0.1181
G1 X31.386 Y15.1088
G3 X31.3795 Y15.0619 I0.3228 J-0.0686
G1 X31.3454 Y14.5446
G3 Y14.5014 I0.3293 J-0.0217
G1 X31.3717 Y14.0991
G3 X31.3789 Y14.0485 I0.3293 J0.0215
G1 X31.4577 Y13.6968
G3 X31.4772 Y13.637 I0.322 J0.0721
G1 X31.6085 Y13.3359
G3 X31.6449 Y13.2726 I0.3025 J0.1319
G1 X31.8287 Y13.0221
G3 X31.8778 Y12.9687 I0.2661 J0.1952
G1 X32.1037 Y12.7716
G3 X32.1624 Y12.7307 I0.2169 J0.2487
G1 X32.3922 Y12.6052
G1 X32.3458 Y12.6178
G1 X32.035 Y12.7777
G1 X31.7695 Y13.0001
G1 X31.5552 Y13.2827
G1 X31.3988 Y13.6279
G1 X31.3012 Y14.0455
G1 X31.2676 Y14.5366
G1 X31.3198 Y15.2005
G1 X31.4734 Y15.7935
G1 X31.7267 Y16.3222
G1 X32.0817 Y16.7929
G1 X32.4577 Y17.1309
G1 X32.6293 Y17.2297
G0 Z3.0
G0 X34.9952 Y17.2011
G0 Z1.0
G1 F100.0 Z-0.25
G1 F150.0 X35.0439 Y17.1668
G1 X35.2433 Y16.9575
G1 X35.3978 Y16.7119
G1 X35.5089 Y16.442
G1 X35.4541 Y16.4369
G1 X35.4527 Y16.4426
G3 X35.4382 Y16.4874 I-0.3204 J-0.0789
G1 X35.3397 Y16.7311
G3 X35.3142 Y16.7814 I-0.306 J-0.1237
G1 X35.1866 Y16.9871
G3 X35.1472 Y17.0385 I-0.2804 J-0.174
G1 X34.9952 Y17.2011
G0 Z3.0
G0 X35.1222 Y13.8381
G0 Z1.0
G1 F100.0 Z-0.25
G1 F150.0 X35.1666 Y13.832
G1 X35.1521 Y13.7982
G1 X34.9421 Y13.4453
G1 X34.8184 Y13.2942
G1 X34.8947 Y13.3954
G3 X34.9216 Y13.4373 I-0.2635 J0.1987
G1 X35.0751 Y13.7216
G3 X35.0935 Y13.7619 I-0.2904 J0.1568
G1 X35.1222 Y13.8381
G1 F100.0 X35.1305 Y13.8976
G1 F150.0 X35.2364 Y13.8828
G1 X35.2528 Y13.8805
G1 X35.2057 Y13.7708
G1 X34.9913 Y13.4108
G1 X34.7447 Y13.1095
G1 X34.4646 Y12.8632
G1 X34.1582 Y12.6711
G1 X33.8351 Y12.5344
G1 X33.4939 Y12.4524
G1 X33.1323 Y12.425
G1 X32.6991 Y12.4599
G1 X32.324 Y12.5615
G1 X32.0016 Y12.7275
G1 X31.7257 Y12.9584
G1 X31.5033 Y13.2518
G1 X31.3417 Y13.6085
G1 X31.2417 Y14.0366
G1 X31.2075 Y14.5369
G1 X31.2604 Y15.2104
G1 X31.4167 Y15.8142
G1 X31.6752 Y16.3535
G1 X32.0373 Y16.8336
G1 X32.4223 Y17.1797
G1 X32.8462 Y17.4239
G1 X33.3139 Y17.5705
G1 X33.8351 Y17.6203
G1 X34.2111 Y17.5937
G1 X34.5439 Y17.5156
G1 X34.8327 Y17.3887
G1 X35.0832 Y17.2125
G1 X35.2909 Y16.9945
G1 X35.4514 Y16.7395
G1 X35.5684 Y16.455
G1 X35.5797 Y16.3883
G1 X35.5229 Y16.383
G1 X35.4082 Y16.3723
G1 X35.3944 Y16.4283
G3 X35.3826 Y16.4649 I-0.2622 J-0.0646
G1 X35.2841 Y16.7086
G3 X35.2632 Y16.7498 I-0.2503 J-0.1012
G1 X35.1356 Y16.9555
G3 X35.1034 Y16.9975 I-0.2294 J-0.1423
G1 X34.9467 Y17.1651
G3 X34.9054 Y17.2011 I-0.1972 J-0.1844
G1 X34.7218 Y17.331
G3 X34.6756 Y17.3573 I-0.1559 J-0.2204
G1 X34.4671 Y17.4501
G3 X34.42 Y17.4661 I-0.1098 J-0.2467
G1 X34.1867 Y17.5218
G3 X34.1435 Y17.5285 I-0.0627 J-0.2626
G1 X33.8854 Y17.5472
G3 X33.8345 Y17.5461 I-0.0195 J-0.2693
G1 X33.3499 Y17.4895
G3 X33.2833 Y17.473 I0.0313 J-0.2682
G1 X32.8474 Y17.3034
G3 X32.7861 Y17.2699 I0.0979 J-0.2516
G1 X32.3989 Y16.9872
G3 X32.3529 Y16.9446 I0.1592 J-0.2181
G1 X32.0145 Y16.549
G3 X31.9865 Y16.5097 I0.2052 J-0.1755
G1 X31.7481 Y16.1017
G3 X31.7291 Y16.062 I0.2331 J-0.1362
G1 X31.5588 Y15.6176
G3 X31.5468 Y15.5771 I0.2521 J-0.0966
G1 X31.4447 Y15.0963
G3 X31.4393 Y15.0579 I0.2641 J-0.0561
G1 X31.4053 Y14.5407
G3 Y14.5053 I0.2694 J-0.0177
G1 X31.4315 Y14.103
G3 X31.4375 Y14.0616 I0.2694 J0.0176
G1 X31.5162 Y13.7099
G3 X31.5322 Y13.661 I0.2635 J0.059
G1 X31.6635 Y13.3599
G3 X31.6933 Y13.3081 I0.2475 J0.1079
G1 X31.8771 Y13.0576
G3 X31.9173 Y13.0139 I0.2177 J0.1597
G1 X32.1432 Y12.8169
G3 X32.1912 Y12.7834 I0.1775 J0.2035
G1 X32.4487 Y12.6427
G3 X32.5025 Y12.6204 I0.1295 J0.2369
G1 X32.7918 Y12.536
G3 X32.8439 Y12.5262 I0.0757 J0.2592
G1 X33.1649 Y12.4981
G3 X33.211 Y12.498 I0.0235 J0.269
G1 X33.4918 Y12.5216
G3 X33.5379 Y12.5295 I-0.0226 J0.2691
G1 X33.8049 Y12.5997
G3 X33.8495 Y12.6158 I-0.0687 J0.2611
G1 X34.1028 Y12.7328
G3 X34.142 Y12.7551 I-0.1133 J0.2451
G1 X34.3816 Y12.919
G3 X34.4154 Y12.9464 I-0.1525 J0.2228
G1 X34.6323 Y13.1531
G3 X34.6616 Y13.186 I-0.1863 J0.1955
G1 X34.8468 Y13.4315
G3 X34.8688 Y13.4658 I-0.2156 J0.1626
G1 X35.0223 Y13.7501
G3 X35.0373 Y13.7831 I-0.2376 J0.1283
G1 X35.083 Y13.9042
G1 X35.1305 Y13.8976
G1 F100.0 X35.147 Y14.0164
G1 F150.0 X35.2529 Y14.0017
G1 X35.4252 Y13.9777
G1 X35.3128 Y13.7162
G1 X35.0899 Y13.3417
G1 X34.8313 Y13.0259
G1 X34.5365 Y12.7667
G1 X34.2138 Y12.5643
G1 X33.8727 Y12.42
G1 X33.5125 Y12.3335
G1 X33.132 Y12.3046
G1 X32.6784 Y12.3411
G1 X32.2803 Y12.449
G1 X31.9348 Y12.6269
G1 X31.6383 Y12.8751
G1 X31.3996 Y13.19
G1 X31.2275 Y13.5697
G1 X31.1226 Y14.0187
G1 X31.0872 Y14.5375
G1 X31.1416 Y15.2303
G1 X31.3035 Y15.8556
G1 X31.5722 Y16.4162
G1 X31.9485 Y16.9151
G1 X32.3515 Y17.2774
G1 X32.7977 Y17.5345
G1 X33.29 Y17.6887
G1 X33.8336 Y17.7407
G1 X34.2291 Y17.7127
G1 X34.5821 Y17.6299
G1 X34.8919 Y17.4937
G1 X35.162 Y17.3038
G1 X35.3861 Y17.0686
G1 X35.5584 Y16.7946
G1 X35.6845 Y16.4882
G1 X35.7195 Y16.2809
G1 X35.534 Y16.2636
G1 X35.3609 Y16.2474
G1 X35.3164 Y16.2433
G1 X35.2779 Y16.3996
G3 X35.2713 Y16.4199 I-0.1456 J-0.0359
G1 X35.1728 Y16.6637
G3 X35.1612 Y16.6865 I-0.1391 J-0.0562
G1 X35.0336 Y16.8922
G3 X35.0157 Y16.9156 I-0.1275 J-0.0791
G1 X34.859 Y17.0831
G3 X34.8361 Y17.1031 I-0.1096 J-0.1025
G1 X34.6524 Y17.2331
G3 X34.6268 Y17.2477 I-0.0866 J-0.1224
G1 X34.4183 Y17.3405
G3 X34.3921 Y17.3494 I-0.061 J-0.137
G1 X34.1588 Y17.4051
G3 X34.1348 Y17.4088 I-0.0348 J-0.1459
