( Made using CamBam - http://www.cambam.co.uk )
( flame 10/20/2014 5:20:26 PM )
( T203 : 2.0 )
G21 G90 G91.1 G64 G40
G0 Z3.0
( T203 : 2.0 )
T203 M6
( Drill1 )
G17
M3 S1000
G0 X-30.0 Y0.0
G0 Z3.0
G0 X-29.3 Y0.0
G0 Z1.0
G1 F300.0 Z0.0
G2 X-30.35 Y-0.6062 Z-0.1333 I-0.7 J0.0
G2 Y0.6062 Z-0.2667 I0.35 J0.6062
G2 X-29.3 Y0.0 Z-0.4 I0.35 J-0.6062
G2 X-30.35 Y-0.6062 Z-0.5333 I-0.7 J0.0
G2 Y0.6062 Z-0.6667 I0.35 J0.6062
G2 X-29.3 Y0.0 Z-0.8 I0.35 J-0.6062
G2 X-30.35 Y-0.6062 Z-0.9333 I-0.7 J0.0
G2 Y0.6062 Z-1.0667 I0.35 J0.6062
G2 X-29.3 Y0.0 Z-1.2 I0.35 J-0.6062
G2 X-30.35 Y-0.6062 Z-1.3333 I-0.7 J0.0
G2 Y0.6062 Z-1.4667 I0.35 J0.6062
G2 X-29.3 Y0.0 Z-1.6 I0.35 J-0.6062
G2 X-30.35 Y-0.6062 Z-1.7333 I-0.7 J0.0
G2 Y0.6062 Z-1.8667 I0.35 J0.6062
G2 X-29.3 Y0.0 Z-2.0 I0.35 J-0.6062
G2 X-30.35 Y-0.6062 I-0.7 J0.0
G2 Y0.6062 I0.35 J0.6062
G2 X-29.3 Y0.0 I0.35 J-0.6062
G0 Z3.0
G0 X-53.3 Y-10.0
G0 Z1.0
G1 Z0.0
G2 X-54.35 Y-10.6062 Z-0.1333 I-0.7 J0.0
G2 Y-9.3938 Z-0.2667 I0.35 J0.6062
G2 X-53.3 Y-10.0 Z-0.4 I0.35 J-0.6062
G2 X-54.35 Y-10.6062 Z-0.5333 I-0.7 J0.0
G2 Y-9.3938 Z-0.6667 I0.35 J0.6062
G2 X-53.3 Y-10.0 Z-0.8 I0.35 J-0.6062
G2 X-54.35 Y-10.6062 Z-0.9333 I-0.7 J0.0
G2 Y-9.3938 Z-1.0667 I0.35 J0.6062
G2 X-53.3 Y-10.0 Z-1.2 I0.35 J-0.6062
G2 X-54.35 Y-10.6062 Z-1.3333 I-0.7 J0.0
G2 Y-9.3938 Z-1.4667 I0.35 J0.6062
G2 X-53.3 Y-10.0 Z-1.6 I0.35 J-0.6062
G2 X-54.35 Y-10.6062 Z-1.7333 I-0.7 J0.0
G2 Y-9.3938 Z-1.8667 I0.35 J0.6062
G2 X-53.3 Y-10.0 Z-2.0 I0.35 J-0.6062
G2 X-54.35 Y-10.6062 I-0.7 J0.0
G2 Y-9.3938 I0.35 J0.6062
G2 X-53.3 Y-10.0 I0.35 J-0.6062
G0 Z3.0
G0 X-65.3 Y-36.0
G0 Z1.0
G1 Z0.0
G2 X-66.35 Y-36.6062 Z-0.1333 I-0.7 J0.0
G2 Y-35.3938 Z-0.2667 I0.35 J0.6062
G2 X-65.3 Y-36.0 Z-0.4 I0.35 J-0.6062
G2 X-66.35 Y-36.6062 Z-0.5333 I-0.7 J0.0
G2 Y-35.3938 Z-0.6667 I0.35 J0.6062
G2 X-65.3 Y-36.0 Z-0.8 I0.35 J-0.6062
G2 X-66.35 Y-36.6062 Z-0.9333 I-0.7 J0.0
G2 Y-35.3938 Z-1.0667 I0.35 J0.6062
G2 X-65.3 Y-36.0 Z-1.2 I0.35 J-0.6062
G2 X-66.35 Y-36.6062 Z-1.3333 I-0.7 J0.0
G2 Y-35.3938 Z-1.4667 I0.35 J0.6062
G2 X-65.3 Y-36.0 Z-1.6 I0.35 J-0.6062
G2 X-66.35 Y-36.6062 Z-1.7333 I-0.7 J0.0
G2 Y-35.3938 Z-1.8667 I0.35 J0.6062
G2 X-65.3 Y-36.0 Z-2.0 I0.35 J-0.6062
G2 X-66.35 Y-36.6062 I-0.7 J0.0
G2 Y-35.3938 I0.35 J0.6062
G2 X-65.3 Y-36.0 I0.35 J-0.6062
G0 Z3.0
G0 X-34.3 Y-40.0
G0 Z1.0
G1 Z0.0
G2 X-35.35 Y-40.6062 Z-0.1333 I-0.7 J0.0
G2 Y-39.3938 Z-0.2667 I0.35 J0.6062
G2 X-34.3 Y-40.0 Z-0.4 I0.35 J-0.6062
G2 X-35.35 Y-40.6062 Z-0.5333 I-0.7 J0.0
G2 Y-39.3938 Z-0.6667 I0.35 J0.6062
G2 X-34.3 Y-40.0 Z-0.8 I0.35 J-0.6062
G2 X-35.35 Y-40.6062 Z-0.9333 I-0.7 J0.0
G2 Y-39.3938 Z-1.0667 I0.35 J0.6062
G2 X-34.3 Y-40.0 Z-1.2 I0.35 J-0.6062
G2 X-35.35 Y-40.6062 Z-1.3333 I-0.7 J0.0
G2 Y-39.3938 Z-1.4667 I0.35 J0.6062
G2 X-34.3 Y-40.0 Z-1.6 I0.35 J-0.6062
G2 X-35.35 Y-40.6062 Z-1.7333 I-0.7 J0.0
G2 Y-39.3938 Z-1.8667 I0.35 J0.6062
G2 X-34.3 Y-40.0 Z-2.0 I0.35 J-0.6062
G2 X-35.35 Y-40.6062 I-0.7 J0.0
G2 Y-39.3938 I0.35 J0.6062
G2 X-34.3 Y-40.0 I0.35 J-0.6062
G0 Z3.0
G0 X-8.3 Y-22.0
G0 Z1.0
G1 Z0.0
G2 X-9.35 Y-22.6062 Z-0.1333 I-0.7 J0.0
G2 Y-21.3938 Z-0.2667 I0.35 J0.6062
G2 X-8.3 Y-22.0 Z-0.4 I0.35 J-0.6062
G2 X-9.35 Y-22.6062 Z-0.5333 I-0.7 J0.0
G2 Y-21.3938 Z-0.6667 I0.35 J0.6062
G2 X-8.3 Y-22.0 Z-0.8 I0.35 J-0.6062
G2 X-9.35 Y-22.6062 Z-0.9333 I-0.7 J0.0
G2 Y-21.3938 Z-1.0667 I0.35 J0.6062
G2 X-8.3 Y-22.0 Z-1.2 I0.35 J-0.6062
G2 X-9.35 Y-22.6062 Z-1.3333 I-0.7 J0.0
G2 Y-21.3938 Z-1.4667 I0.35 J0.6062
G2 X-8.3 Y-22.0 Z-1.6 I0.35 J-0.6062
G2 X-9.35 Y-22.6062 Z-1.7333 I-0.7 J0.0
G2 Y-21.3938 Z-1.8667 I0.35 J0.6062
G2 X-8.3 Y-22.0 Z-2.0 I0.35 J-0.6062
G2 X-9.35 Y-22.6062 I-0.7 J0.0
G2 Y-21.3938 I0.35 J0.6062
G2 X-8.3 Y-22.0 I0.35 J-0.6062
G0 Z3.0
G0 X-4.3 Y-86.0
G0 Z1.0
G1 Z0.0
G2 X-5.35 Y-86.6062 Z-0.1333 I-0.7 J0.0
G2 Y-85.3938 Z-0.2667 I0.35 J0.6062
G2 X-4.3 Y-86.0 Z-0.4 I0.35 J-0.6062
G2 X-5.35 Y-86.6062 Z-0.5333 I-0.7 J0.0
G2 Y-85.3938 Z-0.6667 I0.35 J0.6062
G2 X-4.3 Y-86.0 Z-0.8 I0.35 J-0.6062
G2 X-5.35 Y-86.6062 Z-0.9333 I-0.7 J0.0
G2 Y-85.3938 Z-1.0667 I0.35 J0.6062
G2 X-4.3 Y-86.0 Z-1.2 I0.35 J-0.6062
G2 X-5.35 Y-86.6062 Z-1.3333 I-0.7 J0.0
G2 Y-85.3938 Z-1.4667 I0.35 J0.6062
G2 X-4.3 Y-86.0 Z-1.6 I0.35 J-0.6062
G2 X-5.35 Y-86.6062 Z-1.7333 I-0.7 J0.0
G2 Y-85.3938 Z-1.8667 I0.35 J0.6062
G2 X-4.3 Y-86.0 Z-2.0 I0.35 J-0.6062
G2 X-5.35 Y-86.6062 I-0.7 J0.0
G2 Y-85.3938 I0.35 J0.6062
G2 X-4.3 Y-86.0 I0.35 J-0.6062
G0 Z3.0
G0 X-28.3 Y-134.0
G0 Z1.0
G1 Z0.0
G2 X-29.35 Y-134.6062 Z-0.1333 I-0.7 J0.0
G2 Y-133.3938 Z-0.2667 I0.35 J0.6062
G2 X-28.3 Y-134.0 Z-0.4 I0.35 J-0.6062
G2 X-29.35 Y-134.6062 Z-0.5333 I-0.7 J0.0
G2 Y-133.3938 Z-0.6667 I0.35 J0.6062
G2 X-28.3 Y-134.0 Z-0.8 I0.35 J-0.6062
G2 X-29.35 Y-134.6062 Z-0.9333 I-0.7 J0.0
G2 Y-133.3938 Z-1.0667 I0.35 J0.6062
G2 X-28.3 Y-134.0 Z-1.2 I0.35 J-0.6062
G2 X-29.35 Y-134.6062 Z-1.3333 I-0.7 J0.0
G2 Y-133.3938 Z-1.4667 I0.35 J0.6062
G2 X-28.3 Y-134.0 Z-1.6 I0.35 J-0.6062
G2 X-29.35 Y-134.6062 Z-1.7333 I-0.7 J0.0
G2 Y-133.3938 Z-1.8667 I0.35 J0.6062
G2 X-28.3 Y-134.0 Z-2.0 I0.35 J-0.6062
G2 X-29.35 Y-134.6062 I-0.7 J0.0
G2 Y-133.3938 I0.35 J0.6062
G2 X-28.3 Y-134.0 I0.35 J-0.6062
G0 Z3.0
G0 X-50.3 Y-154.0
G0 Z1.0
G1 Z0.0
G2 X-51.35 Y-154.6062 Z-0.1333 I-0.7 J0.0
G2 Y-153.3938 Z-0.2667 I0.35 J0.6062
G2 X-50.3 Y-154.0 Z-0.4 I0.35 J-0.6062
G2 X-51.35 Y-154.6062 Z-0.5333 I-0.7 J0.0
G2 Y-153.3938 Z-0.6667 I0.35 J0.6062
G2 X-50.3 Y-154.0 Z-0.8 I0.35 J-0.6062
G2 X-51.35 Y-154.6062 Z-0.9333 I-0.7 J0.0
G2 Y-153.3938 Z-1.0667 I0.35 J0.6062
G2 X-50.3 Y-154.0 Z-1.2 I0.35 J-0.6062
G2 X-51.35 Y-154.6062 Z-1.3333 I-0.7 J0.0
G2 Y-153.3938 Z-1.4667 I0.35 J0.6062
G2 X-50.3 Y-154.0 Z-1.6 I0.35 J-0.6062
G2 X-51.35 Y-154.6062 Z-1.7333 I-0.7 J0.0
G2 Y-153.3938 Z-1.8667 I0.35 J0.6062
G2 X-50.3 Y-154.0 Z-2.0 I0.35 J-0.6062
G2 X-51.35 Y-154.6062 I-0.7 J0.0
G2 Y-153.3938 I0.35 J0.6062
G2 X-50.3 Y-154.0 I0.35 J-0.6062
G0 Z3.0
G0 X-98.3 Y-176.0
G0 Z1.0
G1 Z0.0
G2 X-99.35 Y-176.6062 Z-0.1333 I-0.7 J0.0
G2 Y-175.3938 Z-0.2667 I0.35 J0.6062
G2 X-98.3 Y-176.0 Z-0.4 I0.35 J-0.6062
G2 X-99.35 Y-176.6062 Z-0.5333 I-0.7 J0.0
G2 Y-175.3938 Z-0.6667 I0.35 J0.6062
G2 X-98.3 Y-176.0 Z-0.8 I0.35 J-0.6062
G2 X-99.35 Y-176.6062 Z-0.9333 I-0.7 J0.0
G2 Y-175.3938 Z-1.0667 I0.35 J0.6062
G2 X-98.3 Y-176.0 Z-1.2 I0.35 J-0.6062
G2 X-99.35 Y-176.6062 Z-1.3333 I-0.7 J0.0
G2 Y-175.3938 Z-1.4667 I0.35 J0.6062
G2 X-98.3 Y-176.0 Z-1.6 I0.35 J-0.6062
G2 X-99.35 Y-176.6062 Z-1.7333 I-0.7 J0.0
G2 Y-175.3938 Z-1.8667 I0.35 J0.6062
G2 X-98.3 Y-176.0 Z-2.0 I0.35 J-0.6062
G2 X-99.35 Y-176.6062 I-0.7 J0.0
G2 Y-175.3938 I0.35 J0.6062
G2 X-98.3 Y-176.0 I0.35 J-0.6062
G0 Z3.0
G0 X-96.3 Y-113.0
G0 Z1.0
G1 Z0.0
G2 X-97.35 Y-113.6062 Z-0.1333 I-0.7 J0.0
G2 Y-112.3938 Z-0.2667 I0.35 J0.6062
G2 X-96.3 Y-113.0 Z-0.4 I0.35 J-0.6062
G2 X-97.35 Y-113.6062 Z-0.5333 I-0.7 J0.0
G2 Y-112.3938 Z-0.6667 I0.35 J0.6062
G2 X-96.3 Y-113.0 Z-0.8 I0.35 J-0.6062
G2 X-97.35 Y-113.6062 Z-0.9333 I-0.7 J0.0
G2 Y-112.3938 Z-1.0667 I0.35 J0.6062
G2 X-96.3 Y-113.0 Z-1.2 I0.35 J-0.6062
G2 X-97.35 Y-113.6062 Z-1.3333 I-0.7 J0.0
G2 Y-112.3938 Z-1.4667 I0.35 J0.6062
G2 X-96.3 Y-113.0 Z-1.6 I0.35 J-0.6062
G2 X-97.35 Y-113.6062 Z-1.7333 I-0.7 J0.0
G2 Y-112.3938 Z-1.8667 I0.35 J0.6062
G2 X-96.3 Y-113.0 Z-2.0 I0.35 J-0.6062
G2 X-97.35 Y-113.6062 I-0.7 J0.0
G2 Y-112.3938 I0.35 J0.6062
G2 X-96.3 Y-113.0 I0.35 J-0.6062
G0 Z3.0
G0 X-86.3 Y-72.0
G0 Z1.0
G1 Z0.0
G2 X-87.35 Y-72.6062 Z-0.1333 I-0.7 J0.0
G2 Y-71.3938 Z-0.2667 I0.35 J0.6062
G2 X-86.3 Y-72.0 Z-0.4 I0.35 J-0.6062
G2 X-87.35 Y-72.6062 Z-0.5333 I-0.7 J0.0
G2 Y-71.3938 Z-0.6667 I0.35 J0.6062
G2 X-86.3 Y-72.0 Z-0.8 I0.35 J-0.6062
G2 X-87.35 Y-72.6062 Z-0.9333 I-0.7 J0.0
G2 Y-71.3938 Z-1.0667 I0.35 J0.6062
G2 X-86.3 Y-72.0 Z-1.2 I0.35 J-0.6062
G2 X-87.35 Y-72.6062 Z-1.3333 I-0.7 J0.0
G2 Y-71.3938 Z-1.4667 I0.35 J0.6062
G2 X-86.3 Y-72.0 Z-1.6 I0.35 J-0.6062
G2 X-87.35 Y-72.6062 Z-1.7333 I-0.7 J0.0
G2 Y-71.3938 Z-1.8667 I0.35 J0.6062
G2 X-86.3 Y-72.0 Z-2.0 I0.35 J-0.6062
G2 X-87.35 Y-72.6062 I-0.7 J0.0
G2 Y-71.3938 I0.35 J0.6062
G2 X-86.3 Y-72.0 I0.35 J-0.6062
( Profile1 )
S1000
G0 Z3.0
G0 X-37.6471 Y-8.2944
G0 Z1.0
G1 Z-0.4
G1 X-37.9144 Y-8.553
G3 X-37.996 Y-8.6422 I0.6954 J-0.7186
G1 X-38.9568 Y-9.8281
G3 X-39.0116 Y-9.9025 I0.777 J-0.6295
G1 X-39.9743 Y-11.3453
G3 X-40.0135 Y-11.4091 I0.8318 J-0.5551
G1 X-40.9633 Y-13.0929
G3 X-40.9928 Y-13.1493 I0.871 J-0.4913
G1 X-41.9146 Y-15.0585
G3 X-41.9377 Y-15.1101 I0.9005 J-0.4348
G1 X-42.8167 Y-17.2288
G3 X-42.8354 Y-17.2773 I0.9237 J-0.3832
G1 X-43.6565 Y-19.5898
G3 X-43.6719 Y-19.6366 I0.9423 J-0.3346
G1 X-44.4203 Y-22.1271
G3 X-44.433 Y-22.1732 I0.9577 J-0.2878
G1 X-45.0938 Y-24.826
G3 X-45.1042 Y-24.8722 I0.9703 J-0.2417
G1 X-45.6624 Y-27.6715
G3 X-45.6706 Y-27.7183 I0.9807 J-0.1956
G1 X-46.1113 Y-30.6484
G3 X-46.1174 Y-30.6964 I0.9889 J-0.1487
G1 X-46.4257 Y-33.7415
G3 X-46.4295 Y-33.7912 I0.9949 J-0.1007
G1 X-46.5904 Y-36.9355
G3 X-46.5917 Y-36.9871 I0.9987 J-0.0511
G1 X-46.5903 Y-40.2149
G1 Y-40.2148
G1 Y-40.2149
G1 X-46.5901 Y-40.9347
G1 X-46.629 Y-41.7913
G1 X-46.7172 Y-42.7951
G1 X-46.8642 Y-43.931
G1 X-47.0795 Y-45.1849
G1 X-47.3724 Y-46.543
G1 X-47.7523 Y-47.9919
G1 X-48.2286 Y-49.5184
G1 X-48.8104 Y-51.1091
G1 X-49.5071 Y-52.7512
G1 X-50.328 Y-54.4316
G1 X-51.2824 Y-56.1376
G1 X-52.3796 Y-57.8564
G1 X-53.6292 Y-59.5756
G1 X-55.0408 Y-61.2825
G1 X-56.6467 Y-62.9887
G3 X-56.7027 Y-63.0535 I0.7282 J-0.6854
G1 X-56.7737 Y-63.1433
G3 X-55.5554 Y-64.6647 I0.7842 J-0.6205
G1 X-55.438 Y-64.6081
G3 X-55.3443 Y-64.5566 I-0.4341 J0.9009
G1 X-55.0595 Y-64.3796
G3 X-55.0545 Y-64.3764 I-0.5279 J0.8493
G1 X-54.629 Y-64.1085
G1 X-54.0884 Y-63.778
G1 X-53.4519 Y-63.4093
G1 X-52.7408 Y-63.0273
G1 X-51.9781 Y-62.6578
G1 X-51.1883 Y-62.3265
G1 X-50.3982 Y-62.0582
G1 X-49.6374 Y-61.876
G1 X-48.9381 Y-61.7976
G1 X-48.3318 Y-61.831
G1 X-47.8349 Y-61.9719
G1 X-47.4285 Y-62.2211
G1 X-47.0967 Y-62.5962
G1 X-46.865 Y-63.1706
G1 X-46.7824 Y-64.0512
G1 X-46.8795 Y-65.2221
G1 X-47.1515 Y-66.6022
G1 X-47.5728 Y-68.1258
G1 X-48.1123 Y-69.7374
G1 X-48.7374 Y-71.387
G1 X-49.4153 Y-73.0272
G1 X-50.1131 Y-74.6124
G1 X-50.798 Y-76.0977
G1 X-51.4376 Y-77.439
G1 X-51.9996 Y-78.5934
G1 X-52.451 Y-79.5161
G3 X-52.4557 Y-79.5257 I0.8983 J-0.4395
G1 X-52.7625 Y-80.1701
G3 X-52.7876 Y-80.2273 I0.9029 J-0.4299
G1 X-52.9168 Y-80.549
G3 X-51.5064 Y-81.7976 I0.9279 J-0.3727
G1 X-51.4254 Y-81.753
G3 X-51.1458 Y-81.5246 I-0.4825 J0.8759
G1 X-50.8446 Y-81.1701
G1 X-50.4915 Y-80.7859
G1 X-50.0843 Y-80.3755
G1 X-49.6352 Y-79.9581
G1 X-49.1563 Y-79.5525
G1 X-48.6607 Y-79.1772
G1 X-48.1631 Y-78.8504
G1 X-47.6805 Y-78.5892
G1 X-47.2337 Y-78.408
G1 X-46.8467 Y-78.3142
G1 X-46.5389 Y-78.3017
G1 X-46.305 Y-78.352
G1 X-46.1002 Y-78.4653
G1 X-45.8776 Y-78.6926
G1 X-45.6364 Y-79.1055
G1 X-45.4098 Y-79.7488
G1 X-45.2238 Y-80.6934
G1 X-45.1011 Y-81.9053
G1 X-45.0419 Y-83.327
G1 X-45.0405 Y-84.9045
G1 X-45.0888 Y-86.589
G1 X-45.1778 Y-88.3344
G1 X-45.2985 Y-90.096
G1 X-45.4414 Y-91.8297
G1 X-45.5974 Y-93.4916
G1 X-45.757 Y-95.0385
G1 X-45.9108 Y-96.427
G1 X-46.0496 Y-97.6142
G1 X-46.164 Y-98.5579
G1 X-46.2446 Y-99.2148
G3 X-46.2456 Y-99.2227 I0.9925 J-0.1219
G1 X-46.2829 Y-99.5486
G3 X-44.3356 Y-99.9629 I0.9935 J-0.1139
G1 X-44.3202 Y-99.914
G3 X-44.2971 Y-99.827 I-0.9538 J0.3003
G1 X-44.0804 Y-98.8344
G1 X-43.7348 Y-97.5258
G1 X-43.2689 Y-95.9196
G1 X-42.6997 Y-94.0663
G1 X-42.0434 Y-92.012
G1 X-41.3161 Y-89.8015
G1 X-40.5334 Y-87.4788
G1 X-39.7112 Y-85.0879
G1 X-38.8651 Y-82.6722
G1 X-38.0108 Y-80.2755
G1 X-37.164 Y-77.9413
G1 X-36.3404 Y-75.7134
G1 X-35.5558 Y-73.6354
G1 X-34.8261 Y-71.7517
G1 X-34.1677 Y-70.107
G1 X-33.599 Y-68.7512
G1 X-32.49 Y-66.3355
G1 X-31.8209 Y-65.1055
G1 X-31.8124 Y-65.3527
G1 X-31.872 Y-66.7743
G1 X-32.0114 Y-68.4402
G1 X-32.209 Y-70.2515
G1 X-32.4423 Y-72.117
G1 X-32.6889 Y-73.9485
G1 X-32.9261 Y-75.6586
G3 X-32.9263 Y-75.6606 I0.9905 J-0.1374
G1 X-33.1313 Y-77.1607
G3 X-33.1328 Y-77.1723 I0.9908 J-0.1354
G1 X-33.2827 Y-78.374
G3 X-33.2865 Y-78.4097 I0.9923 J-0.1238
G1 X-33.3588 Y-79.227
G3 X-33.2818 Y-79.709 I0.9961 J-0.0881
G1 X-33.1979 Y-79.905
G3 X-31.409 Y-80.0047 I0.9192 J0.3938
G1 X-31.1264 Y-79.5068
G3 X-31.0697 Y-79.3897 I-0.8697 J0.4936
G1 X-30.617 Y-78.2758
G3 X-30.6025 Y-78.2378 I-0.9264 J0.3765
G1 X-30.0081 Y-76.5856
G3 X-30.0009 Y-76.5648 I-0.941 J0.3385
G1 X-29.2932 Y-74.4522
G3 X-29.2883 Y-74.4372 I-0.9482 J0.3176
G1 X-28.4958 Y-71.942
G3 X-28.4919 Y-71.9295 I-0.9531 J0.3027
G1 X-27.6429 Y-69.1294
G3 X-27.6394 Y-69.1175 I-0.957 J0.2902
G1 X-26.7625 Y-66.0905
G3 X-26.759 Y-66.0783 I-0.9605 J0.2783
G1 X-25.8825 Y-62.9021
G3 X-25.8789 Y-62.8887 I-0.964 J0.266
G1 X-25.0312 Y-59.6411
G3 X-25.0272 Y-59.6255 I-0.9676 J0.2526
G1 X-24.2369 Y-56.3844
G3 X-24.2324 Y-56.3653 I-0.9715 J0.2369
G1 X-23.5278 Y-53.2085
G3 X-23.5226 Y-53.1841 I-0.976 J0.2179
G1 X-22.9321 Y-50.1894
G3 X-22.9262 Y-50.1564 I-0.9811 J0.1935
G1 X-22.4783 Y-47.4016
G3 X-22.4717 Y-47.354 I-0.987 J0.1605
G1 X-22.1948 Y-44.9169
G3 X-22.1891 Y-44.8419 I-0.9936 J0.1129
G1 X-22.1116 Y-42.8003
G3 X-22.111 Y-42.7512 I-0.9993 J0.0379
G1 X-22.1356 Y-40.5603
G3 Y-40.5599 I-0.9999 J-0.0112
G1 X-22.1611 Y-38.3859
G3 Y-38.3816 I-0.9999 J-0.0117
G1 X-22.1958 Y-36.2233
G3 X-22.196 Y-36.215 I-0.9999 J-0.0161
G1 X-22.2482 Y-34.0713
G3 X-22.2486 Y-34.059 I-0.9997 J-0.0244
G1 X-22.3267 Y-31.9287
G3 X-22.3274 Y-31.9124 I-0.9993 J-0.0366
G1 X-22.4397 Y-29.7941
G3 X-22.441 Y-29.7738 I-0.9986 J-0.0529
G1 X-22.5957 Y-27.6666
G3 X-22.5978 Y-27.6423 I-0.9973 J-0.0732
G1 X-22.8033 Y-25.5449
G3 X-22.8064 Y-25.5167 I-0.9952 J-0.0975
G1 X-23.0711 Y-23.4279
G3 X-23.0756 Y-23.396 I-0.9921 J-0.1257
G1 X-23.4077 Y-21.3147
G3 X-23.414 Y-21.2794 I-0.9875 J-0.1575
G1 X-23.8218 Y-19.2043
G3 X-23.8301 Y-19.1659 I-0.9812 J-0.1928
G1 X-24.322 Y-17.0959
G3 X-24.3326 Y-17.055 I-0.9729 J-0.2312
G1 X-24.9168 Y-14.9889
G3 X-24.93 Y-14.946 I-0.9623 J-0.2721
G1 X-25.615 Y-12.8826
G3 X-25.6308 Y-12.8383 I-0.9491 J-0.315
G1 X-26.0272 Y-11.809
G1 X-25.7525 Y-12.0603
G1 X-24.9589 Y-12.8774
G1 X-24.1697 Y-13.7732
G1 X-23.3989 Y-14.7255
G1 X-22.6598 Y-15.7121
G1 X-21.9652 Y-16.7112
G1 X-21.3277 Y-17.7003
G1 X-20.7599 Y-18.6569
G1 X-20.2743 Y-19.5572
G1 X-19.8839 Y-20.3752
G1 X-19.6021 Y-21.0797
G1 X-19.4414 Y-21.6256
G1 X-19.391 Y-22.0109
G1 X-19.421 Y-24.4823
G3 Y-24.506 I0.9999 J-0.0121
G1 X-19.3879 Y-27.3674
G3 X-19.3875 Y-27.3865 I0.9999 J0.0116
G1 X-19.2909 Y-30.536
G3 X-19.2903 Y-30.5522 I0.9995 J0.0307
G1 X-19.1305 Y-33.9591
G3 X-19.1297 Y-33.9734 I0.9989 J0.0469
G1 X-18.907 Y-37.6068
G3 X-18.9061 Y-37.6199 I0.9981 J0.0612
G1 X-18.6209 Y-41.4492
G3 X-18.6199 Y-41.4616 I0.9972 J0.0743
G1 X-18.2725 Y-45.456
G3 X-18.2713 Y-45.468 I0.9962 J0.0867
G1 X-17.862 Y-49.5967
G3 X-17.8608 Y-49.6086 I0.9951 J0.0986
G1 X-17.39 Y-53.841
G3 X-17.3885 Y-53.853 I0.9939 J0.1106
G1 X-16.8565 Y-58.1582
G3 X-16.8549 Y-58.1707 I0.9925 J0.1226
G1 X-16.262 Y-62.5178
G3 X-16.2601 Y-62.531 I0.9908 J0.1351
G1 X-15.6067 Y-66.8895
G3 X-15.6045 Y-66.9035 I0.9889 J0.1483
G1 X-14.8909 Y-71.2426
G3 X-14.8883 Y-71.2578 I0.9867 J0.1623
G1 X-14.1148 Y-75.5467
G3 X-14.1117 Y-75.5634 I0.9841 J0.1775
G1 X-13.5025 Y-78.6406
G1 X-13.8195 Y-78.0647
G3 X-13.829 Y-78.0478 I-0.8761 J-0.4822
G1 X-14.2872 Y-77.2522
G3 X-14.305 Y-77.2224 I-0.8666 J-0.4991
G1 X-14.7909 Y-76.4426
G3 X-14.8185 Y-76.4007 I-0.8488 J-0.5288
G1 X-15.3422 Y-75.6472
G3 X-15.3816 Y-75.5943 I-0.8212 J-0.5707
G1 X-15.9533 Y-74.8776
G3 X-16.0069 Y-74.8158 I-0.7817 J-0.6236
G1 X-16.6368 Y-74.1466
G3 X-16.7064 Y-74.0796 I-0.7282 J-0.6854
G1 X-17.4047 Y-73.4683
G3 X-17.4907 Y-73.401 I-0.6586 J-0.7525
G1 X-18.2676 Y-72.8582
G3 X-18.3682 Y-72.7965 I-0.5727 J-0.8198
G1 X-19.2339 Y-72.3327
G3 X-19.3445 Y-72.2819 I-0.4722 J-0.8815
G1 X-20.3093 Y-71.9077
G3 X-20.5432 Y-71.8482 I-0.3616 J-0.9323
G1 X-20.9752 Y-71.7926
G3 X-21.1297 Y-71.7847 I-0.1277 J-0.9918
G1 X-21.5528 Y-71.796
G3 X-21.7192 Y-71.8145 I0.0267 J-0.9996
G1 X-22.1296 Y-71.8953
G3 X-22.2981 Y-71.9442 I0.1932 J-0.9812
G1 X-22.6919 Y-72.097
G3 X-22.8501 Y-72.175 I0.3617 J-0.9323
G1 X-23.2235 Y-72.4023
G3 X-23.3605 Y-72.5026 I0.5199 J-0.8542
G1 X-23.7097 Y-72.8069
G3 X-23.8196 Y-72.919 I0.657 J-0.7539
G1 X-24.1408 Y-73.3028
G3 X-24.2233 Y-73.4169 I0.7669 J-0.6418
G1 X-24.5127 Y-73.8828
G3 X-24.5714 Y-73.9917 I0.8494 J-0.5277
G1 X-24.8252 Y-74.5421
G3 X-24.8649 Y-74.6421 I0.9081 J-0.4187
G1 X-25.0793 Y-75.2796
G3 X-25.1049 Y-75.3692 I0.9478 J-0.3188
G1 X-25.276 Y-76.0963
G3 X-25.2914 Y-76.1756 I0.9734 J-0.2292
G1 X-25.4155 Y-76.9948
G3 X-25.4236 Y-77.0646 I0.9887 J-0.1498
G1 X-25.4969 Y-77.9784
G3 X-25.5 Y-78.0399 I0.9968 J-0.08
G1 X-25.5186 Y-79.0508
G3 X-25.5182 Y-79.1051 I0.9998 J-0.0185
G1 X-25.4784 Y-80.2157
G3 X-25.4755 Y-80.2637 I0.9994 J0.0358
G1 X-25.3799 Y-81.4002
G1 X-25.4376 Y-82.2364
G3 X-25.4398 Y-82.2924 I0.9976 J-0.0687
G1 X-25.4519 Y-83.2379
G3 X-25.4514 Y-83.2835 I0.9999 J-0.0127
G1 X-25.4189 Y-84.2711
G3 X-25.4171 Y-84.3061 I0.9995 J0.0329
G1 X-25.3464 Y-85.3448
G3 X-25.3443 Y-85.3699 I0.9977 J0.068
G1 X-25.2417 Y-86.4689
G3 X-25.24 Y-86.4851 I0.9957 J0.093
G1 X-25.1117 Y-87.6535
G3 X-25.1107 Y-87.662 I0.994 J0.1092
G1 X-24.963 Y-88.909
G3 X-24.9628 Y-88.9109 I0.9931 J0.1176
G1 X-24.8023 Y-90.244
G1 X-24.6354 Y-91.67
G1 X-24.4685 Y-93.1981
G1 X-24.3076 Y-94.8383
G1 X-24.1588 Y-96.6005
G1 X-24.0284 Y-98.4944
G1 X-23.9224 Y-100.5296
G1 X-23.8473 Y-102.7156
G1 X-23.8108 Y-104.9593
G1 X-24.2993 Y-107.2913
G1 X-24.8252 Y-109.4416
G1 X-25.3662 Y-111.3368
G1 X-25.9201 Y-112.9987
G1 X-26.4845 Y-114.4498
G1 X-27.0574 Y-115.7128
G1 X-27.637 Y-116.8115
G1 X-28.2223 Y-117.7703
G1 X-28.8136 Y-118.6142
G1 X-29.4123 Y-119.3684
G1 X-30.0206 Y-120.0577
G1 X-30.4555 Y-120.5125
G1 X-30.3561 Y-120.1767
G1 X-30.032 Y-119.09
G3 X-30.0311 Y-119.0871 I-0.9583 J0.2859
G1 X-29.7408 Y-118.1029
G3 X-29.738 Y-118.0934 I-0.9591 J0.2829
G1 X-29.481 Y-117.1891
G3 X-29.4762 Y-117.1717 I-0.9619 J0.2734
G1 X-29.2516 Y-116.3235
G3 X-29.2452 Y-116.2979 I-0.9667 J0.256
G1 X-29.0521 Y-115.4822
G3 X-29.0449 Y-115.4492 I-0.9731 J0.2304
G1 X-28.8824 Y-114.6422
G3 X-28.8755 Y-114.6043 I-0.9803 J0.1974
G1 X-28.7428 Y-113.7824
G3 X-28.7372 Y-113.7428 I-0.9872 J0.1594
G1 X-28.6333 Y-112.8822
G3 X-28.6295 Y-112.8444 I-0.9928 J0.1198
G1 X-28.5536 Y-111.9215
G3 X-28.5514 Y-111.8878 I-0.9966 J0.082
G1 X-28.5026 Y-110.8789
G3 X-28.5016 Y-110.8508 I-0.9988 J0.0483
G1 X-28.479 Y-109.7321
G3 X-28.4788 Y-109.7096 I-0.9998 J0.0202
G1 X-28.4816 Y-108.4575
G3 X-28.4818 Y-108.4405 I-1.0 J-0.0023
G1 X-28.5089 Y-107.0312
G3 X-28.5242 Y-106.8756 I-0.9998 J-0.0193
G1 X-28.9744 Y-104.3409
G3 X-29.2128 Y-103.85 I-0.9846 J-0.1749
G1 X-30.1344 Y-102.8172
G3 X-31.1016 Y-102.5077 I-0.7461 J-0.6658
G1 X-32.4563 Y-102.8148
G3 X-32.8823 Y-103.0276 I0.2211 J-0.9753
G1 X-34.6317 Y-104.5124
G3 X-34.7495 Y-104.6307 I0.6471 J-0.7624
G1 X-36.8555 Y-107.1311
G3 X-36.9011 Y-107.1895 I0.7649 J-0.6442
G1 X-39.3254 Y-110.5433
G3 X-39.3463 Y-110.5734 I0.8104 J-0.5858
G1 X-42.0506 Y-114.6187
G3 X-42.0599 Y-114.633 I0.8313 J-0.5558
G1 X-45.006 Y-119.2075
G3 X-45.0085 Y-119.2114 I0.8407 J-0.5414
G1 X-48.1567 Y-124.1511
G1 X-51.4665 Y-129.29
G1 X-54.8982 Y-134.4645
G1 X-58.4124 Y-139.5116
G1 X-61.9684 Y-144.2674
G1 X-65.5232 Y-148.5666
G1 X-69.0291 Y-152.2426
G1 X-72.4913 Y-155.1805
G3 X-72.5151 Y-155.2014 I0.647 J-0.7625
G1 X-74.3582 Y-156.8688
G1 X-76.062 Y-158.3265
G1 X-77.6484 Y-159.604
G1 X-79.1298 Y-160.7227
G1 X-80.5191 Y-161.7041
G1 X-81.8296 Y-162.5696
G1 X-83.0749 Y-163.3407
G1 X-84.2689 Y-164.039
G1 X-85.4256 Y-164.6859
G1 X-86.5587 Y-165.3025
G1 X-87.2915 Y-165.6992
G1 X-86.9075 Y-165.2661
G3 X-86.8993 Y-165.2567 I-0.7483 J0.6634
G1 X-85.8048 Y-163.9908
G3 X-85.7966 Y-163.9812 I-0.7565 J0.654
G1 X-84.7849 Y-162.7808
G3 X-84.7767 Y-162.771 I-0.7646 J0.6444
G1 X-83.8438 Y-161.6351
G3 X-83.8358 Y-161.6251 I-0.7728 J0.6347
G1 X-82.9777 Y-160.5527
G3 X-82.9698 Y-160.5427 I-0.7808 J0.6247
G1 X-82.1827 Y-159.5328
G3 X-82.175 Y-159.5229 I-0.7887 J0.6148
G1 X-81.4548 Y-158.5746
G3 X-81.4475 Y-158.5649 I-0.7964 J0.6048
G1 X-80.7902 Y-157.6772
G3 X-80.7833 Y-157.6678 I-0.8037 J0.5951
G1 X-80.1851 Y-156.8398
G3 X-80.1788 Y-156.831 I-0.8106 J0.5856
G1 X-79.6357 Y-156.0617
G3 X-79.6301 Y-156.0537 I-0.8169 J0.5768
G1 X-79.138 Y-155.3422
G3 X-79.1334 Y-155.3354 I-0.8225 J0.5688
G1 X-78.6885 Y-154.6807
G3 X-78.6852 Y-154.6757 I-0.8271 J0.562
G1 X-78.2835 Y-154.0768
G3 X-78.2594 Y-154.0391 I-0.8305 J0.557
G1 X-76.5627 Y-151.247
G3 X-76.535 Y-151.1984 I-0.8546 J0.5193
G1 X-75.2692 Y-148.8256
G3 X-75.2362 Y-148.7577 I-0.8823 J0.4707
G1 X-74.3633 Y-146.7742
G3 X-74.3258 Y-146.6753 I-0.9153 J0.4028
G1 X-73.8078 Y-145.0511
G3 X-73.7724 Y-144.9007 I-0.9527 J0.3039
G1 X-73.5713 Y-143.6059
G3 X-73.5625 Y-143.3744 I-0.9882 J0.1534
G1 X-73.6404 Y-142.3789
G3 X-73.7218 Y-142.0548 I-0.997 J-0.078
G1 X-74.0407 Y-141.3287
G3 X-74.2743 Y-140.9995 I-0.9156 J-0.4021
G1 X-74.7963 Y-140.5128
G3 X-75.1039 Y-140.3168 I-0.682 J-0.7314
G1 X-75.791 Y-140.0395
G3 X-76.0459 Y-139.9739 I-0.3743 J-0.9273
G1 X-76.86 Y-139.876
G3 X-77.0363 Y-139.8704 I-0.1195 J-0.9928
G1 X-77.9396 Y-139.9219
G3 X-78.059 Y-139.9359 I0.0569 J-0.9984
G1 X-79.0135 Y-140.1067
G3 X-79.097 Y-140.1254 I0.1762 J-0.9844
G1 X-79.2201 Y-140.1585
G1 X-77.957 Y-138.6702
G3 X-77.9121 Y-138.6131 I-0.7624 J0.6471
G1 X-74.6689 Y-134.1751
G3 X-74.6285 Y-134.1154 I-0.8074 J0.59
G1 X-71.8507 Y-129.6754
G3 X-71.8137 Y-129.611 I-0.8478 J0.5304
G1 X-69.5217 Y-125.2592
G3 X-69.4871 Y-125.1866 I-0.8848 J0.466
G1 X-67.7014 Y-121.0135
G3 X-67.669 Y-120.927 I-0.9194 J0.3934
G1 X-66.41 Y-117.0227
G3 X-66.3813 Y-116.9126 I-0.9517 J0.3069
G1 X-65.6694 Y-113.3675
G3 X-65.6509 Y-113.2172 I-0.9804 J0.1969
G1 X-65.5066 Y-110.1215
G3 X-65.5203 Y-109.9039 I-0.9989 J0.0466
G1 X-65.964 Y-107.348
G3 X-66.0717 Y-107.0396 I-0.9853 J-0.171
G1 X-67.1239 Y-105.1137
G3 X-67.4187 Y-104.7805 I-0.8776 J-0.4794
G1 X-69.0997 Y-103.5749
G3 X-69.5154 Y-103.4016 I-0.5828 J-0.8126
G1 X-71.8458 Y-103.0066
G3 X-72.1792 Y-103.0065 I-0.1671 J-0.9859
G1 X-75.1794 Y-103.5124
G3 X-75.389 Y-103.5719 I0.1663 J-0.9861
G1 X-79.0795 Y-105.069
G3 X-79.2091 Y-105.1328 I0.3759 J-0.9267
G1 X-83.6101 Y-107.7114
G3 X-83.6946 Y-107.7669 I0.5055 J-0.8628
G1 X-85.8061 Y-109.3098
G1 X-85.7504 Y-109.1905
G1 X-85.1971 Y-108.0904
G1 X-84.5992 Y-107.0002
G1 X-83.9387 Y-105.9026
G1 X-83.1974 Y-104.7804
G1 X-82.3567 Y-103.6171
G1 X-81.3982 Y-102.3963
G1 X-80.3039 Y-101.1025
G1 X-79.0557 Y-99.7208
G1 X-77.636 Y-98.2363
G1 X-76.0277 Y-96.6344
G1 X-74.2133 Y-94.9006
G1 X-72.1759 Y-93.0204
G1 X-69.8939 Y-90.975
G3 X-69.8414 Y-90.9243 I-0.6674 J0.7447
G1 X-68.5195 Y-89.553
G3 X-68.471 Y-89.4989 I-0.72 J0.694
G1 X-67.116 Y-87.8718
G3 X-67.0794 Y-87.825 I-0.7684 J0.6399
G1 X-65.7289 Y-85.992
G3 X-65.6985 Y-85.9484 I-0.8051 J0.5932
G1 X-64.3899 Y-83.959
G3 X-64.3627 Y-83.9153 I-0.8355 J0.5496
G1 X-63.1335 Y-81.8193
G3 X-63.1077 Y-81.7725 I-0.8626 J0.5059
G1 X-61.9952 Y-79.6195
G3 X-61.9695 Y-79.5659 I-0.8884 J0.459
G1 X-61.0114 Y-77.4056
G3 X-60.9852 Y-77.3405 I-0.9141 J0.4054
G1 X-60.2188 Y-75.2226
G3 X-60.1926 Y-75.1386 I-0.9403 J0.3403
G1 X-59.6554 Y-73.1129
G3 X-59.6322 Y-72.9987 I-0.9666 J0.2563
G1 X-59.3617 Y-71.1147
G3 X-59.3518 Y-70.9526 I-0.9899 J0.1421
G1 X-59.3855 Y-69.2601
G3 X-59.4171 Y-69.0296 I-0.9998 J-0.0199
G1 X-59.7925 Y-67.5782
G3 X-59.9222 Y-67.2836 I-0.9682 J-0.2504
G1 X-60.6766 Y-66.1229
G3 X-60.9414 Y-65.8489 I-0.8384 J-0.545
G1 X-62.1124 Y-65.0287
G3 X-62.4303 Y-64.8811 I-0.5737 J-0.8191
G1 X-64.0553 Y-64.4511
G3 X-64.3157 Y-64.4179 I-0.2558 J-0.9667
G1 X-66.4322 Y-64.4277
G3 X-66.5784 Y-64.4392 I0.0047 J-1.0
G1 X-67.72 Y-64.6133
G3 X-67.7721 Y-64.6227 I0.1508 J-0.9886
G1 X-68.8086 Y-64.8376
G3 X-68.8657 Y-64.8512 I0.203 J-0.9792
G1 X-69.8082 Y-65.105
G3 X-69.8689 Y-65.1234 I0.26 J-0.9656
G1 X-70.7283 Y-65.4144
G3 X-70.7906 Y-65.4378 I0.3207 J-0.9472
G1 X-71.5781 Y-65.7643
G3 X-71.6394 Y-65.7922 I0.383 J-0.9237
G1 X-72.3659 Y-66.1524
G3 X-72.4233 Y-66.1832 I0.4442 J-0.8959
G1 X-73.0998 Y-66.5755
G3 X-73.1507 Y-66.6071 I0.5016 J-0.8651
G1 X-73.7883 Y-67.0297
G3 X-73.8307 Y-67.0593 I0.5524 J-0.8336
G1 X-74.4405 Y-67.5105
G3 X-74.4733 Y-67.5359 I0.5948 J-0.8039
G1 X-75.0662 Y-68.0139
G3 X-75.0893 Y-68.0331 I0.6276 J-0.7785
G1 X-75.1533 Y-68.0879
G1 X-74.438 Y-67.0335
G1 X-73.4408 Y-65.644
G1 X-72.3377 Y-64.1786
G1 X-71.1449 Y-62.6607
G1 X-69.8784 Y-61.1135
G1 X-68.5543 Y-59.5599
G1 X-67.1887 Y-58.0227
G1 X-65.7976 Y-56.5249
G1 X-64.3973 Y-55.0894
G1 X-63.0046 Y-53.7392
G1 X-61.6217 Y-52.484
G3 X-61.509 Y-52.3633 I-0.6721 J0.7405
G1 X-60.472 Y-51.05
G3 X-60.46 Y-51.0346 I-0.7848 J0.6197
G1 X-59.5203 Y-49.7956
G3 X-59.505 Y-49.7748 I-0.7968 J0.6043
G1 X-58.6554 Y-48.5925
G3 X-58.637 Y-48.566 I-0.8121 J0.5835
G1 X-57.8702 Y-47.4227
G3 X-57.8493 Y-47.3903 I-0.8305 J0.557
G1 X-57.1581 Y-46.2686
G3 X-57.1359 Y-46.2307 I-0.8513 J0.5246
G1 X-56.513 Y-45.1129
G3 X-56.4909 Y-45.0709 I-0.8735 J0.4868
G1 X-55.9289 Y-43.9393
G3 X-55.9082 Y-43.895 I-0.8956 J0.4448
G1 X-55.4 Y-42.7321
G3 X-55.3819 Y-42.6877 I-0.9163 J0.4005
G1 X-54.9202 Y-41.476
G3 X-54.9052 Y-41.4338 I-0.9345 J0.3561
G1 X-54.4827 Y-40.1556
G3 X-54.4709 Y-40.1174 I-0.9495 J0.3138
G1 X-54.0803 Y-38.7551
G3 X-54.0714 Y-38.722 I-0.9613 J0.2756
G1 X-53.7055 Y-37.2581
G3 X-53.6991 Y-37.2306 I-0.9702 J0.2425
G1 X-53.3506 Y-35.6475
G3 X-53.346 Y-35.6255 I-0.9766 J0.215
G1 X-53.0077 Y-33.9056
G3 X-53.0045 Y-33.8887 I-0.9812 J0.193
G1 X-52.6691 Y-32.0143
G3 X-52.6669 Y-32.002 I-0.9844 J0.1762
G1 X-52.3302 Y-29.9744
G1 X-51.6603 Y-26.715
G1 X-50.9213 Y-23.7625
G1 X-50.1156 Y-21.1081
G1 X-49.2461 Y-18.7421
G1 X-48.3161 Y-16.6545
G1 X-47.3293 Y-14.8348
G1 X-46.29 Y-13.2715
G1 X-45.202 Y-11.9516
G1 X-44.068 Y-10.8603
G1 X-42.8886 Y-9.9814
G1 X-41.6614 Y-9.2985
G1 X-40.381 Y-8.7968
G1 X-39.0412 Y-8.4646
G1 X-37.6471 Y-8.2944
G1 Z-0.8
G1 X-37.9144 Y-8.553
G3 X-37.996 Y-8.6422 I0.6954 J-0.7186
G1 X-38.9568 Y-9.8281
G3 X-39.0116 Y-9.9025 I0.777 J-0.6295
G1 X-39.9743 Y-11.3453
G3 X-40.0135 Y-11.4091 I0.8318 J-0.5551
G1 X-40.9633 Y-13.0929
G3 X-40.9928 Y-13.1493 I0.871 J-0.4913
G1 X-41.9146 Y-15.0585
G3 X-41.9377 Y-15.1101 I0.9005 J-0.4348
G1 X-42.8167 Y-17.2288
G3 X-42.8354 Y-17.2773 I0.9237 J-0.3832
G1 X-43.6565 Y-19.5898
G3 X-43.6719 Y-19.6366 I0.9423 J-0.3346
G1 X-44.4203 Y-22.1271
G3 X-44.433 Y-22.1732 I0.9577 J-0.2878
G1 X-45.0938 Y-24.826
G3 X-45.1042 Y-24.8722 I0.9703 J-0.2417
G1 X-45.6624 Y-27.6715
G3 X-45.6706 Y-27.7183 I0.9807 J-0.1956
G1 X-46.1113 Y-30.6484
G3 X-46.1174 Y-30.6964 I0.9889 J-0.1487
G1 X-46.4257 Y-33.7415
G3 X-46.4295 Y-33.7912 I0.9949 J-0.1007
G1 X-46.5904 Y-36.9355
G3 X-46.5917 Y-36.9871 I0.9987 J-0.0511
G1 X-46.5903 Y-40.2149
G1 Y-40.2148
G1 Y-40.2149
G1 X-46.5901 Y-40.9347
G1 X-46.629 Y-41.7913
G1 X-46.7172 Y-42.7951
G1 X-46.8642 Y-43.931
G1 X-47.0795 Y-45.1849
G1 X-47.3724 Y-46.543
G1 X-47.7523 Y-47.9919
G1 X-48.2286 Y-49.5184
G1 X-48.8104 Y-51.1091
G1 X-49.5071 Y-52.7512
G1 X-50.328 Y-54.4316
G1 X-51.2824 Y-56.1376
G1 X-52.3796 Y-57.8564
G1 X-53.6292 Y-59.5756
G1 X-55.0408 Y-61.2825
G1 X-56.6467 Y-62.9887
G3 X-56.7027 Y-63.0535 I0.7282 J-0.6854
G1 X-56.7737 Y-63.1433
G3 X-55.5554 Y-64.6647 I0.7842 J-0.6205
G1 X-55.438 Y-64.6081
G3 X-55.3443 Y-64.5566 I-0.4341 J0.9009
G1 X-55.0595 Y-64.3796
G3 X-55.0545 Y-64.3764 I-0.5279 J0.8493
G1 X-54.629 Y-64.1085
G1 X-54.0884 Y-63.778
G1 X-53.4519 Y-63.4093
G1 X-52.7408 Y-63.0273
G1 X-51.9781 Y-62.6578
G1 X-51.1883 Y-62.3265
G1 X-50.3982 Y-62.0582
G1 X-49.6374 Y-61.876
G1 X-48.9381 Y-61.7976
G1 X-48.3318 Y-61.831
G1 X-47.8349 Y-61.9719
G1 X-47.4285 Y-62.2211
G1 X-47.0967 Y-62.5962
G1 X-46.865 Y-63.1706
G1 X-46.7824 Y-64.0512
G1 X-46.8795 Y-65.2221
G1 X-47.1515 Y-66.6022
G1 X-47.5728 Y-68.1258
G1 X-48.1123 Y-69.7374
G1 X-48.7374 Y-71.387
G1 X-49.4153 Y-73.0272
G1 X-50.1131 Y-74.6124
G1 X-50.798 Y-76.0977
G1 X-51.4376 Y-77.439
G1 X-51.9996 Y-78.5934
G1 X-52.451 Y-79.5161
G3 X-52.4557 Y-79.5257 I0.8983 J-0.4395
G1 X-52.7625 Y-80.1701
G3 X-52.7876 Y-80.2273 I0.9029 J-0.4299
G1 X-52.9168 Y-80.549
G3 X-51.5064 Y-81.7976 I0.9279 J-0.3727
G1 X-51.4254 Y-81.753
G3 X-51.1458 Y-81.5246 I-0.4825 J0.8759
G1 X-50.8446 Y-81.1701
G1 X-50.4915 Y-80.7859
G1 X-50.0843 Y-80.3755
G1 X-49.6352 Y-79.9581
G1 X-49.1563 Y-79.5525
G1 X-48.6607 Y-79.1772
G1 X-48.1631 Y-78.8504
G1 X-47.6805 Y-78.5892
G1 X-47.2337 Y-78.408
G1 X-46.8467 Y-78.3142
G1 X-46.5389 Y-78.3017
G1 X-46.305 Y-78.352
G1 X-46.1002 Y-78.4653
G1 X-45.8776 Y-78.6926
G1 X-45.6364 Y-79.1055
G1 X-45.4098 Y-79.7488
G1 X-45.2238 Y-80.6934
G1 X-45.1011 Y-81.9053
G1 X-45.0419 Y-83.327
G1 X-45.0405 Y-84.9045
G1 X-45.0888 Y-86.589
G1 X-45.1778 Y-88.3344
G1 X-45.2985 Y-90.096
G1 X-45.4414 Y-91.8297
G1 X-45.5974 Y-93.4916
G1 X-45.757 Y-95.0385
G1 X-45.9108 Y-96.427
G1 X-46.0496 Y-97.6142
G1 X-46.164 Y-98.5579
G1 X-46.2446 Y-99.2148
G3 X-46.2456 Y-99.2227 I0.9925 J-0.1219
G1 X-46.2829 Y-99.5486
G3 X-44.3356 Y-99.9629 I0.9935 J-0.1139
G1 X-44.3202 Y-99.914
G3 X-44.2971 Y-99.827 I-0.9538 J0.3003
G1 X-44.0804 Y-98.8344
G1 X-43.7348 Y-97.5258
G1 X-43.2689 Y-95.9196
G1 X-42.6997 Y-94.0663
G1 X-42.0434 Y-92.012
G1 X-41.3161 Y-89.8015
G1 X-40.5334 Y-87.4788
G1 X-39.7112 Y-85.0879
G1 X-38.8651 Y-82.6722
G1 X-38.0108 Y-80.2755
G1 X-37.164 Y-77.9413
G1 X-36.3404 Y-75.7134
G1 X-35.5558 Y-73.6354
G1 X-34.8261 Y-71.7517
G1 X-34.1677 Y-70.107
G1 X-33.599 Y-68.7512
G1 X-32.49 Y-66.3355
G1 X-31.8209 Y-65.1055
G1 X-31.8124 Y-65.3527
G1 X-31.872 Y-66.7743
G1 X-32.0114 Y-68.4402
G1 X-32.209 Y-70.2515
G1 X-32.4423 Y-72.117
G1 X-32.6889 Y-73.9485
G1 X-32.9261 Y-75.6586
G3 X-32.9263 Y-75.6606 I0.9905 J-0.1374
G1 X-33.1313 Y-77.1607
G3 X-33.1328 Y-77.1723 I0.9908 J-0.1354
G1 X-33.2827 Y-78.374
G3 X-33.2865 Y-78.4097 I0.9923 J-0.1238
G1 X-33.3588 Y-79.227
G3 X-33.2818 Y-79.709 I0.9961 J-0.0881
G1 X-33.1979 Y-79.905
G3 X-31.409 Y-80.0047 I0.9192 J0.3938
G1 X-31.1264 Y-79.5068
G3 X-31.0697 Y-79.3897 I-0.8697 J0.4936
G1 X-30.617 Y-78.2758
G3 X-30.6025 Y-78.2378 I-0.9264 J0.3765
G1 X-30.0081 Y-76.5856
G3 X-30.0009 Y-76.5648 I-0.941 J0.3385
G1 X-29.2932 Y-74.4522
G3 X-29.2883 Y-74.4372 I-0.9482 J0.3176
G1 X-28.4958 Y-71.942
G3 X-28.4919 Y-71.9295 I-0.9531 J0.3027
G1 X-27.6429 Y-69.1294
G3 X-27.6394 Y-69.1175 I-0.957 J0.2902
G1 X-26.7625 Y-66.0905
G3 X-26.759 Y-66.0783 I-0.9605 J0.2783
G1 X-25.8825 Y-62.9021
G3 X-25.8789 Y-62.8887 I-0.964 J0.266
G1 X-25.0312 Y-59.6411
G3 X-25.0272 Y-59.6255 I-0.9676 J0.2526
G1 X-24.2369 Y-56.3844
G3 X-24.2324 Y-56.3653 I-0.9715 J0.2369
G1 X-23.5278 Y-53.2085
G3 X-23.5226 Y-53.1841 I-0.976 J0.2179
G1 X-22.9321 Y-50.1894
G3 X-22.9262 Y-50.1564 I-0.9811 J0.1935
G1 X-22.4783 Y-47.4016
G3 X-22.4717 Y-47.354 I-0.987 J0.1605
G1 X-22.1948 Y-44.9169
G3 X-22.1891 Y-44.8419 I-0.9936 J0.1129
G1 X-22.1116 Y-42.8003
G3 X-22.111 Y-42.7512 I-0.9993 J0.0379
G1 X-22.1356 Y-40.5603
G3 Y-40.5599 I-0.9999 J-0.0112
G1 X-22.1611 Y-38.3859
G3 Y-38.3816 I-0.9999 J-0.0117
G1 X-22.1958 Y-36.2233
G3 X-22.196 Y-36.215 I-0.9999 J-0.0161
G1 X-22.2482 Y-34.0713
G3 X-22.2486 Y-34.059 I-0.9997 J-0.0244
G1 X-22.3267 Y-31.9287
G3 X-22.3274 Y-31.9124 I-0.9993 J-0.0366
G1 X-22.4397 Y-29.7941
G3 X-22.441 Y-29.7738 I-0.9986 J-0.0529
G1 X-22.5957 Y-27.6666
G3 X-22.5978 Y-27.6423 I-0.9973 J-0.0732
G1 X-22.8033 Y-25.5449
G3 X-22.8064 Y-25.5167 I-0.9952 J-0.0975
G1 X-23.0711 Y-23.4279
G3 X-23.0756 Y-23.396 I-0.9921 J-0.1257
G1 X-23.4077 Y-21.3147
G3 X-23.414 Y-21.2794 I-0.9875 J-0.1575
G1 X-23.8218 Y-19.2043
G3 X-23.8301 Y-19.1659 I-0.9812 J-0.1928
G1 X-24.322 Y-17.0959
G3 X-24.3326 Y-17.055 I-0.9729 J-0.2312
G1 X-24.9168 Y-14.9889
G3 X-24.93 Y-14.946 I-0.9623 J-0.2721
G1 X-25.615 Y-12.8826
G3 X-25.6308 Y-12.8383 I-0.9491 J-0.315
G1 X-26.0272 Y-11.809
G1 X-25.7525 Y-12.0603
G1 X-24.9589 Y-12.8774
G1 X-24.1697 Y-13.7732
G1 X-23.3989 Y-14.7255
G1 X-22.6598 Y-15.7121
G1 X-21.9652 Y-16.7112
G1 X-21.3277 Y-17.7003
G1 X-20.7599 Y-18.6569
G1 X-20.2743 Y-19.5572
G1 X-19.8839 Y-20.3752
G1 X-19.6021 Y-21.0797
G1 X-19.4414 Y-21.6256
G1 X-19.391 Y-22.0109
G1 X-19.421 Y-24.4823
G3 Y-24.506 I0.9999 J-0.0121
G1 X-19.3879 Y-27.3674
G3 X-19.3875 Y-27.3865 I0.9999 J0.0116
G1 X-19.2909 Y-30.536
G3 X-19.2903 Y-30.5522 I0.9995 J0.0307
G1 X-19.1305 Y-33.9591
G3 X-19.1297 Y-33.9734 I0.9989 J0.0469
G1 X-18.907 Y-37.6068
G3 X-18.9061 Y-37.6199 I0.9981 J0.0612
G1 X-18.6209 Y-41.4492
G3 X-18.6199 Y-41.4616 I0.9972 J0.0743
G1 X-18.2725 Y-45.456
G3 X-18.2713 Y-45.468 I0.9962 J0.0867
G1 X-17.862 Y-49.5967
G3 X-17.8608 Y-49.6086 I0.9951 J0.0986
G1 X-17.39 Y-53.841
G3 X-17.3885 Y-53.853 I0.9939 J0.1106
G1 X-16.8565 Y-58.1582
G3 X-16.8549 Y-58.1707 I0.9925 J0.1226
G1 X-16.262 Y-62.5178
G3 X-16.2601 Y-62.531 I0.9908 J0.1351
G1 X-15.6067 Y-66.8895
G3 X-15.6045 Y-66.9035 I0.9889 J0.1483
G1 X-14.8909 Y-71.2426
G3 X-14.8883 Y-71.2578 I0.9867 J0.1623
G1 X-14.1148 Y-75.5467
G3 X-14.1117 Y-75.5634 I0.9841 J0.1775
G1 X-13.5025 Y-78.6406
G1 X-13.8195 Y-78.0647
G3 X-13.829 Y-78.0478 I-0.8761 J-0.4822
G1 X-14.2872 Y-77.2522
G3 X-14.305 Y-77.2224 I-0.8666 J-0.4991
G1 X-14.7909 Y-76.4426
G3 X-14.8185 Y-76.4007 I-0.8488 J-0.5288
G1 X-15.3422 Y-75.6472
G3 X-15.3816 Y-75.5943 I-0.8212 J-0.5707
G1 X-15.9533 Y-74.8776
G3 X-16.0069 Y-74.8158 I-0.7817 J-0.6236
G1 X-16.6368 Y-74.1466
G3 X-16.7064 Y-74.0796 I-0.7282 J-0.6854
G1 X-17.4047 Y-73.4683
G3 X-17.4907 Y-73.401 I-0.6586 J-0.7525
G1 X-18.2676 Y-72.8582
G3 X-18.3682 Y-72.7965 I-0.5727 J-0.8198
G1 X-19.2339 Y-72.3327
G3 X-19.3445 Y-72.2819 I-0.4722 J-0.8815
G1 X-20.3093 Y-71.9077
G3 X-20.5432 Y-71.8482 I-0.3616 J-0.9323
G1 X-20.9752 Y-71.7926
G3 X-21.1297 Y-71.7847 I-0.1277 J-0.9918
G1 X-21.5528 Y-71.796
G3 X-21.7192 Y-71.8145 I0.0267 J-0.9996
G1 X-22.1296 Y-71.8953
G3 X-22.2981 Y-71.9442 I0.1932 J-0.9812
G1 X-22.6919 Y-72.097
G3 X-22.8501 Y-72.175 I0.3617 J-0.9323
G1 X-23.2235 Y-72.4023
G3 X-23.3605 Y-72.5026 I0.5199 J-0.8542
G1 X-23.7097 Y-72.8069
G3 X-23.8196 Y-72.919 I0.657 J-0.7539
G1 X-24.1408 Y-73.3028
G3 X-24.2233 Y-73.4169 I0.7669 J-0.6418
G1 X-24.5127 Y-73.8828
G3 X-24.5714 Y-73.9917 I0.8494 J-0.5277
G1 X-24.8252 Y-74.5421
G3 X-24.8649 Y-74.6421 I0.9081 J-0.4187
G1 X-25.0793 Y-75.2796
G3 X-25.1049 Y-75.3692 I0.9478 J-0.3188
G1 X-25.276 Y-76.0963
G3 X-25.2914 Y-76.1756 I0.9734 J-0.2292
G1 X-25.4155 Y-76.9948
G3 X-25.4236 Y-77.0646 I0.9887 J-0.1498
G1 X-25.4969 Y-77.9784
G3 X-25.5 Y-78.0399 I0.9968 J-0.08
G1 X-25.5186 Y-79.0508
G3 X-25.5182 Y-79.1051 I0.9998 J-0.0185
G1 X-25.4784 Y-80.2157
G3 X-25.4755 Y-80.2637 I0.9994 J0.0358
G1 X-25.3799 Y-81.4002
G1 X-25.4376 Y-82.2364
G3 X-25.4398 Y-82.2924 I0.9976 J-0.0687
G1 X-25.4519 Y-83.2379
G3 X-25.4514 Y-83.2835 I0.9999 J-0.0127
G1 X-25.4189 Y-84.2711
G3 X-25.4171 Y-84.3061 I0.9995 J0.0329
G1 X-25.3464 Y-85.3448
G3 X-25.3443 Y-85.3699 I0.9977 J0.068
G1 X-25.2417 Y-86.4689
G3 X-25.24 Y-86.4851 I0.9957 J0.093
G1 X-25.1117 Y-87.6535
G3 X-25.1107 Y-87.662 I0.994 J0.1092
G1 X-24.963 Y-88.909
G3 X-24.9628 Y-88.9109 I0.9931 J0.1176
G1 X-24.8023 Y-90.244
G1 X-24.6354 Y-91.67
G1 X-24.4685 Y-93.1981
G1 X-24.3076 Y-94.8383
G1 X-24.1588 Y-96.6005
G1 X-24.0284 Y-98.4944
G1 X-23.9224 Y-100.5296
G1 X-23.8473 Y-102.7156
G1 X-23.8108 Y-104.9593
G1 X-24.2993 Y-107.2913
G1 X-24.8252 Y-109.4416
G1 X-25.3662 Y-111.3368
G1 X-25.9201 Y-112.9987
G1 X-26.4845 Y-114.4498
G1 X-27.0574 Y-115.7128
G1 X-27.637 Y-116.8115
G1 X-28.2223 Y-117.7703
G1 X-28.8136 Y-118.6142
G1 X-29.4123 Y-119.3684
G1 X-30.0206 Y-120.0577
G1 X-30.4555 Y-120.5125
G1 X-30.3561 Y-120.1767
G1 X-30.032 Y-119.09
G3 X-30.0311 Y-119.0871 I-0.9583 J0.2859
G1 X-29.7408 Y-118.1029
G3 X-29.738 Y-118.0934 I-0.9591 J0.2829
G1 X-29.481 Y-117.1891
G3 X-29.4762 Y-117.1717 I-0.9619 J0.2734
G1 X-29.2516 Y-116.3235
G3 X-29.2452 Y-116.2979 I-0.9667 J0.256
G1 X-29.0521 Y-115.4822
G3 X-29.0449 Y-115.4492 I-0.9731 J0.2304
G1 X-28.8824 Y-114.6422
G3 X-28.8755 Y-114.6043 I-0.9803 J0.1974
G1 X-28.7428 Y-113.7824
G3 X-28.7372 Y-113.7428 I-0.9872 J0.1594
G1 X-28.6333 Y-112.8822
G3 X-28.6295 Y-112.8444 I-0.9928 J0.1198
G1 X-28.5536 Y-111.9215
G3 X-28.5514 Y-111.8878 I-0.9966 J0.082
G1 X-28.5026 Y-110.8789
G3 X-28.5016 Y-110.8508 I-0.9988 J0.0483
G1 X-28.479 Y-109.7321
G3 X-28.4788 Y-109.7096 I-0.9998 J0.0202
G1 X-28.4816 Y-108.4575
G3 X-28.4818 Y-108.4405 I-1.0 J-0.0023
G1 X-28.5089 Y-107.0312
G3 X-28.5242 Y-106.8756 I-0.9998 J-0.0193
G1 X-28.9744 Y-104.3409
G3 X-29.2128 Y-103.85 I-0.9846 J-0.1749
G1 X-30.1344 Y-102.8172
G3 X-31.1016 Y-102.5077 I-0.7461 J-0.6658
G1 X-32.4563 Y-102.8148
G3 X-32.8823 Y-103.0276 I0.2211 J-0.9753
G1 X-34.6317 Y-104.5124
G3 X-34.7495 Y-104.6307 I0.6471 J-0.7624
G1 X-36.8555 Y-107.1311
G3 X-36.9011 Y-107.1895 I0.7649 J-0.6442
G1 X-39.3254 Y-110.5433
G3 X-39.3463 Y-110.5734 I0.8104 J-0.5858
G1 X-42.0506 Y-114.6187
G3 X-42.0599 Y-114.633 I0.8313 J-0.5558
G1 X-45.006 Y-119.2075
G3 X-45.0085 Y-119.2114 I0.8407 J-0.5414
G1 X-48.1567 Y-124.1511
G1 X-51.4665 Y-129.29
G1 X-54.8982 Y-134.4645
G1 X-58.4124 Y-139.5116
G1 X-61.9684 Y-144.2674
G1 X-65.5232 Y-148.5666
G1 X-69.0291 Y-152.2426
G1 X-72.4913 Y-155.1805
G3 X-72.5151 Y-155.2014 I0.647 J-0.7625
G1 X-74.3582 Y-156.8688
G1 X-76.062 Y-158.3265
G1 X-77.6484 Y-159.604
G1 X-79.1298 Y-160.7227
G1 X-80.5191 Y-161.7041
G1 X-81.8296 Y-162.5696
G1 X-83.0749 Y-163.3407
G1 X-84.2689 Y-164.039
G1 X-85.4256 Y-164.6859
G1 X-86.5587 Y-165.3025
G1 X-87.2915 Y-165.6992
G1 X-86.9075 Y-165.2661
G3 X-86.8993 Y-165.2567 I-0.7483 J0.6634
G1 X-85.8048 Y-163.9908
G3 X-85.7966 Y-163.9812 I-0.7565 J0.654
G1 X-84.7849 Y-162.7808
G3 X-84.7767 Y-162.771 I-0.7646 J0.6444
G1 X-83.8438 Y-161.6351
G3 X-83.8358 Y-161.6251 I-0.7728 J0.6347
G1 X-82.9777 Y-160.5527
G3 X-82.9698 Y-160.5427 I-0.7808 J0.6247
G1 X-82.1827 Y-159.5328
G3 X-82.175 Y-159.5229 I-0.7887 J0.6148
G1 X-81.4548 Y-158.5746
G3 X-81.4475 Y-158.5649 I-0.7964 J0.6048
G1 X-80.7902 Y-157.6772
G3 X-80.7833 Y-157.6678 I-0.8037 J0.5951
G1 X-80.1851 Y-156.8398
G3 X-80.1788 Y-156.831 I-0.8106 J0.5856
G1 X-79.6357 Y-156.0617
G3 X-79.6301 Y-156.0537 I-0.8169 J0.5768
G1 X-79.138 Y-155.3422
G3 X-79.1334 Y-155.3354 I-0.8225 J0.5688
G1 X-78.6885 Y-154.6807
G3 X-78.6852 Y-154.6757 I-0.8271 J0.562
G1 X-78.2835 Y-154.0768
G3 X-78.2594 Y-154.0391 I-0.8305 J0.557
G1 X-76.5627 Y-151.247
G3 X-76.535 Y-151.1984 I-0.8546 J0.5193
G1 X-75.2692 Y-148.8256
G3 X-75.2362 Y-148.7577 I-0.8823 J0.4707
G1 X-74.3633 Y-146.7742
G3 X-74.3258 Y-146.6753 I-0.9153 J0.4028
G1 X-73.8078 Y-145.0511
G3 X-73.7724 Y-144.9007 I-0.9527 J0.3039
G1 X-73.5713 Y-143.6059
G3 X-73.5625 Y-143.3744 I-0.9882 J0.1534
G1 X-73.6404 Y-142.3789
G3 X-73.7218 Y-142.0548 I-0.997 J-0.078
G1 X-74.0407 Y-141.3287
G3 X-74.2743 Y-140.9995 I-0.9156 J-0.4021
G1 X-74.7963 Y-140.5128
G3 X-75.1039 Y-140.3168 I-0.682 J-0.7314
G1 X-75.791 Y-140.0395
G3 X-76.0459 Y-139.9739 I-0.3743 J-0.9273
G1 X-76.86 Y-139.876
G3 X-77.0363 Y-139.8704 I-0.1195 J-0.9928
G1 X-77.9396 Y-139.9219
G3 X-78.059 Y-139.9359 I0.0569 J-0.9984
G1 X-79.0135 Y-140.1067
G3 X-79.097 Y-140.1254 I0.1762 J-0.9844
G1 X-79.2201 Y-140.1585
G1 X-77.957 Y-138.6702
G3 X-77.9121 Y-138.6131 I-0.7624 J0.6471
G1 X-74.6689 Y-134.1751
G3 X-74.6285 Y-134.1154 I-0.8074 J0.59
G1 X-71.8507 Y-129.6754
G3 X-71.8137 Y-129.611 I-0.8478 J0.5304
G1 X-69.5217 Y-125.2592
G3 X-69.4871 Y-125.1866 I-0.8848 J0.466
G1 X-67.7014 Y-121.0135
G3 X-67.669 Y-120.927 I-0.9194 J0.3934
G1 X-66.41 Y-117.0227
G3 X-66.3813 Y-116.9126 I-0.9517 J0.3069
G1 X-65.6694 Y-113.3675
G3 X-65.6509 Y-113.2172 I-0.9804 J0.1969
G1 X-65.5066 Y-110.1215
G3 X-65.5203 Y-109.9039 I-0.9989 J0.0466
G1 X-65.964 Y-107.348
G3 X-66.0717 Y-107.0396 I-0.9853 J-0.171
G1 X-67.1239 Y-105.1137
G3 X-67.4187 Y-104.7805 I-0.8776 J-0.4794
G1 X-69.0997 Y-103.5749
G3 X-69.5154 Y-103.4016 I-0.5828 J-0.8126
G1 X-71.8458 Y-103.0066
G3 X-72.1792 Y-103.0065 I-0.1671 J-0.9859
G1 X-75.1794 Y-103.5124
G3 X-75.389 Y-103.5719 I0.1663 J-0.9861
G1 X-79.0795 Y-105.069
G3 X-79.2091 Y-105.1328 I0.3759 J-0.9267
G1 X-83.6101 Y-107.7114
G3 X-83.6946 Y-107.7669 I0.5055 J-0.8628
G1 X-85.8061 Y-109.3098
G1 X-85.7504 Y-109.1905
G1 X-85.1971 Y-108.0904
G1 X-84.5992 Y-107.0002
G1 X-83.9387 Y-105.9026
G1 X-83.1974 Y-104.7804
G1 X-82.3567 Y-103.6171
G1 X-81.3982 Y-102.3963
G1 X-80.3039 Y-101.1025
G1 X-79.0557 Y-99.7208
G1 X-77.636 Y-98.2363
G1 X-76.0277 Y-96.6344
G1 X-74.2133 Y-94.9006
G1 X-72.1759 Y-93.0204
G1 X-69.8939 Y-90.975
G3 X-69.8414 Y-90.9243 I-0.6674 J0.7447
G1 X-68.5195 Y-89.553
G3 X-68.471 Y-89.4989 I-0.72 J0.694
G1 X-67.116 Y-87.8718
G3 X-67.0794 Y-87.825 I-0.7684 J0.6399
G1 X-65.7289 Y-85.992
G3 X-65.6985 Y-85.9484 I-0.8051 J0.5932
G1 X-64.3899 Y-83.959
G3 X-64.3627 Y-83.9153 I-0.8355 J0.5496
G1 X-63.1335 Y-81.8193
G3 X-63.1077 Y-81.7725 I-0.8626 J0.5059
G1 X-61.9952 Y-79.6195
G3 X-61.9695 Y-79.5659 I-0.8884 J0.459
G1 X-61.0114 Y-77.4056
G3 X-60.9852 Y-77.3405 I-0.9141 J0.4054
G1 X-60.2188 Y-75.2226
G3 X-60.1926 Y-75.1386 I-0.9403 J0.3403
G1 X-59.6554 Y-73.1129
G3 X-59.6322 Y-72.9987 I-0.9666 J0.2563
G1 X-59.3617 Y-71.1147
G3 X-59.3518 Y-70.9526 I-0.9899 J0.1421
G1 X-59.3855 Y-69.2601
G3 X-59.4171 Y-69.0296 I-0.9998 J-0.0199
G1 X-59.7925 Y-67.5782
G3 X-59.9222 Y-67.2836 I-0.9682 J-0.2504
G1 X-60.6766 Y-66.1229
G3 X-60.9414 Y-65.8489 I-0.8384 J-0.545
G1 X-62.1124 Y-65.0287
G3 X-62.4303 Y-64.8811 I-0.5737 J-0.8191
G1 X-64.0553 Y-64.4511
G3 X-64.3157 Y-64.4179 I-0.2558 J-0.9667
G1 X-66.4322 Y-64.4277
G3 X-66.5784 Y-64.4392 I0.0047 J-1.0
G1 X-67.72 Y-64.6133
G3 X-67.7721 Y-64.6227 I0.1508 J-0.9886
G1 X-68.8086 Y-64.8376
G3 X-68.8657 Y-64.8512 I0.203 J-0.9792
G1 X-69.8082 Y-65.105
G3 X-69.8689 Y-65.1234 I0.26 J-0.9656
G1 X-70.7283 Y-65.4144
G3 X-70.7906 Y-65.4378 I0.3207 J-0.9472
G1 X-71.5781 Y-65.7643
G3 X-71.6394 Y-65.7922 I0.383 J-0.9237
G1 X-72.3659 Y-66.1524
G3 X-72.4233 Y-66.1832 I0.4442 J-0.8959
G1 X-73.0998 Y-66.5755
G3 X-73.1507 Y-66.6071 I0.5016 J-0.8651
G1 X-73.7883 Y-67.0297
G3 X-73.8307 Y-67.0593 I0.5524 J-0.8336
G1 X-74.4405 Y-67.5105
G3 X-74.4733 Y-67.5359 I0.5948 J-0.8039
G1 X-75.0662 Y-68.0139
G3 X-75.0893 Y-68.0331 I0.6276 J-0.7785
G1 X-75.1533 Y-68.0879
G1 X-74.438 Y-67.0335
G1 X-73.4408 Y-65.644
G1 X-72.3377 Y-64.1786
G1 X-71.1449 Y-62.6607
G1 X-69.8784 Y-61.1135
G1 X-68.5543 Y-59.5599
G1 X-67.1887 Y-58.0227
G1 X-65.7976 Y-56.5249
G1 X-64.3973 Y-55.0894
G1 X-63.0046 Y-53.7392
G1 X-61.6217 Y-52.484
G3 X-61.509 Y-52.3633 I-0.6721 J0.7405
G1 X-60.472 Y-51.05
G3 X-60.46 Y-51.0346 I-0.7848 J0.6197
G1 X-59.5203 Y-49.7956
G3 X-59.505 Y-49.7748 I-0.7968 J0.6043
G1 X-58.6554 Y-48.5925
G3 X-58.637 Y-48.566 I-0.8121 J0.5835
G1 X-57.8702 Y-47.4227
G3 X-57.8493 Y-47.3903 I-0.8305 J0.557
G1 X-57.1581 Y-46.2686
G3 X-57.1359 Y-46.2307 I-0.8513 J0.5246
G1 X-56.513 Y-45.1129
G3 X-56.4909 Y-45.0709 I-0.8735 J0.4868
G1 X-55.9289 Y-43.9393
G3 X-55.9082 Y-43.895 I-0.8956 J0.4448
G1 X-55.4 Y-42.7321
G3 X-55.3819 Y-42.6877 I-0.9163 J0.4005
G1 X-54.9202 Y-41.476
G3 X-54.9052 Y-41.4338 I-0.9345 J0.3561
G1 X-54.4827 Y-40.1556
G3 X-54.4709 Y-40.1174 I-0.9495 J0.3138
G1 X-54.0803 Y-38.7551
G3 X-54.0714 Y-38.722 I-0.9613 J0.2756
G1 X-53.7055 Y-37.2581
G3 X-53.6991 Y-37.2306 I-0.9702 J0.2425
G1 X-53.3506 Y-35.6475
G3 X-53.346 Y-35.6255 I-0.9766 J0.215
G1 X-53.0077 Y-33.9056
G3 X-53.0045 Y-33.8887 I-0.9812 J0.193
G1 X-52.6691 Y-32.0143
G3 X-52.6669 Y-32.002 I-0.9844 J0.1762
G1 X-52.3302 Y-29.9744
G1 X-51.6603 Y-26.715
G1 X-50.9213 Y-23.7625
G1 X-50.1156 Y-21.1081
G1 X-49.2461 Y-18.7421
G1 X-48.3161 Y-16.6545
G1 X-47.3293 Y-14.8348
G1 X-46.29 Y-13.2715
G1 X-45.202 Y-11.9516
G1 X-44.068 Y-10.8603
G1 X-42.8886 Y-9.9814
G1 X-41.6614 Y-9.2985
G1 X-40.381 Y-8.7968
G1 X-39.0412 Y-8.4646
G1 X-37.6471 Y-8.2944
G1 Z-1.2
G1 X-37.9144 Y-8.553
G3 X-37.996 Y-8.6422 I0.6954 J-0.7186
G1 X-38.9568 Y-9.8281
G3 X-39.0116 Y-9.9025 I0.777 J-0.6295
G1 X-39.9743 Y-11.3453
G3 X-40.0135 Y-11.4091 I0.8318 J-0.5551
G1 X-40.9633 Y-13.0929
G3 X-40.9928 Y-13.1493 I0.871 J-0.4913
G1 X-41.9146 Y-15.0585
G3 X-41.9377 Y-15.1101 I0.9005 J-0.4348
G1 X-42.8167 Y-17.2288
G3 X-42.8354 Y-17.2773 I0.9237 J-0.3832
G1 X-43.6565 Y-19.5898
G3 X-43.6719 Y-19.6366 I0.9423 J-0.3346
G1 X-44.4203 Y-22.1271
G3 X-44.433 Y-22.1732 I0.9577 J-0.2878
G1 X-45.0938 Y-24.826
G3 X-45.1042 Y-24.8722 I0.9703 J-0.2417
G1 X-45.6624 Y-27.6715
G3 X-45.6706 Y-27.7183 I0.9807 J-0.1956
G1 X-46.1113 Y-30.6484
G3 X-46.1174 Y-30.6964 I0.9889 J-0.1487
G1 X-46.4257 Y-33.7415
G3 X-46.4295 Y-33.7912 I0.9949 J-0.1007
G1 X-46.5904 Y-36.9355
G3 X-46.5917 Y-36.9871 I0.9987 J-0.0511
G1 X-46.5903 Y-40.2149
G1 Y-40.2148
G1 Y-40.2149
G1 X-46.5901 Y-40.9347
G1 X-46.629 Y-41.7913
G1 X-46.7172 Y-42.7951
G1 X-46.8642 Y-43.931
G1 X-47.0795 Y-45.1849
G1 X-47.3724 Y-46.543
G1 X-47.7523 Y-47.9919
G1 X-48.2286 Y-49.5184
G1 X-48.8104 Y-51.1091
G1 X-49.5071 Y-52.7512
G1 X-50.328 Y-54.4316
G1 X-51.2824 Y-56.1376
G1 X-52.3796 Y-57.8564
G1 X-53.6292 Y-59.5756
G1 X-55.0408 Y-61.2825
G1 X-56.6467 Y-62.9887
G3 X-56.7027 Y-63.0535 I0.7282 J-0.6854
G1 X-56.7737 Y-63.1433
G3 X-55.5554 Y-64.6647 I0.7842 J-0.6205
G1 X-55.438 Y-64.6081
G3 X-55.3443 Y-64.5566 I-0.4341 J0.9009
G1 X-55.0595 Y-64.3796
G3 X-55.0545 Y-64.3764 I-0.5279 J0.8493
G1 X-54.629 Y-64.1085
G1 X-54.0884 Y-63.778
G1 X-53.4519 Y-63.4093
G1 X-52.7408 Y-63.0273
G1 X-51.9781 Y-62.6578
G1 X-51.1883 Y-62.3265
G1 X-50.3982 Y-62.0582
G1 X-49.6374 Y-61.876
G1 X-48.9381 Y-61.7976
G1 X-48.3318 Y-61.831
G1 X-47.8349 Y-61.9719
G1 X-47.4285 Y-62.2211
G1 X-47.0967 Y-62.5962
G1 X-46.865 Y-63.1706
G1 X-46.7824 Y-64.0512
G1 X-46.8795 Y-65.2221
G1 X-47.1515 Y-66.6022
G1 X-47.5728 Y-68.1258
G1 X-48.1123 Y-69.7374
G1 X-48.7374 Y-71.387
G1 X-49.4153 Y-73.0272
G1 X-50.1131 Y-74.6124
G1 X-50.798 Y-76.0977
G1 X-51.4376 Y-77.439
G1 X-51.9996 Y-78.5934
G1 X-52.451 Y-79.5161
G3 X-52.4557 Y-79.5257 I0.8983 J-0.4395
G1 X-52.7625 Y-80.1701
G3 X-52.7876 Y-80.2273 I0.9029 J-0.4299
G1 X-52.9168 Y-80.549
G3 X-51.5064 Y-81.7976 I0.9279 J-0.3727
G1 X-51.4254 Y-81.753
G3 X-51.1458 Y-81.5246 I-0.4825 J0.8759
G1 X-50.8446 Y-81.1701
G1 X-50.4915 Y-80.7859
G1 X-50.0843 Y-80.3755
G1 X-49.6352 Y-79.9581
G1 X-49.1563 Y-79.5525
G1 X-48.6607 Y-79.1772
G1 X-48.1631 Y-78.8504
G1 X-47.6805 Y-78.5892
G1 X-47.2337 Y-78.408
G1 X-46.8467 Y-78.3142
G1 X-46.5389 Y-78.3017
G1 X-46.305 Y-78.352
G1 X-46.1002 Y-78.4653
G1 X-45.8776 Y-78.6926
G1 X-45.6364 Y-79.1055
G1 X-45.4098 Y-79.7488
G1 X-45.2238 Y-80.6934
G1 X-45.1011 Y-81.9053
G1 X-45.0419 Y-83.327
G1 X-45.0405 Y-84.9045
G1 X-45.0888 Y-86.589
G1 X-45.1778 Y-88.3344
G1 X-45.2985 Y-90.096
G1 X-45.4414 Y-91.8297
G1 X-45.5974 Y-93.4916
G1 X-45.757 Y-95.0385
G1 X-45.9108 Y-96.427
G1 X-46.0496 Y-97.6142
G1 X-46.164 Y-98.5579
G1 X-46.2446 Y-99.2148
G3 X-46.2456 Y-99.2227 I0.9925 J-0.1219
G1 X-46.2829 Y-99.5486
G3 X-44.3356 Y-99.9629 I0.9935 J-0.1139
G1 X-44.3202 Y-99.914
G3 X-44.2971 Y-99.827 I-0.9538 J0.3003
G1 X-44.0804 Y-98.8344
G1 X-43.7348 Y-97.5258
G1 X-43.2689 Y-95.9196
G1 X-42.6997 Y-94.0663
G1 X-42.0434 Y-92.012
G1 X-41.3161 Y-89.8015
G1 X-40.5334 Y-87.4788
G1 X-39.7112 Y-85.0879
G1 X-38.8651 Y-82.6722
G1 X-38.0108 Y-80.2755
G1 X-37.164 Y-77.9413
G1 X-36.3404 Y-75.7134
G1 X-35.5558 Y-73.6354
G1 X-34.8261 Y-71.7517
G1 X-34.1677 Y-70.107
G1 X-33.599 Y-68.7512
G1 X-32.49 Y-66.3355
G1 X-31.8209 Y-65.1055
G1 X-31.8124 Y-65.3527
G1 X-31.872 Y-66.7743
G1 X-32.0114 Y-68.4402
G1 X-32.209 Y-70.2515
G1 X-32.4423 Y-72.117
G1 X-32.6889 Y-73.9485
G1 X-32.9261 Y-75.6586
G3 X-32.9263 Y-75.6606 I0.9905 J-0.1374
G1 X-33.1313 Y-77.1607
G3 X-33.1328 Y-77.1723 I0.9908 J-0.1354
G1 X-33.2827 Y-78.374
G3 X-33.2865 Y-78.4097 I0.9923 J-0.1238
G1 X-33.3588 Y-79.227
G3 X-33.2818 Y-79.709 I0.9961 J-0.0881
G1 X-33.1979 Y-79.905
G3 X-31.409 Y-80.0047 I0.9192 J0.3938
G1 X-31.1264 Y-79.5068
G3 X-31.0697 Y-79.3897 I-0.8697 J0.4936
G1 X-30.617 Y-78.2758
G3 X-30.6025 Y-78.2378 I-0.9264 J0.3765
G1 X-30.0081 Y-76.5856
G3 X-30.0009 Y-76.5648 I-0.941 J0.3385
G1 X-29.2932 Y-74.4522
G3 X-29.2883 Y-74.4372 I-0.9482 J0.3176
G1 X-28.4958 Y-71.942
G3 X-28.4919 Y-71.9295 I-0.9531 J0.3027
G1 X-27.6429 Y-69.1294
G3 X-27.6394 Y-69.1175 I-0.957 J0.2902
G1 X-26.7625 Y-66.0905
G3 X-26.759 Y-66.0783 I-0.9605 J0.2783
G1 X-25.8825 Y-62.9021
G3 X-25.8789 Y-62.8887 I-0.964 J0.266
G1 X-25.0312 Y-59.6411
G3 X-25.0272 Y-59.6255 I-0.9676 J0.2526
G1 X-24.2369 Y-56.3844
G3 X-24.2324 Y-56.3653 I-0.9715 J0.2369
G1 X-23.5278 Y-53.2085
G3 X-23.5226 Y-53.1841 I-0.976 J0.2179
G1 X-22.9321 Y-50.1894
G3 X-22.9262 Y-50.1564 I-0.9811 J0.1935
G1 X-22.4783 Y-47.4016
G3 X-22.4717 Y-47.354 I-0.987 J0.1605
G1 X-22.1948 Y-44.9169
G3 X-22.1891 Y-44.8419 I-0.9936 J0.1129
G1 X-22.1116 Y-42.8003
G3 X-22.111 Y-42.7512 I-0.9993 J0.0379
G1 X-22.1356 Y-40.5603
G3 Y-40.5599 I-0.9999 J-0.0112
G1 X-22.1611 Y-38.3859
G3 Y-38.3816 I-0.9999 J-0.0117
G1 X-22.1958 Y-36.2233
G3 X-22.196 Y-36.215 I-0.9999 J-0.0161
G1 X-22.2482 Y-34.0713
G3 X-22.2486 Y-34.059 I-0.9997 J-0.0244
G1 X-22.3267 Y-31.9287
G3 X-22.3274 Y-31.9124 I-0.9993 J-0.0366
G1 X-22.4397 Y-29.7941
G3 X-22.441 Y-29.7738 I-0.9986 J-0.0529
G1 X-22.5957 Y-27.6666
G3 X-22.5978 Y-27.6423 I-0.9973 J-0.0732
G1 X-22.8033 Y-25.5449
G3 X-22.8064 Y-25.5167 I-0.9952 J-0.0975
G1 X-23.0711 Y-23.4279
G3 X-23.0756 Y-23.396 I-0.9921 J-0.1257
G1 X-23.4077 Y-21.3147
G3 X-23.414 Y-21.2794 I-0.9875 J-0.1575
G1 X-23.8218 Y-19.2043
G3 X-23.8301 Y-19.1659 I-0.9812 J-0.1928
G1 X-24.322 Y-17.0959
G3 X-24.3326 Y-17.055 I-0.9729 J-0.2312
G1 X-24.9168 Y-14.9889
G3 X-24.93 Y-14.946 I-0.9623 J-0.2721
G1 X-25.615 Y-12.8826
G3 X-25.6308 Y-12.8383 I-0.9491 J-0.315
G1 X-26.0272 Y-11.809
G1 X-25.7525 Y-12.0603
G1 X-24.9589 Y-12.8774
G1 X-24.1697 Y-13.7732
G1 X-23.3989 Y-14.7255
G1 X-22.6598 Y-15.7121
G1 X-21.9652 Y-16.7112
G1 X-21.3277 Y-17.7003
G1 X-20.7599 Y-18.6569
G1 X-20.2743 Y-19.5572
G1 X-19.8839 Y-20.3752
G1 X-19.6021 Y-21.0797
G1 X-19.4414 Y-21.6256
G1 X-19.391 Y-22.0109
G1 X-19.421 Y-24.4823
G3 Y-24.506 I0.9999 J-0.0121
G1 X-19.3879 Y-27.3674
G3 X-19.3875 Y-27.3865 I0.9999 J0.0116
G1 X-19.2909 Y-30.536
G3 X-19.2903 Y-30.5522 I0.9995 J0.0307
G1 X-19.1305 Y-33.9591
G3 X-19.1297 Y-33.9734 I0.9989 J0.0469
G1 X-18.907 Y-37.6068
G3 X-18.9061 Y-37.6199 I0.9981 J0.0612
G1 X-18.6209 Y-41.4492
G3 X-18.6199 Y-41.4616 I0.9972 J0.0743
G1 X-18.2725 Y-45.456
G3 X-18.2713 Y-45.468 I0.9962 J0.0867
G1 X-17.862 Y-49.5967
G3 X-17.8608 Y-49.6086 I0.9951 J0.0986
G1 X-17.39 Y-53.841
G3 X-17.3885 Y-53.853 I0.9939 J0.1106
G1 X-16.8565 Y-58.1582
G3 X-16.8549 Y-58.1707 I0.9925 J0.1226
G1 X-16.262 Y-62.5178
G3 X-16.2601 Y-62.531 I0.9908 J0.1351
G1 X-15.6067 Y-66.8895
G3 X-15.6045 Y-66.9035 I0.9889 J0.1483
G1 X-14.8909 Y-71.2426
G3 X-14.8883 Y-71.2578 I0.9867 J0.1623
G1 X-14.1148 Y-75.5467
G3 X-14.1117 Y-75.5634 I0.9841 J0.1775
G1 X-13.5025 Y-78.6406
G1 X-13.8195 Y-78.0647
G3 X-13.829 Y-78.0478 I-0.8761 J-0.4822
G1 X-14.2872 Y-77.2522
G3 X-14.305 Y-77.2224 I-0.8666 J-0.4991
G1 X-14.7909 Y-76.4426
G3 X-14.8185 Y-76.4007 I-0.8488 J-0.5288
G1 X-15.3422 Y-75.6472
G3 X-15.3816 Y-75.5943 I-0.8212 J-0.5707
G1 X-15.9533 Y-74.8776
G3 X-16.0069 Y-74.8158 I-0.7817 J-0.6236
G1 X-16.6368 Y-74.1466
G3 X-16.7064 Y-74.0796 I-0.7282 J-0.6854
G1 X-17.4047 Y-73.4683
G3 X-17.4907 Y-73.401 I-0.6586 J-0.7525
G1 X-18.2676 Y-72.8582
G3 X-18.3682 Y-72.7965 I-0.5727 J-0.8198
G1 X-19.2339 Y-72.3327
G3 X-19.3445 Y-72.2819 I-0.4722 J-0.8815
G1 X-20.3093 Y-71.9077
G3 X-20.5432 Y-71.8482 I-0.3616 J-0.9323
G1 X-20.9752 Y-71.7926
G3 X-21.1297 Y-71.7847 I-0.1277 J-0.9918
G1 X-21.5528 Y-71.796
G3 X-21.7192 Y-71.8145 I0.0267 J-0.9996
G1 X-22.1296 Y-71.8953
G3 X-22.2981 Y-71.9442 I0.1932 J-0.9812
G1 X-22.6919 Y-72.097
G3 X-22.8501 Y-72.175 I0.3617 J-0.9323
G1 X-23.2235 Y-72.4023
G3 X-23.3605 Y-72.5026 I0.5199 J-0.8542
G1 X-23.7097 Y-72.8069
G3 X-23.8196 Y-72.919 I0.657 J-0.7539
G1 X-24.1408 Y-73.3028
G3 X-24.2233 Y-73.4169 I0.7669 J-0.6418
G1 X-24.5127 Y-73.8828
G3 X-24.5714 Y-73.9917 I0.8494 J-0.5277
G1 X-24.8252 Y-74.5421
G3 X-24.8649 Y-74.6421 I0.9081 J-0.4187
G1 X-25.0793 Y-75.2796
G3 X-25.1049 Y-75.3692 I0.9478 J-0.3188
G1 X-25.276 Y-76.0963
G3 X-25.2914 Y-76.1756 I0.9734 J-0.2292
G1 X-25.4155 Y-76.9948
G3 X-25.4236 Y-77.0646 I0.9887 J-0.1498
G1 X-25.4969 Y-77.9784
G3 X-25.5 Y-78.0399 I0.9968 J-0.08
G1 X-25.5186 Y-79.0508
G3 X-25.5182 Y-79.1051 I0.9998 J-0.0185
G1 X-25.4784 Y-80.2157
G3 X-25.4755 Y-80.2637 I0.9994 J0.0358
G1 X-25.3799 Y-81.4002
G1 X-25.4376 Y-82.2364
G3 X-25.4398 Y-82.2924 I0.9976 J-0.0687
G1 X-25.4519 Y-83.2379
G3 X-25.4514 Y-83.2835 I0.9999 J-0.0127
G1 X-25.4189 Y-84.2711
G3 X-25.4171 Y-84.3061 I0.9995 J0.0329
G1 X-25.3464 Y-85.3448
G3 X-25.3443 Y-85.3699 I0.9977 J0.068
G1 X-25.2417 Y-86.4689
G3 X-25.24 Y-86.4851 I0.9957 J0.093
G1 X-25.1117 Y-87.6535
G3 X-25.1107 Y-87.662 I0.994 J0.1092
G1 X-24.963 Y-88.909
G3 X-24.9628 Y-88.9109 I0.9931 J0.1176
G1 X-24.8023 Y-90.244
G1 X-24.6354 Y-91.67
G1 X-24.4685 Y-93.1981
G1 X-24.3076 Y-94.8383
G1 X-24.1588 Y-96.6005
G1 X-24.0284 Y-98.4944
G1 X-23.9224 Y-100.5296
G1 X-23.8473 Y-102.7156
G1 X-23.8108 Y-104.9593
G1 X-24.2993 Y-107.2913
G1 X-24.8252 Y-109.4416
G1 X-25.3662 Y-111.3368
G1 X-25.9201 Y-112.9987
G1 X-26.4845 Y-114.4498
G1 X-27.0574 Y-115.7128
G1 X-27.637 Y-116.8115
G1 X-28.2223 Y-117.7703
G1 X-28.8136 Y-118.6142
G1 X-29.4123 Y-119.3684
G1 X-30.0206 Y-120.0577
G1 X-30.4555 Y-120.5125
G1 X-30.3561 Y-120.1767
G1 X-30.032 Y-119.09
G3 X-30.0311 Y-119.0871 I-0.9583 J0.2859
G1 X-29.7408 Y-118.1029
G3 X-29.738 Y-118.0934 I-0.9591 J0.2829
G1 X-29.481 Y-117.1891
G3 X-29.4762 Y-117.1717 I-0.9619 J0.2734
G1 X-29.2516 Y-116.3235
G3 X-29.2452 Y-116.2979 I-0.9667 J0.256
G1 X-29.0521 Y-115.4822
G3 X-29.0449 Y-115.4492 I-0.9731 J0.2304
G1 X-28.8824 Y-114.6422
G3 X-28.8755 Y-114.6043 I-0.9803 J0.1974
G1 X-28.7428 Y-113.7824
G3 X-28.7372 Y-113.7428 I-0.9872 J0.1594
G1 X-28.6333 Y-112.8822
G3 X-28.6295 Y-112.8444 I-0.9928 J0.1198
G1 X-28.5536 Y-111.9215
G3 X-28.5514 Y-111.8878 I-0.9966 J0.082
G1 X-28.5026 Y-110.8789
G3 X-28.5016 Y-110.8508 I-0.9988 J0.0483
G1 X-28.479 Y-109.7321
G3 X-28.4788 Y-109.7096 I-0.9998 J0.0202
G1 X-28.4816 Y-108.4575
G3 X-28.4818 Y-108.4405 I-1.0 J-0.0023
G1 X-28.5089 Y-107.0312
G3 X-28.5242 Y-106.8756 I-0.9998 J-0.0193
G1 X-28.9744 Y-104.3409
G3 X-29.2128 Y-103.85 I-0.9846 J-0.1749
G1 X-30.1344 Y-102.8172
G3 X-31.1016 Y-102.5077 I-0.7461 J-0.6658
G1 X-32.4563 Y-102.8148
G3 X-32.8823 Y-103.0276 I0.2211 J-0.9753
G1 X-34.6317 Y-104.5124
G3 X-34.7495 Y-104.6307 I0.6471 J-0.7624
G1 X-36.8555 Y-107.1311
G3 X-36.9011 Y-107.1895 I0.7649 J-0.6442
G1 X-39.3254 Y-110.5433
G3 X-39.3463 Y-110.5734 I0.8104 J-0.5858
G1 X-42.0506 Y-114.6187
G3 X-42.0599 Y-114.633 I0.8313 J-0.5558
G1 X-45.006 Y-119.2075
G3 X-45.0085 Y-119.2114 I0.8407 J-0.5414
G1 X-48.1567 Y-124.1511
G1 X-51.4665 Y-129.29
G1 X-54.8982 Y-134.4645
G1 X-58.4124 Y-139.5116
G1 X-61.9684 Y-144.2674
G1 X-65.5232 Y-148.5666
G1 X-69.0291 Y-152.2426
G1 X-72.4913 Y-155.1805
G3 X-72.5151 Y-155.2014 I0.647 J-0.7625
G1 X-74.3582 Y-156.8688
G1 X-76.062 Y-158.3265
G1 X-77.6484 Y-159.604
G1 X-79.1298 Y-160.7227
G1 X-80.5191 Y-161.7041
G1 X-81.8296 Y-162.5696
G1 X-83.0749 Y-163.3407
G1 X-84.2689 Y-164.039
G1 X-85.4256 Y-164.6859
G1 X-86.5587 Y-165.3025
G1 X-87.2915 Y-165.6992
G1 X-86.9075 Y-165.2661
G3 X-86.8993 Y-165.2567 I-0.7483 J0.6634
G1 X-85.8048 Y-163.9908
G3 X-85.7966 Y-163.9812 I-0.7565 J0.654
G1 X-84.7849 Y-162.7808
G3 X-84.7767 Y-162.771 I-0.7646 J0.6444
G1 X-83.8438 Y-161.6351
G3 X-83.8358 Y-161.6251 I-0.7728 J0.6347
G1 X-82.9777 Y-160.5527
G3 X-82.9698 Y-160.5427 I-0.7808 J0.6247
G1 X-82.1827 Y-159.5328
G3 X-82.175 Y-159.5229 I-0.7887 J0.6148
G1 X-81.4548 Y-158.5746
G3 X-81.4475 Y-158.5649 I-0.7964 J0.6048
G1 X-80.7902 Y-157.6772
G3 X-80.7833 Y-157.6678 I-0.8037 J0.5951
G1 X-80.1851 Y-156.8398
G3 X-80.1788 Y-156.831 I-0.8106 J0.5856
G1 X-79.6357 Y-156.0617
G3 X-79.6301 Y-156.0537 I-0.8169 J0.5768
G1 X-79.138 Y-155.3422
G3 X-79.1334 Y-155.3354 I-0.8225 J0.5688
G1 X-78.6885 Y-154.6807
G3 X-78.6852 Y-154.6757 I-0.8271 J0.562
G1 X-78.2835 Y-154.0768
G3 X-78.2594 Y-154.0391 I-0.8305 J0.557
G1 X-76.5627 Y-151.247
G3 X-76.535 Y-151.1984 I-0.8546 J0.5193
G1 X-75.2692 Y-148.8256
G3 X-75.2362 Y-148.7577 I-0.8823 J0.4707
G1 X-74.3633 Y-146.7742
G3 X-74.3258 Y-146.6753 I-0.9153 J0.4028
G1 X-73.8078 Y-145.0511
G3 X-73.7724 Y-144.9007 I-0.9527 J0.3039
G1 X-73.5713 Y-143.6059
G3 X-73.5625 Y-143.3744 I-0.9882 J0.1534
G1 X-73.6404 Y-142.3789
G3 X-73.7218 Y-142.0548 I-0.997 J-0.078
G1 X-74.0407 Y-141.3287
G3 X-74.2743 Y-140.9995 I-0.9156 J-0.4021
G1 X-74.7963 Y-140.5128
G3 X-75.1039 Y-140.3168 I-0.682 J-0.7314
G1 X-75.791 Y-140.0395
G3 X-76.0459 Y-139.9739 I-0.3743 J-0.9273
G1 X-76.86 Y-139.876
G3 X-77.0363 Y-139.8704 I-0.1195 J-0.9928
G1 X-77.9396 Y-139.9219
G3 X-78.059 Y-139.9359 I0.0569 J-0.9984
G1 X-79.0135 Y-140.1067
G3 X-79.097 Y-140.1254 I0.1762 J-0.9844
G1 X-79.2201 Y-140.1585
G1 X-77.957 Y-138.6702
G3 X-77.9121 Y-138.6131 I-0.7624 J0.6471
G1 X-74.6689 Y-134.1751
G3 X-74.6285 Y-134.1154 I-0.8074 J0.59
G1 X-71.8507 Y-129.6754
G3 X-71.8137 Y-129.611 I-0.8478 J0.5304
G1 X-69.5217 Y-125.2592
G3 X-69.4871 Y-125.1866 I-0.8848 J0.466
G1 X-67.7014 Y-121.0135
G3 X-67.669 Y-120.927 I-0.9194 J0.3934
G1 X-66.41 Y-117.0227
G3 X-66.3813 Y-116.9126 I-0.9517 J0.3069
G1 X-65.6694 Y-113.3675
G3 X-65.6509 Y-113.2172 I-0.9804 J0.1969
G1 X-65.5066 Y-110.1215
G3 X-65.5203 Y-109.9039 I-0.9989 J0.0466
G1 X-65.964 Y-107.348
G3 X-66.0717 Y-107.0396 I-0.9853 J-0.171
G1 X-67.1239 Y-105.1137
G3 X-67.4187 Y-104.7805 I-0.8776 J-0.4794
G1 X-69.0997 Y-103.5749
G3 X-69.5154 Y-103.4016 I-0.5828 J-0.8126
G1 X-71.8458 Y-103.0066
G3 X-72.1792 Y-103.0065 I-0.1671 J-0.9859
G1 X-75.1794 Y-103.5124
G3 X-75.389 Y-103.5719 I0.1663 J-0.9861
G1 X-79.0795 Y-105.069
G3 X-79.2091 Y-105.1328 I0.3759 J-0.9267
G1 X-83.6101 Y-107.7114
G3 X-83.6946 Y-107.7669 I0.5055 J-0.8628
G1 X-85.8061 Y-109.3098
G1 X-85.7504 Y-109.1905
G1 X-85.1971 Y-108.0904
G1 X-84.5992 Y-107.0002
G1 X-83.9387 Y-105.9026
G1 X-83.1974 Y-104.7804
G1 X-82.3567 Y-103.6171
G1 X-81.3982 Y-102.3963
G1 X-80.3039 Y-101.1025
G1 X-79.0557 Y-99.7208
G1 X-77.636 Y-98.2363
G1 X-76.0277 Y-96.6344
G1 X-74.2133 Y-94.9006
G1 X-72.1759 Y-93.0204
G1 X-69.8939 Y-90.975
G3 X-69.8414 Y-90.9243 I-0.6674 J0.7447
G1 X-68.5195 Y-89.553
G3 X-68.471 Y-89.4989 I-0.72 J0.694
G1 X-67.116 Y-87.8718
G3 X-67.0794 Y-87.825 I-0.7684 J0.6399
G1 X-65.7289 Y-85.992
G3 X-65.6985 Y-85.9484 I-0.8051 J0.5932
G1 X-64.3899 Y-83.959
G3 X-64.3627 Y-83.9153 I-0.8355 J0.5496
G1 X-63.1335 Y-81.8193
G3 X-63.1077 Y-81.7725 I-0.8626 J0.5059
G1 X-61.9952 Y-79.6195
G3 X-61.9695 Y-79.5659 I-0.8884 J0.459
G1 X-61.0114 Y-77.4056
G3 X-60.9852 Y-77.3405 I-0.9141 J0.4054
G1 X-60.2188 Y-75.2226
G3 X-60.1926 Y-75.1386 I-0.9403 J0.3403
G1 X-59.6554 Y-73.1129
G3 X-59.6322 Y-72.9987 I-0.9666 J0.2563
G1 X-59.3617 Y-71.1147
G3 X-59.3518 Y-70.9526 I-0.9899 J0.1421
G1 X-59.3855 Y-69.2601
G3 X-59.4171 Y-69.0296 I-0.9998 J-0.0199
G1 X-59.7925 Y-67.5782
G3 X-59.9222 Y-67.2836 I-0.9682 J-0.2504
G1 X-60.6766 Y-66.1229
G3 X-60.9414 Y-65.8489 I-0.8384 J-0.545
G1 X-62.1124 Y-65.0287
G3 X-62.4303 Y-64.8811 I-0.5737 J-0.8191
G1 X-64.0553 Y-64.4511
G3 X-64.3157 Y-64.4179 I-0.2558 J-0.9667
G1 X-66.4322 Y-64.4277
G3 X-66.5784 Y-64.4392 I0.0047 J-1.0
G1 X-67.72 Y-64.6133
G3 X-67.7721 Y-64.6227 I0.1508 J-0.9886
G1 X-68.8086 Y-64.8376
G3 X-68.8657 Y-64.8512 I0.203 J-0.9792
G1 X-69.8082 Y-65.105
G3 X-69.8689 Y-65.1234 I0.26 J-0.9656
G1 X-70.7283 Y-65.4144
G3 X-70.7906 Y-65.4378 I0.3207 J-0.9472
G1 X-71.5781 Y-65.7643
G3 X-71.6394 Y-65.7922 I0.383 J-0.9237
G1 X-72.3659 Y-66.1524
G3 X-72.4233 Y-66.1832 I0.4442 J-0.8959
G1 X-73.0998 Y-66.5755
G3 X-73.1507 Y-66.6071 I0.5016 J-0.8651
G1 X-73.7883 Y-67.0297
G3 X-73.8307 Y-67.0593 I0.5524 J-0.8336
G1 X-74.4405 Y-67.5105
G3 X-74.4733 Y-67.5359 I0.5948 J-0.8039
G1 X-75.0662 Y-68.0139
G3 X-75.0893 Y-68.0331 I0.6276 J-0.7785
G1 X-75.1533 Y-68.0879
G1 X-74.438 Y-67.0335
G1 X-73.4408 Y-65.644
G1 X-72.3377 Y-64.1786
G1 X-71.1449 Y-62.6607
G1 X-69.8784 Y-61.1135
G1 X-68.5543 Y-59.5599
G1 X-67.1887 Y-58.0227
G1 X-65.7976 Y-56.5249
G1 X-64.3973 Y-55.0894
G1 X-63.0046 Y-53.7392
G1 X-61.6217 Y-52.484
G3 X-61.509 Y-52.3633 I-0.6721 J0.7405
G1 X-60.472 Y-51.05
G3 X-60.46 Y-51.0346 I-0.7848 J0.6197
G1 X-59.5203 Y-49.7956
G3 X-59.505 Y-49.7748 I-0.7968 J0.6043
G1 X-58.6554 Y-48.5925
G3 X-58.637 Y-48.566 I-0.8121 J0.5835
G1 X-57.8702 Y-47.4227
G3 X-57.8493 Y-47.3903 I-0.8305 J0.557
G1 X-57.1581 Y-46.2686
G3 X-57.1359 Y-46.2307 I-0.8513 J0.5246
G1 X-56.513 Y-45.1129
G3 X-56.4909 Y-45.0709 I-0.8735 J0.4868
G1 X-55.9289 Y-43.9393
G3 X-55.9082 Y-43.895 I-0.8956 J0.4448
G1 X-55.4 Y-42.7321
G3 X-55.3819 Y-42.6877 I-0.9163 J0.4005
G1 X-54.9202 Y-41.476
G3 X-54.9052 Y-41.4338 I-0.9345 J0.3561
G1 X-54.4827 Y-40.1556
G3 X-54.4709 Y-40.1174 I-0.9495 J0.3138
G1 X-54.0803 Y-38.7551
G3 X-54.0714 Y-38.722 I-0.9613 J0.2756
G1 X-53.7055 Y-37.2581
G3 X-53.6991 Y-37.2306 I-0.9702 J0.2425
G1 X-53.3506 Y-35.6475
G3 X-53.346 Y-35.6255 I-0.9766 J0.215
G1 X-53.0077 Y-33.9056
G3 X-53.0045 Y-33.8887 I-0.9812 J0.193
G1 X-52.6691 Y-32.0143
G3 X-52.6669 Y-32.002 I-0.9844 J0.1762
G1 X-52.3302 Y-29.9744
G1 X-51.6603 Y-26.715
G1 X-50.9213 Y-23.7625
G1 X-50.1156 Y-21.1081
G1 X-49.2461 Y-18.7421
G1 X-48.3161 Y-16.6545
G1 X-47.3293 Y-14.8348
G1 X-46.29 Y-13.2715
G1 X-45.202 Y-11.9516
G1 X-44.068 Y-10.8603
G1 X-42.8886 Y-9.9814
G1 X-41.6614 Y-9.2985
G1 X-40.381 Y-8.7968
G1 X-39.0412 Y-8.4646
G1 X-37.6471 Y-8.2944
G1 Z-1.6
G1 X-37.9144 Y-8.553
G3 X-37.996 Y-8.6422 I0.6954 J-0.7186
G1 X-38.9568 Y-9.8281
G3 X-39.0116 Y-9.9025 I0.777 J-0.6295
G1 X-39.9743 Y-11.3453
G3 X-40.0135 Y-11.4091 I0.8318 J-0.5551
G1 X-40.9633 Y-13.0929
G3 X-40.9928 Y-13.1493 I0.871 J-0.4913
G1 X-41.9146 Y-15.0585
G3 X-41.9377 Y-15.1101 I0.9005 J-0.4348
G1 X-42.8167 Y-17.2288
G3 X-42.8354 Y-17.2773 I0.9237 J-0.3832
G1 X-43.6565 Y-19.5898
G3 X-43.6719 Y-19.6366 I0.9423 J-0.3346
G1 X-44.4203 Y-22.1271
G3 X-44.433 Y-22.1732 I0.9577 J-0.2878
G1 X-45.0938 Y-24.826
G3 X-45.1042 Y-24.8722 I0.9703 J-0.2417
G1 X-45.6624 Y-27.6715
G3 X-45.6706 Y-27.7183 I0.9807 J-0.1956
G1 X-46.1113 Y-30.6484
G3 X-46.1174 Y-30.6964 I0.9889 J-0.1487
G1 X-46.4257 Y-33.7415
G3 X-46.4295 Y-33.7912 I0.9949 J-0.1007
G1 X-46.5904 Y-36.9355
G3 X-46.5917 Y-36.9871 I0.9987 J-0.0511
G1 X-46.5903 Y-40.2149
G1 Y-40.2148
G1 Y-40.2149
G1 X-46.5901 Y-40.9347
G1 X-46.629 Y-41.7913
G1 X-46.7172 Y-42.7951
G1 X-46.8642 Y-43.931
G1 X-47.0795 Y-45.1849
G1 X-47.3724 Y-46.543
G1 X-47.7523 Y-47.9919
G1 X-48.2286 Y-49.5184
G1 X-48.8104 Y-51.1091
G1 X-49.5071 Y-52.7512
G1 X-50.328 Y-54.4316
G1 X-51.2824 Y-56.1376
G1 X-52.3796 Y-57.8564
G1 X-53.6292 Y-59.5756
G1 X-55.0408 Y-61.2825
G1 X-56.6467 Y-62.9887
G3 X-56.7027 Y-63.0535 I0.7282 J-0.6854
G1 X-56.7737 Y-63.1433
G3 X-55.5554 Y-64.6647 I0.7842 J-0.6205
G1 X-55.438 Y-64.6081
G3 X-55.3443 Y-64.5566 I-0.4341 J0.9009
G1 X-55.0595 Y-64.3796
G3 X-55.0545 Y-64.3764 I-0.5279 J0.8493
G1 X-54.629 Y-64.1085
G1 X-54.0884 Y-63.778
G1 X-53.4519 Y-63.4093
G1 X-52.7408 Y-63.0273
G1 X-51.9781 Y-62.6578
G1 X-51.1883 Y-62.3265
G1 X-50.3982 Y-62.0582
G1 X-49.6374 Y-61.876
G1 X-48.9381 Y-61.7976
G1 X-48.3318 Y-61.831
G1 X-47.8349 Y-61.9719
G1 X-47.4285 Y-62.2211
G1 X-47.0967 Y-62.5962
G1 X-46.865 Y-63.1706
G1 X-46.7824 Y-64.0512
G1 X-46.8795 Y-65.2221
G1 X-47.1515 Y-66.6022
G1 X-47.5728 Y-68.1258
G1 X-48.1123 Y-69.7374
G1 X-48.7374 Y-71.387
G1 X-49.4153 Y-73.0272
G1 X-50.1131 Y-74.6124
G1 X-50.798 Y-76.0977
G1 X-51.4376 Y-77.439
G1 X-51.9996 Y-78.5934
G1 X-52.451 Y-79.5161
G3 X-52.4557 Y-79.5257 I0.8983 J-0.4395
G1 X-52.7625 Y-80.1701
G3 X-52.7876 Y-80.2273 I0.9029 J-0.4299
G1 X-52.9168 Y-80.549
G3 X-51.5064 Y-81.7976 I0.9279 J-0.3727
G1 X-51.4254 Y-81.753
G3 X-51.1458 Y-81.5246 I-0.4825 J0.8759
G1 X-50.8446 Y-81.1701
G1 X-50.4915 Y-80.7859
G1 X-50.0843 Y-80.3755
G1 X-49.6352 Y-79.9581
G1 X-49.1563 Y-79.5525
G1 X-48.6607 Y-79.1772
G1 X-48.1631 Y-78.8504
G1 X-47.6805 Y-78.5892
G1 X-47.2337 Y-78.408
G1 X-46.8467 Y-78.3142
G1 X-46.5389 Y-78.3017
G1 X-46.305 Y-78.352
G1 X-46.1002 Y-78.4653
G1 X-45.8776 Y-78.6926
G1 X-45.6364 Y-79.1055
G1 X-45.4098 Y-79.7488
G1 X-45.2238 Y-80.6934
G1 X-45.1011 Y-81.9053
G1 X-45.0419 Y-83.327
G1 X-45.0405 Y-84.9045
G1 X-45.0888 Y-86.589
G1 X-45.1778 Y-88.3344
G1 X-45.2985 Y-90.096
G1 X-45.4414 Y-91.8297
G1 X-45.5974 Y-93.4916
G1 X-45.757 Y-95.0385
G1 X-45.9108 Y-96.427
G1 X-46.0496 Y-97.6142
G1 X-46.164 Y-98.5579
G1 X-46.2446 Y-99.2148
G3 X-46.2456 Y-99.2227 I0.9925 J-0.1219
G1 X-46.2829 Y-99.5486
G3 X-44.3356 Y-99.9629 I0.9935 J-0.1139
G1 X-44.3202 Y-99.914
G3 X-44.2971 Y-99.827 I-0.9538 J0.3003
G1 X-44.0804 Y-98.8344
G1 X-43.7348 Y-97.5258
G1 X-43.2689 Y-95.9196
G1 X-42.6997 Y-94.0663
G1 X-42.0434 Y-92.012
G1 X-41.3161 Y-89.8015
G1 X-40.5334 Y-87.4788
G1 X-39.7112 Y-85.0879
G1 X-38.8651 Y-82.6722
G1 X-38.0108 Y-80.2755
G1 X-37.164 Y-77.9413
G1 X-36.3404 Y-75.7134
G1 X-35.5558 Y-73.6354
G1 X-34.8261 Y-71.7517
G1 X-34.1677 Y-70.107
G1 X-33.599 Y-68.7512
G1 X-32.49 Y-66.3355
G1 X-31.8209 Y-65.1055
G1 X-31.8124 Y-65.3527
G1 X-31.872 Y-66.7743
G1 X-32.0114 Y-68.4402
G1 X-32.209 Y-70.2515
G1 X-32.4423 Y-72.117
G1 X-32.6889 Y-73.9485
G1 X-32.9261 Y-75.6586
G3 X-32.9263 Y-75.6606 I0.9905 J-0.1374
G1 X-33.1313 Y-77.1607
G3 X-33.1328 Y-77.1723 I0.9908 J-0.1354
G1 X-33.2827 Y-78.374
G3 X-33.2865 Y-78.4097 I0.9923 J-0.1238
G1 X-33.3588 Y-79.227
G3 X-33.2818 Y-79.709 I0.9961 J-0.0881
G1 X-33.1979 Y-79.905
G3 X-31.409 Y-80.0047 I0.9192 J0.3938
G1 X-31.1264 Y-79.5068
G3 X-31.0697 Y-79.3897 I-0.8697 J0.4936
G1 X-30.617 Y-78.2758
G3 X-30.6025 Y-78.2378 I-0.9264 J0.3765
G1 X-30.0081 Y-76.5856
G3 X-30.0009 Y-76.5648 I-0.941 J0.3385
G1 X-29.2932 Y-74.4522
G3 X-29.2883 Y-74.4372 I-0.9482 J0.3176
G1 X-28.4958 Y-71.942
G3 X-28.4919 Y-71.9295 I-0.9531 J0.3027
G1 X-27.6429 Y-69.1294
G3 X-27.6394 Y-69.1175 I-0.957 J0.2902
G1 X-26.7625 Y-66.0905
G3 X-26.759 Y-66.0783 I-0.9605 J0.2783
G1 X-25.8825 Y-62.9021
G3 X-25.8789 Y-62.8887 I-0.964 J0.266
G1 X-25.0312 Y-59.6411
G3 X-25.0272 Y-59.6255 I-0.9676 J0.2526
G1 X-24.2369 Y-56.3844
G3 X-24.2324 Y-56.3653 I-0.9715 J0.2369
G1 X-23.5278 Y-53.2085
G3 X-23.5226 Y-53.1841 I-0.976 J0.2179
G1 X-22.9321 Y-50.1894
G3 X-22.9262 Y-50.1564 I-0.9811 J0.1935
G1 X-22.4783 Y-47.4016
G3 X-22.4717 Y-47.354 I-0.987 J0.1605
G1 X-22.1948 Y-44.9169
G3 X-22.1891 Y-44.8419 I-0.9936 J0.1129
G1 X-22.1116 Y-42.8003
G3 X-22.111 Y-42.7512 I-0.9993 J0.0379
G1 X-22.1356 Y-40.5603
G3 Y-40.5599 I-0.9999 J-0.0112
G1 X-22.1611 Y-38.3859
G3 Y-38.3816 I-0.9999 J-0.0117
G1 X-22.1958 Y-36.2233
G3 X-22.196 Y-36.215 I-0.9999 J-0.0161
G1 X-22.2482 Y-34.0713
G3 X-22.2486 Y-34.059 I-0.9997 J-0.0244
G1 X-22.3267 Y-31.9287
G3 X-22.3274 Y-31.9124 I-0.9993 J-0.0366
G1 X-22.4397 Y-29.7941
G3 X-22.441 Y-29.7738 I-0.9986 J-0.0529
G1 X-22.5957 Y-27.6666
G3 X-22.5978 Y-27.6423 I-0.9973 J-0.0732
G1 X-22.8033 Y-25.5449
G3 X-22.8064 Y-25.5167 I-0.9952 J-0.0975
G1 X-23.0711 Y-23.4279
G3 X-23.0756 Y-23.396 I-0.9921 J-0.1257
G1 X-23.4077 Y-21.3147
G3 X-23.414 Y-21.2794 I-0.9875 J-0.1575
G1 X-23.8218 Y-19.2043
G3 X-23.8301 Y-19.1659 I-0.9812 J-0.1928
G1 X-24.322 Y-17.0959
G3 X-24.3326 Y-17.055 I-0.9729 J-0.2312
G1 X-24.9168 Y-14.9889
G3 X-24.93 Y-14.946 I-0.9623 J-0.2721
G1 X-25.615 Y-12.8826
G3 X-25.6308 Y-12.8383 I-0.9491 J-0.315
G1 X-26.0272 Y-11.809
G1 X-25.7525 Y-12.0603
G1 X-24.9589 Y-12.8774
G1 X-24.1697 Y-13.7732
G1 X-23.3989 Y-14.7255
G1 X-22.6598 Y-15.7121
G1 X-21.9652 Y-16.7112
G1 X-21.3277 Y-17.7003
G1 X-20.7599 Y-18.6569
G1 X-20.2743 Y-19.5572
G1 X-19.8839 Y-20.3752
G1 X-19.6021 Y-21.0797
G1 X-19.4414 Y-21.6256
G1 X-19.391 Y-22.0109
G1 X-19.421 Y-24.4823
G3 Y-24.506 I0.9999 J-0.0121
G1 X-19.3879 Y-27.3674
G3 X-19.3875 Y-27.3865 I0.9999 J0.0116
G1 X-19.2909 Y-30.536
G3 X-19.2903 Y-30.5522 I0.9995 J0.0307
G1 X-19.1305 Y-33.9591
G3 X-19.1297 Y-33.9734 I0.9989 J0.0469
G1 X-18.907 Y-37.6068
G3 X-18.9061 Y-37.6199 I0.9981 J0.0612
G1 X-18.6209 Y-41.4492
G3 X-18.6199 Y-41.4616 I0.9972 J0.0743
G1 X-18.2725 Y-45.456
G3 X-18.2713 Y-45.468 I0.9962 J0.0867
G1 X-17.862 Y-49.5967
G3 X-17.8608 Y-49.6086 I0.9951 J0.0986
G1 X-17.39 Y-53.841
G3 X-17.3885 Y-53.853 I0.9939 J0.1106
G1 X-16.8565 Y-58.1582
G3 X-16.8549 Y-58.1707 I0.9925 J0.1226
G1 X-16.262 Y-62.5178
G3 X-16.2601 Y-62.531 I0.9908 J0.1351
G1 X-15.6067 Y-66.8895
G3 X-15.6045 Y-66.9035 I0.9889 J0.1483
G1 X-14.8909 Y-71.2426
G3 X-14.8883 Y-71.2578 I0.9867 J0.1623
G1 X-14.1148 Y-75.5467
G3 X-14.1117 Y-75.5634 I0.9841 J0.1775
G1 X-13.5025 Y-78.6406
G1 X-13.8195 Y-78.0647
G3 X-13.829 Y-78.0478 I-0.8761 J-0.4822
G1 X-14.2872 Y-77.2522
G3 X-14.305 Y-77.2224 I-0.8666 J-0.4991
G1 X-14.7909 Y-76.4426
G3 X-14.8185 Y-76.4007 I-0.8488 J-0.5288
G1 X-15.3422 Y-75.6472
G3 X-15.3816 Y-75.5943 I-0.8212 J-0.5707
G1 X-15.9533 Y-74.8776
G3 X-16.0069 Y-74.8158 I-0.7817 J-0.6236
G1 X-16.6368 Y-74.1466
G3 X-16.7064 Y-74.0796 I-0.7282 J-0.6854
G1 X-17.4047 Y-73.4683
G3 X-17.4907 Y-73.401 I-0.6586 J-0.7525
G1 X-18.2676 Y-72.8582
G3 X-18.3682 Y-72.7965 I-0.5727 J-0.8198
G1 X-19.2339 Y-72.3327
G3 X-19.3445 Y-72.2819 I-0.4722 J-0.8815
G1 X-20.3093 Y-71.9077
G3 X-20.5432 Y-71.8482 I-0.3616 J-0.9323
G1 X-20.9752 Y-71.7926
G3 X-21.1297 Y-71.7847 I-0.1277 J-0.9918
G1 X-21.5528 Y-71.796
G3 X-21.7192 Y-71.8145 I0.0267 J-0.9996
G1 X-22.1296 Y-71.8953
G3 X-22.2981 Y-71.9442 I0.1932 J-0.9812
G1 X-22.6919 Y-72.097
G3 X-22.8501 Y-72.175 I0.3617 J-0.9323
G1 X-23.2235 Y-72.4023
G3 X-23.3605 Y-72.5026 I0.5199 J-0.8542
G1 X-23.7097 Y-72.8069
G3 X-23.8196 Y-72.919 I0.657 J-0.7539
G1 X-24.1408 Y-73.3028
G3 X-24.2233 Y-73.4169 I0.7669 J-0.6418
G1 X-24.5127 Y-73.8828
G3 X-24.5714 Y-73.9917 I0.8494 J-0.5277
G1 X-24.8252 Y-74.5421
G3 X-24.8649 Y-74.6421 I0.9081 J-0.4187
G1 X-25.0793 Y-75.2796
G3 X-25.1049 Y-75.3692 I0.9478 J-0.3188
G1 X-25.276 Y-76.0963
G3 X-25.2914 Y-76.1756 I0.9734 J-0.2292
G1 X-25.4155 Y-76.9948
G3 X-25.4236 Y-77.0646 I0.9887 J-0.1498
G1 X-25.4969 Y-77.9784
G3 X-25.5 Y-78.0399 I0.9968 J-0.08
G1 X-25.5186 Y-79.0508
G3 X-25.5182 Y-79.1051 I0.9998 J-0.0185
G1 X-25.4784 Y-80.2157
G3 X-25.4755 Y-80.2637 I0.9994 J0.0358
G1 X-25.3799 Y-81.4002
G1 X-25.4376 Y-82.2364
G3 X-25.4398 Y-82.2924 I0.9976 J-0.0687
G1 X-25.4519 Y-83.2379
G3 X-25.4514 Y-83.2835 I0.9999 J-0.0127
G1 X-25.4189 Y-84.2711
G3 X-25.4171 Y-84.3061 I0.9995 J0.0329
G1 X-25.3464 Y-85.3448
G3 X-25.3443 Y-85.3699 I0.9977 J0.068
G1 X-25.2417 Y-86.4689
G3 X-25.24 Y-86.4851 I0.9957 J0.093
G1 X-25.1117 Y-87.6535
G3 X-25.1107 Y-87.662 I0.994 J0.1092
G1 X-24.963 Y-88.909
G3 X-24.9628 Y-88.9109 I0.9931 J0.1176
G1 X-24.8023 Y-90.244
G1 X-24.6354 Y-91.67
G1 X-24.4685 Y-93.1981
G1 X-24.3076 Y-94.8383
G1 X-24.1588 Y-96.6005
G1 X-24.0284 Y-98.4944
G1 X-23.9224 Y-100.5296
G1 X-23.8473 Y-102.7156
G1 X-23.8108 Y-104.9593
G1 X-24.2993 Y-107.2913
G1 X-24.8252 Y-109.4416
G1 X-25.3662 Y-111.3368
G1 X-25.9201 Y-112.9987
G1 X-26.4845 Y-114.4498
G1 X-27.0574 Y-115.7128
G1 X-27.637 Y-116.8115
G1 X-28.2223 Y-117.7703
G1 X-28.8136 Y-118.6142
G1 X-29.4123 Y-119.3684
G1 X-30.0206 Y-120.0577
G1 X-30.4555 Y-120.5125
G1 X-30.3561 Y-120.1767
G1 X-30.032 Y-119.09
G3 X-30.0311 Y-119.0871 I-0.9583 J0.2859
G1 X-29.7408 Y-118.1029
G3 X-29.738 Y-118.0934 I-0.9591 J0.2829
G1 X-29.481 Y-117.1891
G3 X-29.4762 Y-117.1717 I-0.9619 J0.2734
G1 X-29.2516 Y-116.3235
G3 X-29.2452 Y-116.2979 I-0.9667 J0.256
G1 X-29.0521 Y-115.4822
G3 X-29.0449 Y-115.4492 I-0.9731 J0.2304
G1 X-28.8824 Y-114.6422
G3 X-28.8755 Y-114.6043 I-0.9803 J0.1974
G1 X-28.7428 Y-113.7824
G3 X-28.7372 Y-113.7428 I-0.9872 J0.1594
G1 X-28.6333 Y-112.8822
G3 X-28.6295 Y-112.8444 I-0.9928 J0.1198
G1 X-28.5536 Y-111.9215
G3 X-28.5514 Y-111.8878 I-0.9966 J0.082
G1 X-28.5026 Y-110.8789
G3 X-28.5016 Y-110.8508 I-0.9988 J0.0483
G1 X-28.479 Y-109.7321
G3 X-28.4788 Y-109.7096 I-0.9998 J0.0202
G1 X-28.4816 Y-108.4575
G3 X-28.4818 Y-108.4405 I-1.0 J-0.0023
G1 X-28.5089 Y-107.0312
G3 X-28.5242 Y-106.8756 I-0.9998 J-0.0193
G1 X-28.9744 Y-104.3409
G3 X-29.2128 Y-103.85 I-0.9846 J-0.1749
G1 X-30.1344 Y-102.8172
G3 X-31.1016 Y-102.5077 I-0.7461 J-0.6658
G1 X-32.4563 Y-102.8148
G3 X-32.8823 Y-103.0276 I0.2211 J-0.9753
G1 X-34.6317 Y-104.5124
G3 X-34.7495 Y-104.6307 I0.6471 J-0.7624
G1 X-36.8555 Y-107.1311
G3 X-36.9011 Y-107.1895 I0.7649 J-0.6442
G1 X-39.3254 Y-110.5433
G3 X-39.3463 Y-110.5734 I0.8104 J-0.5858
G1 X-42.0506 Y-114.6187
G3 X-42.0599 Y-114.633 I0.8313 J-0.5558
G1 X-45.006 Y-119.2075
G3 X-45.0085 Y-119.2114 I0.8407 J-0.5414
G1 X-48.1567 Y-124.1511
G1 X-51.4665 Y-129.29
G1 X-54.8982 Y-134.4645
G1 X-58.4124 Y-139.5116
G1 X-61.9684 Y-144.2674
G1 X-65.5232 Y-148.5666
G1 X-69.0291 Y-152.2426
G1 X-72.4913 Y-155.1805
G3 X-72.5151 Y-155.2014 I0.647 J-0.7625
G1 X-74.3582 Y-156.8688
G1 X-76.062 Y-158.3265
G1 X-77.6484 Y-159.604
G1 X-79.1298 Y-160.7227
G1 X-80.5191 Y-161.7041
G1 X-81.8296 Y-162.5696
G1 X-83.0749 Y-163.3407
G1 X-84.2689 Y-164.039
G1 X-85.4256 Y-164.6859
G1 X-86.5587 Y-165.3025
G1 X-87.2915 Y-165.6992
G1 X-86.9075 Y-165.2661
G3 X-86.8993 Y-165.2567 I-0.7483 J0.6634
G1 X-85.8048 Y-163.9908
G3 X-85.7966 Y-163.9812 I-0.7565 J0.654
G1 X-84.7849 Y-162.7808
G3 X-84.7767 Y-162.771 I-0.7646 J0.6444
G1 X-83.8438 Y-161.6351
G3 X-83.8358 Y-161.6251 I-0.7728 J0.6347
G1 X-82.9777 Y-160.5527
G3 X-82.9698 Y-160.5427 I-0.7808 J0.6247
G1 X-82.1827 Y-159.5328
G3 X-82.175 Y-159.5229 I-0.7887 J0.6148
G1 X-81.4548 Y-158.5746
G3 X-81.4475 Y-158.5649 I-0.7964 J0.6048
G1 X-80.7902 Y-157.6772
G3 X-80.7833 Y-157.6678 I-0.8037 J0.5951
G1 X-80.1851 Y-156.8398
G3 X-80.1788 Y-156.831 I-0.8106 J0.5856
G1 X-79.6357 Y-156.0617
G3 X-79.6301 Y-156.0537 I-0.8169 J0.5768
G1 X-79.138 Y-155.3422
G3 X-79.1334 Y-155.3354 I-0.8225 J0.5688
G1 X-78.6885 Y-154.6807
G3 X-78.6852 Y-154.6757 I-0.8271 J0.562
G1 X-78.2835 Y-154.0768
G3 X-78.2594 Y-154.0391 I-0.8305 J0.557
G1 X-76.5627 Y-151.247
G3 X-76.535 Y-151.1984 I-0.8546 J0.5193
G1 X-75.2692 Y-148.8256
G3 X-75.2362 Y-148.7577 I-0.8823 J0.4707
G1 X-74.3633 Y-146.7742
G3 X-74.3258 Y-146.6753 I-0.9153 J0.4028
G1 X-73.8078 Y-145.0511
G3 X-73.7724 Y-144.9007 I-0.9527 J0.3039
G1 X-73.5713 Y-143.6059
G3 X-73.5625 Y-143.3744 I-0.9882 J0.1534
G1 X-73.6404 Y-142.3789
G3 X-73.7218 Y-142.0548 I-0.997 J-0.078
G1 X-74.0407 Y-141.3287
G3 X-74.2743 Y-140.9995 I-0.9156 J-0.4021
G1 X-74.7963 Y-140.5128
G3 X-75.1039 Y-140.3168 I-0.682 J-0.7314
G1 X-75.791 Y-140.0395
G3 X-76.0459 Y-139.9739 I-0.3743 J-0.9273
G1 X-76.86 Y-139.876
G3 X-77.0363 Y-139.8704 I-0.1195 J-0.9928
G1 X-77.9396 Y-139.9219
G3 X-78.059 Y-139.9359 I0.0569 J-0.9984
G1 X-79.0135 Y-140.1067
G3 X-79.097 Y-140.1254 I0.1762 J-0.9844
G1 X-79.2201 Y-140.1585
G1 X-77.957 Y-138.6702
G3 X-77.9121 Y-138.6131 I-0.7624 J0.6471
G1 X-74.6689 Y-134.1751
G3 X-74.6285 Y-134.1154 I-0.8074 J0.59
G1 X-71.8507 Y-129.6754
G3 X-71.8137 Y-129.611 I-0.8478 J0.5304
G1 X-69.5217 Y-125.2592
G3 X-69.4871 Y-125.1866 I-0.8848 J0.466
G1 X-67.7014 Y-121.0135
G3 X-67.669 Y-120.927 I-0.9194 J0.3934
G1 X-66.41 Y-117.0227
G3 X-66.3813 Y-116.9126 I-0.9517 J0.3069
G1 X-65.6694 Y-113.3675
G3 X-65.6509 Y-113.2172 I-0.9804 J0.1969
G1 X-65.5066 Y-110.1215
G3 X-65.5203 Y-109.9039 I-0.9989 J0.0466
G1 X-65.964 Y-107.348
G3 X-66.0717 Y-107.0396 I-0.9853 J-0.171
G1 X-67.1239 Y-105.1137
G3 X-67.4187 Y-104.7805 I-0.8776 J-0.4794
G1 X-69.0997 Y-103.5749
G3 X-69.5154 Y-103.4016 I-0.5828 J-0.8126
G1 X-71.8458 Y-103.0066
G3 X-72.1792 Y-103.0065 I-0.1671 J-0.9859
G1 X-75.1794 Y-103.5124
G3 X-75.389 Y-103.5719 I0.1663 J-0.9861
G1 X-79.0795 Y-105.069
G3 X-79.2091 Y-105.1328 I0.3759 J-0.9267
G1 X-83.6101 Y-107.7114
G3 X-83.6946 Y-107.7669 I0.5055 J-0.8628
G1 X-85.8061 Y-109.3098
G1 X-85.7504 Y-109.1905
G1 X-85.1971 Y-108.0904
G1 X-84.5992 Y-107.0002
G1 X-83.9387 Y-105.9026
G1 X-83.1974 Y-104.7804
G1 X-82.3567 Y-103.6171
G1 X-81.3982 Y-102.3963
G1 X-80.3039 Y-101.1025
G1 X-79.0557 Y-99.7208
G1 X-77.636 Y-98.2363
G1 X-76.0277 Y-96.6344
G1 X-74.2133 Y-94.9006
G1 X-72.1759 Y-93.0204
G1 X-69.8939 Y-90.975
G3 X-69.8414 Y-90.9243 I-0.6674 J0.7447
G1 X-68.5195 Y-89.553
G3 X-68.471 Y-89.4989 I-0.72 J0.694
G1 X-67.116 Y-87.8718
G3 X-67.0794 Y-87.825 I-0.7684 J0.6399
G1 X-65.7289 Y-85.992
G3 X-65.6985 Y-85.9484 I-0.8051 J0.5932
G1 X-64.3899 Y-83.959
G3 X-64.3627 Y-83.9153 I-0.8355 J0.5496
G1 X-63.1335 Y-81.8193
G3 X-63.1077 Y-81.7725 I-0.8626 J0.5059
G1 X-61.9952 Y-79.6195
G3 X-61.9695 Y-79.5659 I-0.8884 J0.459
G1 X-61.0114 Y-77.4056
G3 X-60.9852 Y-77.3405 I-0.9141 J0.4054
G1 X-60.2188 Y-75.2226
G3 X-60.1926 Y-75.1386 I-0.9403 J0.3403
G1 X-59.6554 Y-73.1129
G3 X-59.6322 Y-72.9987 I-0.9666 J0.2563
G1 X-59.3617 Y-71.1147
G3 X-59.3518 Y-70.9526 I-0.9899 J0.1421
G1 X-59.3855 Y-69.2601
G3 X-59.4171 Y-69.0296 I-0.9998 J-0.0199
G1 X-59.7925 Y-67.5782
G3 X-59.9222 Y-67.2836 I-0.9682 J-0.2504
G1 X-60.6766 Y-66.1229
G3 X-60.9414 Y-65.8489 I-0.8384 J-0.545
G1 X-62.1124 Y-65.0287
G3 X-62.4303 Y-64.8811 I-0.5737 J-0.8191
G1 X-64.0553 Y-64.4511
G3 X-64.3157 Y-64.4179 I-0.2558 J-0.9667
G1 X-66.4322 Y-64.4277
G3 X-66.5784 Y-64.4392 I0.0047 J-1.0
G1 X-67.72 Y-64.6133
G3 X-67.7721 Y-64.6227 I0.1508 J-0.9886
G1 X-68.8086 Y-64.8376
G3 X-68.8657 Y-64.8512 I0.203 J-0.9792
G1 X-69.8082 Y-65.105
G3 X-69.8689 Y-65.1234 I0.26 J-0.9656
G1 X-70.7283 Y-65.4144
G3 X-70.7906 Y-65.4378 I0.3207 J-0.9472
G1 X-71.5781 Y-65.7643
G3 X-71.6394 Y-65.7922 I0.383 J-0.9237
G1 X-72.3659 Y-66.1524
G3 X-72.4233 Y-66.1832 I0.4442 J-0.8959
G1 X-73.0998 Y-66.5755
G3 X-73.1507 Y-66.6071 I0.5016 J-0.8651
G1 X-73.7883 Y-67.0297
G3 X-73.8307 Y-67.0593 I0.5524 J-0.8336
G1 X-74.4405 Y-67.5105
G3 X-74.4733 Y-67.5359 I0.5948 J-0.8039
G1 X-75.0662 Y-68.0139
G3 X-75.0893 Y-68.0331 I0.6276 J-0.7785
G1 X-75.1533 Y-68.0879
G1 X-74.438 Y-67.0335
G1 X-73.4408 Y-65.644
G1 X-72.3377 Y-64.1786
G1 X-71.1449 Y-62.6607
G1 X-69.8784 Y-61.1135
G1 X-68.5543 Y-59.5599
G1 X-67.1887 Y-58.0227
G1 X-65.7976 Y-56.5249
G1 X-64.3973 Y-55.0894
G1 X-63.0046 Y-53.7392
G1 X-61.6217 Y-52.484
G3 X-61.509 Y-52.3633 I-0.6721 J0.7405
G1 X-60.472 Y-51.05
G3 X-60.46 Y-51.0346 I-0.7848 J0.6197
G1 X-59.5203 Y-49.7956
G3 X-59.505 Y-49.7748 I-0.7968 J0.6043
G1 X-58.6554 Y-48.5925
G3 X-58.637 Y-48.566 I-0.8121 J0.5835
G1 X-57.8702 Y-47.4227
G3 X-57.8493 Y-47.3903 I-0.8305 J0.557
G1 X-57.1581 Y-46.2686
G3 X-57.1359 Y-46.2307 I-0.8513 J0.5246
G1 X-56.513 Y-45.1129
G3 X-56.4909 Y-45.0709 I-0.8735 J0.4868
G1 X-55.9289 Y-43.9393
G3 X-55.9082 Y-43.895 I-0.8956 J0.4448
G1 X-55.4 Y-42.7321
G3 X-55.3819 Y-42.6877 I-0.9163 J0.4005
G1 X-54.9202 Y-41.476
G3 X-54.9052 Y-41.4338 I-0.9345 J0.3561
G1 X-54.4827 Y-40.1556
G3 X-54.4709 Y-40.1174 I-0.9495 J0.3138
G1 X-54.0803 Y-38.7551
G3 X-54.0714 Y-38.722 I-0.9613 J0.2756
G1 X-53.7055 Y-37.2581
G3 X-53.6991 Y-37.2306 I-0.9702 J0.2425
G1 X-53.3506 Y-35.6475
G3 X-53.346 Y-35.6255 I-0.9766 J0.215
G1 X-53.0077 Y-33.9056
G3 X-53.0045 Y-33.8887 I-0.9812 J0.193
G1 X-52.6691 Y-32.0143
G3 X-52.6669 Y-32.002 I-0.9844 J0.1762
G1 X-52.3302 Y-29.9744
G1 X-51.6603 Y-26.715
G1 X-50.9213 Y-23.7625
G1 X-50.1156 Y-21.1081
G1 X-49.2461 Y-18.7421
G1 X-48.3161 Y-16.6545
G1 X-47.3293 Y-14.8348
G1 X-46.29 Y-13.2715
G1 X-45.202 Y-11.9516
G1 X-44.068 Y-10.8603
G1 X-42.8886 Y-9.9814
G1 X-41.6614 Y-9.2985
G1 X-40.381 Y-8.7968
G1 X-39.0412 Y-8.4646
G1 X-37.6471 Y-8.2944
G1 Z-2.0
G1 X-37.9144 Y-8.553
G3 X-37.996 Y-8.6422 I0.6954 J-0.7186
G1 X-38.9568 Y-9.8281
G3 X-39.0116 Y-9.9025 I0.777 J-0.6295
G1 X-39.9743 Y-11.3453
G3 X-40.0135 Y-11.4091 I0.8318 J-0.5551
G1 X-40.9633 Y-13.0929
G3 X-40.9928 Y-13.1493 I0.871 J-0.4913
G1 X-41.9146 Y-15.0585
G3 X-41.9377 Y-15.1101 I0.9005 J-0.4348
G1 X-42.8167 Y-17.2288
G3 X-42.8354 Y-17.2773 I0.9237 J-0.3832
G1 X-43.6565 Y-19.5898
G3 X-43.6719 Y-19.6366 I0.9423 J-0.3346
G1 X-44.4203 Y-22.1271
G3 X-44.433 Y-22.1732 I0.9577 J-0.2878
G1 X-45.0938 Y-24.826
G3 X-45.1042 Y-24.8722 I0.9703 J-0.2417
G1 X-45.6624 Y-27.6715
G3 X-45.6706 Y-27.7183 I0.9807 J-0.1956
G1 X-46.1113 Y-30.6484
G3 X-46.1174 Y-30.6964 I0.9889 J-0.1487
G1 X-46.4257 Y-33.7415
G3 X-46.4295 Y-33.7912 I0.9949 J-0.1007
G1 X-46.5904 Y-36.9355
G3 X-46.5917 Y-36.9871 I0.9987 J-0.0511
G1 X-46.5903 Y-40.2149
G1 Y-40.2148
G1 Y-40.2149
G1 X-46.5901 Y-40.9347
G1 X-46.629 Y-41.7913
G1 X-46.7172 Y-42.7951
G1 X-46.8642 Y-43.931
G1 X-47.0795 Y-45.1849
G1 X-47.3724 Y-46.543
G1 X-47.7523 Y-47.9919
G1 X-48.2286 Y-49.5184
G1 X-48.8104 Y-51.1091
G1 X-49.5071 Y-52.7512
G1 X-50.328 Y-54.4316
G1 X-51.2824 Y-56.1376
G1 X-52.3796 Y-57.8564
G1 X-53.6292 Y-59.5756
G1 X-55.0408 Y-61.2825
G1 X-56.6467 Y-62.9887
G3 X-56.7027 Y-63.0535 I0.7282 J-0.6854
G1 X-56.7737 Y-63.1433
G3 X-55.5554 Y-64.6647 I0.7842 J-0.6205
G1 X-55.438 Y-64.6081
G3 X-55.3443 Y-64.5566 I-0.4341 J0.9009
G1 X-55.0595 Y-64.3796
G3 X-55.0545 Y-64.3764 I-0.5279 J0.8493
G1 X-54.629 Y-64.1085
G1 X-54.0884 Y-63.778
G1 X-53.4519 Y-63.4093
G1 X-52.7408 Y-63.0273
G1 X-51.9781 Y-62.6578
G1 X-51.1883 Y-62.3265
G1 X-50.3982 Y-62.0582
G1 X-49.6374 Y-61.876
G1 X-48.9381 Y-61.7976
G1 X-48.3318 Y-61.831
G1 X-47.8349 Y-61.9719
G1 X-47.4285 Y-62.2211
G1 X-47.0967 Y-62.5962
G1 X-46.865 Y-63.1706
G1 X-46.7824 Y-64.0512
G1 X-46.8795 Y-65.2221
G1 X-47.1515 Y-66.6022
G1 X-47.5728 Y-68.1258
G1 X-48.1123 Y-69.7374
G1 X-48.7374 Y-71.387
G1 X-49.4153 Y-73.0272
G1 X-50.1131 Y-74.6124
G1 X-50.798 Y-76.0977
G1 X-51.4376 Y-77.439
G1 X-51.9996 Y-78.5934
G1 X-52.451 Y-79.5161
G3 X-52.4557 Y-79.5257 I0.8983 J-0.4395
G1 X-52.7625 Y-80.1701
G3 X-52.7876 Y-80.2273 I0.9029 J-0.4299
G1 X-52.9168 Y-80.549
G3 X-51.5064 Y-81.7976 I0.9279 J-0.3727
G1 X-51.4254 Y-81.753
G3 X-51.1458 Y-81.5246 I-0.4825 J0.8759
G1 X-50.8446 Y-81.1701
G1 X-50.4915 Y-80.7859
G1 X-50.0843 Y-80.3755
G1 X-49.6352 Y-79.9581
G1 X-49.1563 Y-79.5525
G1 X-48.6607 Y-79.1772
G1 X-48.1631 Y-78.8504
G1 X-47.6805 Y-78.5892
G1 X-47.2337 Y-78.408
G1 X-46.8467 Y-78.3142
G1 X-46.5389 Y-78.3017
G1 X-46.305 Y-78.352
G1 X-46.1002 Y-78.4653
G1 X-45.8776 Y-78.6926
G1 X-45.6364 Y-79.1055
G1 X-45.4098 Y-79.7488
G1 X-45.2238 Y-80.6934
G1 X-45.1011 Y-81.9053
G1 X-45.0419 Y-83.327
G1 X-45.0405 Y-84.9045
G1 X-45.0888 Y-86.589
G1 X-45.1778 Y-88.3344
G1 X-45.2985 Y-90.096
G1 X-45.4414 Y-91.8297
G1 X-45.5974 Y-93.4916
G1 X-45.757 Y-95.0385
G1 X-45.9108 Y-96.427
G1 X-46.0496 Y-97.6142
G1 X-46.164 Y-98.5579
G1 X-46.2446 Y-99.2148
G3 X-46.2456 Y-99.2227 I0.9925 J-0.1219
G1 X-46.2829 Y-99.5486
G3 X-44.3356 Y-99.9629 I0.9935 J-0.1139
G1 X-44.3202 Y-99.914
G3 X-44.2971 Y-99.827 I-0.9538 J0.3003
G1 X-44.0804 Y-98.8344
G1 X-43.7348 Y-97.5258
G1 X-43.2689 Y-95.9196
G1 X-42.6997 Y-94.0663
G1 X-42.0434 Y-92.012
G1 X-41.3161 Y-89.8015
G1 X-40.5334 Y-87.4788
G1 X-39.7112 Y-85.0879
G1 X-38.8651 Y-82.6722
G1 X-38.0108 Y-80.2755
G1 X-37.164 Y-77.9413
G1 X-36.3404 Y-75.7134
G1 X-35.5558 Y-73.6354
G1 X-34.8261 Y-71.7517
G1 X-34.1677 Y-70.107
G1 X-33.599 Y-68.7512
G1 X-32.49 Y-66.3355
G1 X-31.8209 Y-65.1055
G1 X-31.8124 Y-65.3527
G1 X-31.872 Y-66.7743
G1 X-32.0114 Y-68.4402
G1 X-32.209 Y-70.2515
G1 X-32.4423 Y-72.117
G1 X-32.6889 Y-73.9485
G1 X-32.9261 Y-75.6586
G3 X-32.9263 Y-75.6606 I0.9905 J-0.1374
G1 X-33.1313 Y-77.1607
G3 X-33.1328 Y-77.1723 I0.9908 J-0.1354
G1 X-33.2827 Y-78.374
G3 X-33.2865 Y-78.4097 I0.9923 J-0.1238
G1 X-33.3588 Y-79.227
G3 X-33.2818 Y-79.709 I0.9961 J-0.0881
G1 X-33.1979 Y-79.905
G3 X-31.409 Y-80.0047 I0.9192 J0.3938
G1 X-31.1264 Y-79.5068
G3 X-31.0697 Y-79.3897 I-0.8697 J0.4936
G1 X-30.617 Y-78.2758
G3 X-30.6025 Y-78.2378 I-0.9264 J0.3765
G1 X-30.0081 Y-76.5856
G3 X-30.0009 Y-76.5648 I-0.941 J0.3385
G1 X-29.2932 Y-74.4522
G3 X-29.2883 Y-74.4372 I-0.9482 J0.3176
G1 X-28.4958 Y-71.942
G3 X-28.4919 Y-71.9295 I-0.9531 J0.3027
G1 X-27.6429 Y-69.1294
G3 X-27.6394 Y-69.1175 I-0.957 J0.2902
G1 X-26.7625 Y-66.0905
G3 X-26.759 Y-66.0783 I-0.9605 J0.2783
G1 X-25.8825 Y-62.9021
G3 X-25.8789 Y-62.8887 I-0.964 J0.266
G1 X-25.0312 Y-59.6411
G3 X-25.0272 Y-59.6255 I-0.9676 J0.2526
G1 X-24.2369 Y-56.3844
G3 X-24.2324 Y-56.3653 I-0.9715 J0.2369
G1 X-23.5278 Y-53.2085
G3 X-23.5226 Y-53.1841 I-0.976 J0.2179
G1 X-22.9321 Y-50.1894
G3 X-22.9262 Y-50.1564 I-0.9811 J0.1935
G1 X-22.4783 Y-47.4016
G3 X-22.4717 Y-47.354 I-0.987 J0.1605
G1 X-22.1948 Y-44.9169
G3 X-22.1891 Y-44.8419 I-0.9936 J0.1129
G1 X-22.1116 Y-42.8003
G3 X-22.111 Y-42.7512 I-0.9993 J0.0379
G1 X-22.1356 Y-40.5603
G3 Y-40.5599 I-0.9999 J-0.0112
G1 X-22.1611 Y-38.3859
G3 Y-38.3816 I-0.9999 J-0.0117
G1 X-22.1958 Y-36.2233
G3 X-22.196 Y-36.215 I-0.9999 J-0.0161
G1 X-22.2482 Y-34.0713
G3 X-22.2486 Y-34.059 I-0.9997 J-0.0244
G1 X-22.3267 Y-31.9287
G3 X-22.3274 Y-31.9124 I-0.9993 J-0.0366
G1 X-22.4397 Y-29.7941
G3 X-22.441 Y-29.7738 I-0.9986 J-0.0529
G1 X-22.5957 Y-27.6666
G3 X-22.5978 Y-27.6423 I-0.9973 J-0.0732
G1 X-22.8033 Y-25.5449
G3 X-22.8064 Y-25.5167 I-0.9952 J-0.0975
G1 X-23.0711 Y-23.4279
G3 X-23.0756 Y-23.396 I-0.9921 J-0.1257
G1 X-23.4077 Y-21.3147
G3 X-23.414 Y-21.2794 I-0.9875 J-0.1575
G1 X-23.8218 Y-19.2043
G3 X-23.8301 Y-19.1659 I-0.9812 J-0.1928
G1 X-24.322 Y-17.0959
G3 X-24.3326 Y-17.055 I-0.9729 J-0.2312
G1 X-24.9168 Y-14.9889
G3 X-24.93 Y-14.946 I-0.9623 J-0.2721
G1 X-25.615 Y-12.8826
G3 X-25.6308 Y-12.8383 I-0.9491 J-0.315
G1 X-26.0272 Y-11.809
G1 X-25.7525 Y-12.0603
G1 X-24.9589 Y-12.8774
G1 X-24.1697 Y-13.7732
G1 X-23.3989 Y-14.7255
G1 X-22.6598 Y-15.7121
G1 X-21.9652 Y-16.7112
G1 X-21.3277 Y-17.7003
G1 X-20.7599 Y-18.6569
G1 X-20.2743 Y-19.5572
G1 X-19.8839 Y-20.3752
G1 X-19.6021 Y-21.0797
G1 X-19.4414 Y-21.6256
G1 X-19.391 Y-22.0109
G1 X-19.421 Y-24.4823
G3 Y-24.506 I0.9999 J-0.0121
G1 X-19.3879 Y-27.3674
G3 X-19.3875 Y-27.3865 I0.9999 J0.0116
G1 X-19.2909 Y-30.536
G3 X-19.2903 Y-30.5522 I0.9995 J0.0307
G1 X-19.1305 Y-33.9591
G3 X-19.1297 Y-33.9734 I0.9989 J0.0469
G1 X-18.907 Y-37.6068
G3 X-18.9061 Y-37.6199 I0.9981 J0.0612
G1 X-18.6209 Y-41.4492
G3 X-18.6199 Y-41.4616 I0.9972 J0.0743
G1 X-18.2725 Y-45.456
G3 X-18.2713 Y-45.468 I0.9962 J0.0867
G1 X-17.862 Y-49.5967
G3 X-17.8608 Y-49.6086 I0.9951 J0.0986
G1 X-17.39 Y-53.841
G3 X-17.3885 Y-53.853 I0.9939 J0.1106
G1 X-16.8565 Y-58.1582
G3 X-16.8549 Y-58.1707 I0.9925 J0.1226
G1 X-16.262 Y-62.5178
G3 X-16.2601 Y-62.531 I0.9908 J0.1351
G1 X-15.6067 Y-66.8895
G3 X-15.6045 Y-66.9035 I0.9889 J0.1483
G1 X-14.8909 Y-71.2426
G3 X-14.8883 Y-71.2578 I0.9867 J0.1623
G1 X-14.1148 Y-75.5467
G3 X-14.1117 Y-75.5634 I0.9841 J0.1775
G1 X-13.5025 Y-78.6406
G1 X-13.8195 Y-78.0647
G3 X-13.829 Y-78.0478 I-0.8761 J-0.4822
G1 X-14.2872 Y-77.2522
G3 X-14.305 Y-77.2224 I-0.8666 J-0.4991
G1 X-14.7909 Y-76.4426
G3 X-14.8185 Y-76.4007 I-0.8488 J-0.5288
G1 X-15.3422 Y-75.6472
G3 X-15.3816 Y-75.5943 I-0.8212 J-0.5707
G1 X-15.9533 Y-74.8776
G3 X-16.0069 Y-74.8158 I-0.7817 J-0.6236
G1 X-16.6368 Y-74.1466
G3 X-16.7064 Y-74.0796 I-0.7282 J-0.6854
G1 X-17.4047 Y-73.4683
G3 X-17.4907 Y-73.401 I-0.6586 J-0.7525
G1 X-18.2676 Y-72.8582
G3 X-18.3682 Y-72.7965 I-0.5727 J-0.8198
G1 X-19.2339 Y-72.3327
G3 X-19.3445 Y-72.2819 I-0.4722 J-0.8815
G1 X-20.3093 Y-71.9077
G3 X-20.5432 Y-71.8482 I-0.3616 J-0.9323
G1 X-20.9752 Y-71.7926
G3 X-21.1297 Y-71.7847 I-0.1277 J-0.9918
G1 X-21.5528 Y-71.796
G3 X-21.7192 Y-71.8145 I0.0267 J-0.9996
G1 X-22.1296 Y-71.8953
G3 X-22.2981 Y-71.9442 I0.1932 J-0.9812
G1 X-22.6919 Y-72.097
G3 X-22.8501 Y-72.175 I0.3617 J-0.9323
G1 X-23.2235 Y-72.4023
G3 X-23.3605 Y-72.5026 I0.5199 J-0.8542
G1 X-23.7097 Y-72.8069
G3 X-23.8196 Y-72.919 I0.657 J-0.7539
G1 X-24.1408 Y-73.3028
G3 X-24.2233 Y-73.4169 I0.7669 J-0.6418
G1 X-24.5127 Y-73.8828
G3 X-24.5714 Y-73.9917 I0.8494 J-0.5277
G1 X-24.8252 Y-74.5421
G3 X-24.8649 Y-74.6421 I0.9081 J-0.4187
G1 X-25.0793 Y-75.2796
G3 X-25.1049 Y-75.3692 I0.9478 J-0.3188
G1 X-25.276 Y-76.0963
G3 X-25.2914 Y-76.1756 I0.9734 J-0.2292
G1 X-25.4155 Y-76.9948
G3 X-25.4236 Y-77.0646 I0.9887 J-0.1498
G1 X-25.4969 Y-77.9784
G3 X-25.5 Y-78.0399 I0.9968 J-0.08
G1 X-25.5186 Y-79.0508
G3 X-25.5182 Y-79.1051 I0.9998 J-0.0185
G1 X-25.4784 Y-80.2157
G3 X-25.4755 Y-80.2637 I0.9994 J0.0358
G1 X-25.3799 Y-81.4002
G1 X-25.4376 Y-82.2364
G3 X-25.4398 Y-82.2924 I0.9976 J-0.0687
G1 X-25.4519 Y-83.2379
G3 X-25.4514 Y-83.2835 I0.9999 J-0.0127
G1 X-25.4189 Y-84.2711
G3 X-25.4171 Y-84.3061 I0.9995 J0.0329
G1 X-25.3464 Y-85.3448
G3 X-25.3443 Y-85.3699 I0.9977 J0.068
G1 X-25.2417 Y-86.4689
G3 X-25.24 Y-86.4851 I0.9957 J0.093
G1 X-25.1117 Y-87.6535
G3 X-25.1107 Y-87.662 I0.994 J0.1092
G1 X-24.963 Y-88.909
G3 X-24.9628 Y-88.9109 I0.9931 J0.1176
G1 X-24.8023 Y-90.244
G1 X-24.6354 Y-91.67
G1 X-24.4685 Y-93.1981
G1 X-24.3076 Y-94.8383
G1 X-24.1588 Y-96.6005
G1 X-24.0284 Y-98.4944
G1 X-23.9224 Y-100.5296
G1 X-23.8473 Y-102.7156
G1 X-23.8108 Y-104.9593
G1 X-24.2993 Y-107.2913
G1 X-24.8252 Y-109.4416
G1 X-25.3662 Y-111.3368
G1 X-25.9201 Y-112.9987
G1 X-26.4845 Y-114.4498
G1 X-27.0574 Y-115.7128
G1 X-27.637 Y-116.8115
G1 X-28.2223 Y-117.7703
G1 X-28.8136 Y-118.6142
G1 X-29.4123 Y-119.3684
G1 X-30.0206 Y-120.0577
G1 X-30.4555 Y-120.5125
G1 X-30.3561 Y-120.1767
G1 X-30.032 Y-119.09
G3 X-30.0311 Y-119.0871 I-0.9583 J0.2859
G1 X-29.7408 Y-118.1029
G3 X-29.738 Y-118.0934 I-0.9591 J0.2829
G1 X-29.481 Y-117.1891
G3 X-29.4762 Y-117.1717 I-0.9619 J0.2734
G1 X-29.2516 Y-116.3235
G3 X-29.2452 Y-116.2979 I-0.9667 J0.256
G1 X-29.0521 Y-115.4822
G3 X-29.0449 Y-115.4492 I-0.9731 J0.2304
G1 X-28.8824 Y-114.6422
G3 X-28.8755 Y-114.6043 I-0.9803 J0.1974
G1 X-28.7428 Y-113.7824
G3 X-28.7372 Y-113.7428 I-0.9872 J0.1594
G1 X-28.6333 Y-112.8822
G3 X-28.6295 Y-112.8444 I-0.9928 J0.1198
G1 X-28.5536 Y-111.9215
G3 X-28.5514 Y-111.8878 I-0.9966 J0.082
G1 X-28.5026 Y-110.8789
G3 X-28.5016 Y-110.8508 I-0.9988 J0.0483
G1 X-28.479 Y-109.7321
G3 X-28.4788 Y-109.7096 I-0.9998 J0.0202
G1 X-28.4816 Y-108.4575
G3 X-28.4818 Y-108.4405 I-1.0 J-0.0023
G1 X-28.5089 Y-107.0312
G3 X-28.5242 Y-106.8756 I-0.9998 J-0.0193
G1 X-28.9744 Y-104.3409
G3 X-29.2128 Y-103.85 I-0.9846 J-0.1749
G1 X-30.1344 Y-102.8172
G3 X-31.1016 Y-102.5077 I-0.7461 J-0.6658
G1 X-32.4563 Y-102.8148
G3 X-32.8823 Y-103.0276 I0.2211 J-0.9753
G1 X-34.6317 Y-104.5124
G3 X-34.7495 Y-104.6307 I0.6471 J-0.7624
G1 X-36.8555 Y-107.1311
G3 X-36.9011 Y-107.1895 I0.7649 J-0.6442
G1 X-39.3254 Y-110.5433
G3 X-39.3463 Y-110.5734 I0.8104 J-0.5858
G1 X-42.0506 Y-114.6187
G3 X-42.0599 Y-114.633 I0.8313 J-0.5558
G1 X-45.006 Y-119.2075
G3 X-45.0085 Y-119.2114 I0.8407 J-0.5414
G1 X-48.1567 Y-124.1511
G1 X-51.4665 Y-129.29
G1 X-54.8982 Y-134.4645
G1 X-58.4124 Y-139.5116
G1 X-61.9684 Y-144.2674
G1 X-65.5232 Y-148.5666
G1 X-69.0291 Y-152.2426
G1 X-72.4913 Y-155.1805
G3 X-72.5151 Y-155.2014 I0.647 J-0.7625
G1 X-74.3582 Y-156.8688
G1 X-76.062 Y-158.3265
G1 X-77.6484 Y-159.604
G1 X-79.1298 Y-160.7227
G1 X-80.5191 Y-161.7041
G1 X-81.8296 Y-162.5696
G1 X-83.0749 Y-163.3407
G1 X-84.2689 Y-164.039
G1 X-85.4256 Y-164.6859
G1 X-86.5587 Y-165.3025
G1 X-87.2915 Y-165.6992
G1 X-86.9075 Y-165.2661
G3 X-86.8993 Y-165.2567 I-0.7483 J0.6634
G1 X-85.8048 Y-163.9908
G3 X-85.7966 Y-163.9812 I-0.7565 J0.654
G1 X-84.7849 Y-162.7808
G3 X-84.7767 Y-162.771 I-0.7646 J0.6444
G1 X-83.8438 Y-161.6351
G3 X-83.8358 Y-161.6251 I-0.7728 J0.6347
G1 X-82.9777 Y-160.5527
G3 X-82.9698 Y-160.5427 I-0.7808 J0.6247
G1 X-82.1827 Y-159.5328
G3 X-82.175 Y-159.5229 I-0.7887 J0.6148
G1 X-81.4548 Y-158.5746
G3 X-81.4475 Y-158.5649 I-0.7964 J0.6048
G1 X-80.7902 Y-157.6772
G3 X-80.7833 Y-157.6678 I-0.8037 J0.5951
G1 X-80.1851 Y-156.8398
G3 X-80.1788 Y-156.831 I-0.8106 J0.5856
G1 X-79.6357 Y-156.0617
G3 X-79.6301 Y-156.0537 I-0.8169 J0.5768
G1 X-79.138 Y-155.3422
G3 X-79.1334 Y-155.3354 I-0.8225 J0.5688
G1 X-78.6885 Y-154.6807
G3 X-78.6852 Y-154.6757 I-0.8271 J0.562
G1 X-78.2835 Y-154.0768
G3 X-78.2594 Y-154.0391 I-0.8305 J0.557
G1 X-76.5627 Y-151.247
G3 X-76.535 Y-151.1984 I-0.8546 J0.5193
G1 X-75.2692 Y-148.8256
G3 X-75.2362 Y-148.7577 I-0.8823 J0.4707
G1 X-74.3633 Y-146.7742
G3 X-74.3258 Y-146.6753 I-0.9153 J0.4028
G1 X-73.8078 Y-145.0511
G3 X-73.7724 Y-144.9007 I-0.9527 J0.3039
G1 X-73.5713 Y-143.6059
G3 X-73.5625 Y-143.3744 I-0.9882 J0.1534
G1 X-73.6404 Y-142.3789
G3 X-73.7218 Y-142.0548 I-0.997 J-0.078
G1 X-74.0407 Y-141.3287
G3 X-74.2743 Y-140.9995 I-0.9156 J-0.4021
G1 X-74.7963 Y-140.5128
G3 X-75.1039 Y-140.3168 I-0.682 J-0.7314
G1 X-75.791 Y-140.0395
G3 X-76.0459 Y-139.9739 I-0.3743 J-0.9273
G1 X-76.86 Y-139.876
G3 X-77.0363 Y-139.8704 I-0.1195 J-0.9928
G1 X-77.9396 Y-139.9219
G3 X-78.059 Y-139.9359 I0.0569 J-0.9984
G1 X-79.0135 Y-140.1067
G3 X-79.097 Y-140.1254 I0.1762 J-0.9844
G1 X-79.2201 Y-140.1585
G1 X-77.957 Y-138.6702
G3 X-77.9121 Y-138.6131 I-0.7624 J0.6471
G1 X-74.6689 Y-134.1751
G3 X-74.6285 Y-134.1154 I-0.8074 J0.59
G1 X-71.8507 Y-129.6754
G3 X-71.8137 Y-129.611 I-0.8478 J0.5304
G1 X-69.5217 Y-125.2592
G3 X-69.4871 Y-125.1866 I-0.8848 J0.466
G1 X-67.7014 Y-121.0135
G3 X-67.669 Y-120.927 I-0.9194 J0.3934
G1 X-66.41 Y-117.0227
G3 X-66.3813 Y-116.9126 I-0.9517 J0.3069
G1 X-65.6694 Y-113.3675
G3 X-65.6509 Y-113.2172 I-0.9804 J0.1969
G1 X-65.5066 Y-110.1215
G3 X-65.5203 Y-109.9039 I-0.9989 J0.0466
G1 X-65.964 Y-107.348
G3 X-66.0717 Y-107.0396 I-0.9853 J-0.171
G1 X-67.1239 Y-105.1137
G3 X-67.4187 Y-104.7805 I-0.8776 J-0.4794
G1 X-69.0997 Y-103.5749
G3 X-69.5154 Y-103.4016 I-0.5828 J-0.8126
G1 X-71.8458 Y-103.0066
G3 X-72.1792 Y-103.0065 I-0.1671 J-0.9859
G1 X-75.1794 Y-103.5124
G3 X-75.389 Y-103.5719 I0.1663 J-0.9861
G1 X-79.0795 Y-105.069
G3 X-79.2091 Y-105.1328 I0.3759 J-0.9267
G1 X-83.6101 Y-107.7114
G3 X-83.6946 Y-107.7669 I0.5055 J-0.8628
G1 X-85.8061 Y-109.3098
G1 X-85.7504 Y-109.1905
G1 X-85.1971 Y-108.0904
G1 X-84.5992 Y-107.0002
G1 X-83.9387 Y-105.9026
G1 X-83.1974 Y-104.7804
G1 X-82.3567 Y-103.6171
G1 X-81.3982 Y-102.3963
G1 X-80.3039 Y-101.1025
G1 X-79.0557 Y-99.7208
G1 X-77.636 Y-98.2363
G1 X-76.0277 Y-96.6344
G1 X-74.2133 Y-94.9006
G1 X-72.1759 Y-93.0204
G1 X-69.8939 Y-90.975
G3 X-69.8414 Y-90.9243 I-0.6674 J0.7447
G1 X-68.5195 Y-89.553
G3 X-68.471 Y-89.4989 I-0.72 J0.694
G1 X-67.116 Y-87.8718
G3 X-67.0794 Y-87.825 I-0.7684 J0.6399
G1 X-65.7289 Y-85.992
G3 X-65.6985 Y-85.9484 I-0.8051 J0.5932
G1 X-64.3899 Y-83.959
G3 X-64.3627 Y-83.9153 I-0.8355 J0.5496
G1 X-63.1335 Y-81.8193
G3 X-63.1077 Y-81.7725 I-0.8626 J0.5059
G1 X-61.9952 Y-79.6195
G3 X-61.9695 Y-79.5659 I-0.8884 J0.459
G1 X-61.0114 Y-77.4056
G3 X-60.9852 Y-77.3405 I-0.9141 J0.4054
G1 X-60.2188 Y-75.2226
G3 X-60.1926 Y-75.1386 I-0.9403 J0.3403
G1 X-59.6554 Y-73.1129
G3 X-59.6322 Y-72.9987 I-0.9666 J0.2563
G1 X-59.3617 Y-71.1147
G3 X-59.3518 Y-70.9526 I-0.9899 J0.1421
G1 X-59.3855 Y-69.2601
G3 X-59.4171 Y-69.0296 I-0.9998 J-0.0199
G1 X-59.7925 Y-67.5782
G3 X-59.9222 Y-67.2836 I-0.9682 J-0.2504
G1 X-60.6766 Y-66.1229
G3 X-60.9414 Y-65.8489 I-0.8384 J-0.545
G1 X-62.1124 Y-65.0287
G3 X-62.4303 Y-64.8811 I-0.5737 J-0.8191
G1 X-64.0553 Y-64.4511
G3 X-64.3157 Y-64.4179 I-0.2558 J-0.9667
G1 X-66.4322 Y-64.4277
G3 X-66.5784 Y-64.4392 I0.0047 J-1.0
G1 X-67.72 Y-64.6133
G3 X-67.7721 Y-64.6227 I0.1508 J-0.9886
G1 X-68.8086 Y-64.8376
G3 X-68.8657 Y-64.8512 I0.203 J-0.9792
G1 X-69.8082 Y-65.105
G3 X-69.8689 Y-65.1234 I0.26 J-0.9656
G1 X-70.7283 Y-65.4144
G3 X-70.7906 Y-65.4378 I0.3207 J-0.9472
G1 X-71.5781 Y-65.7643
G3 X-71.6394 Y-65.7922 I0.383 J-0.9237
G1 X-72.3659 Y-66.1524
G3 X-72.4233 Y-66.1832 I0.4442 J-0.8959
G1 X-73.0998 Y-66.5755
G3 X-73.1507 Y-66.6071 I0.5016 J-0.8651
G1 X-73.7883 Y-67.0297
G3 X-73.8307 Y-67.0593 I0.5524 J-0.8336
G1 X-74.4405 Y-67.5105
G3 X-74.4733 Y-67.5359 I0.5948 J-0.8039
G1 X-75.0662 Y-68.0139
G3 X-75.0893 Y-68.0331 I0.6276 J-0.7785
G1 X-75.1533 Y-68.0879
G1 X-74.438 Y-67.0335
G1 X-73.4408 Y-65.644
G1 X-72.3377 Y-64.1786
G1 X-71.1449 Y-62.6607
G1 X-69.8784 Y-61.1135
G1 X-68.5543 Y-59.5599
G1 X-67.1887 Y-58.0227
G1 X-65.7976 Y-56.5249
G1 X-64.3973 Y-55.0894
G1 X-63.0046 Y-53.7392
G1 X-61.6217 Y-52.484
G3 X-61.509 Y-52.3633 I-0.6721 J0.7405
G1 X-60.472 Y-51.05
G3 X-60.46 Y-51.0346 I-0.7848 J0.6197
G1 X-59.5203 Y-49.7956
G3 X-59.505 Y-49.7748 I-0.7968 J0.6043
G1 X-58.6554 Y-48.5925
G3 X-58.637 Y-48.566 I-0.8121 J0.5835
G1 X-57.8702 Y-47.4227
G3 X-57.8493 Y-47.3903 I-0.8305 J0.557
G1 X-57.1581 Y-46.2686
G3 X-57.1359 Y-46.2307 I-0.8513 J0.5246
G1 X-56.513 Y-45.1129
G3 X-56.4909 Y-45.0709 I-0.8735 J0.4868
G1 X-55.9289 Y-43.9393
G3 X-55.9082 Y-43.895 I-0.8956 J0.4448
G1 X-55.4 Y-42.7321
G3 X-55.3819 Y-42.6877 I-0.9163 J0.4005
G1 X-54.9202 Y-41.476
G3 X-54.9052 Y-41.4338 I-0.9345 J0.3561
G1 X-54.4827 Y-40.1556
G3 X-54.4709 Y-40.1174 I-0.9495 J0.3138
G1 X-54.0803 Y-38.7551
G3 X-54.0714 Y-38.722 I-0.9613 J0.2756
G1 X-53.7055 Y-37.2581
G3 X-53.6991 Y-37.2306 I-0.9702 J0.2425
G1 X-53.3506 Y-35.6475
G3 X-53.346 Y-35.6255 I-0.9766 J0.215
G1 X-53.0077 Y-33.9056
G3 X-53.0045 Y-33.8887 I-0.9812 J0.193
G1 X-52.6691 Y-32.0143
G3 X-52.6669 Y-32.002 I-0.9844 J0.1762
G1 X-52.3302 Y-29.9744
G1 X-51.6603 Y-26.715
G1 X-50.9213 Y-23.7625
G1 X-50.1156 Y-21.1081
G1 X-49.2461 Y-18.7421
G1 X-48.3161 Y-16.6545
G1 X-47.3293 Y-14.8348
G1 X-46.29 Y-13.2715
G1 X-45.202 Y-11.9516
G1 X-44.068 Y-10.8603
G1 X-42.8886 Y-9.9814
G1 X-41.6614 Y-9.2985
G1 X-40.381 Y-8.7968
G1 X-39.0412 Y-8.4646
G1 X-37.6471 Y-8.2944
G0 Z3.0
M5
M30
