( Made using CamBam - http://www.cambam.co.uk )
( flame-mirror 10/20/2014 5:20:51 PM )
( T203 : 2.0 )
G21 G90 G91.1 G64 G40
G0 Z3.0
( T203 : 2.0 )
T203 M6
( Drill1 )
G17
M3 S1000
G0 X30.0 Y0.0
G0 Z3.0
G0 X30.7 Y0.0
G0 Z1.0
G1 F300.0 Z0.0
G2 X29.65 Y-0.6062 Z-0.1333 I-0.7 J0.0
G2 Y0.6062 Z-0.2667 I0.35 J0.6062
G2 X30.7 Y0.0 Z-0.4 I0.35 J-0.6062
G2 X29.65 Y-0.6062 Z-0.5333 I-0.7 J0.0
G2 Y0.6062 Z-0.6667 I0.35 J0.6062
G2 X30.7 Y0.0 Z-0.8 I0.35 J-0.6062
G2 X29.65 Y-0.6062 Z-0.9333 I-0.7 J0.0
G2 Y0.6062 Z-1.0667 I0.35 J0.6062
G2 X30.7 Y0.0 Z-1.2 I0.35 J-0.6062
G2 X29.65 Y-0.6062 Z-1.3333 I-0.7 J0.0
G2 Y0.6062 Z-1.4667 I0.35 J0.6062
G2 X30.7 Y0.0 Z-1.6 I0.35 J-0.6062
G2 X29.65 Y-0.6062 Z-1.7333 I-0.7 J0.0
G2 Y0.6062 Z-1.8667 I0.35 J0.6062
G2 X30.7 Y0.0 Z-2.0 I0.35 J-0.6062
G2 X29.65 Y-0.6062 I-0.7 J0.0
G2 Y0.6062 I0.35 J0.6062
G2 X30.7 Y0.0 I0.35 J-0.6062
G0 Z3.0
G0 X54.7 Y-10.0
G0 Z1.0
G1 Z0.0
G2 X53.65 Y-10.6062 Z-0.1333 I-0.7 J0.0
G2 Y-9.3938 Z-0.2667 I0.35 J0.6062
G2 X54.7 Y-10.0 Z-0.4 I0.35 J-0.6062
G2 X53.65 Y-10.6062 Z-0.5333 I-0.7 J0.0
G2 Y-9.3938 Z-0.6667 I0.35 J0.6062
G2 X54.7 Y-10.0 Z-0.8 I0.35 J-0.6062
G2 X53.65 Y-10.6062 Z-0.9333 I-0.7 J0.0
G2 Y-9.3938 Z-1.0667 I0.35 J0.6062
G2 X54.7 Y-10.0 Z-1.2 I0.35 J-0.6062
G2 X53.65 Y-10.6062 Z-1.3333 I-0.7 J0.0
G2 Y-9.3938 Z-1.4667 I0.35 J0.6062
G2 X54.7 Y-10.0 Z-1.6 I0.35 J-0.6062
G2 X53.65 Y-10.6062 Z-1.7333 I-0.7 J0.0
G2 Y-9.3938 Z-1.8667 I0.35 J0.6062
G2 X54.7 Y-10.0 Z-2.0 I0.35 J-0.6062
G2 X53.65 Y-10.6062 I-0.7 J0.0
G2 Y-9.3938 I0.35 J0.6062
G2 X54.7 Y-10.0 I0.35 J-0.6062
G0 Z3.0
G0 X66.7 Y-36.0
G0 Z1.0
G1 Z0.0
G2 X65.65 Y-36.6062 Z-0.1333 I-0.7 J0.0
G2 Y-35.3938 Z-0.2667 I0.35 J0.6062
G2 X66.7 Y-36.0 Z-0.4 I0.35 J-0.6062
G2 X65.65 Y-36.6062 Z-0.5333 I-0.7 J0.0
G2 Y-35.3938 Z-0.6667 I0.35 J0.6062
G2 X66.7 Y-36.0 Z-0.8 I0.35 J-0.6062
G2 X65.65 Y-36.6062 Z-0.9333 I-0.7 J0.0
G2 Y-35.3938 Z-1.0667 I0.35 J0.6062
G2 X66.7 Y-36.0 Z-1.2 I0.35 J-0.6062
G2 X65.65 Y-36.6062 Z-1.3333 I-0.7 J0.0
G2 Y-35.3938 Z-1.4667 I0.35 J0.6062
G2 X66.7 Y-36.0 Z-1.6 I0.35 J-0.6062
G2 X65.65 Y-36.6062 Z-1.7333 I-0.7 J0.0
G2 Y-35.3938 Z-1.8667 I0.35 J0.6062
G2 X66.7 Y-36.0 Z-2.0 I0.35 J-0.6062
G2 X65.65 Y-36.6062 I-0.7 J0.0
G2 Y-35.3938 I0.35 J0.6062
G2 X66.7 Y-36.0 I0.35 J-0.6062
G0 Z3.0
G0 X36.7 Y-42.0
G0 Z1.0
G1 Z0.0
G2 X35.65 Y-42.6062 Z-0.1333 I-0.7 J0.0
G2 Y-41.3938 Z-0.2667 I0.35 J0.6062
G2 X36.7 Y-42.0 Z-0.4 I0.35 J-0.6062
G2 X35.65 Y-42.6062 Z-0.5333 I-0.7 J0.0
G2 Y-41.3938 Z-0.6667 I0.35 J0.6062
G2 X36.7 Y-42.0 Z-0.8 I0.35 J-0.6062
G2 X35.65 Y-42.6062 Z-0.9333 I-0.7 J0.0
G2 Y-41.3938 Z-1.0667 I0.35 J0.6062
G2 X36.7 Y-42.0 Z-1.2 I0.35 J-0.6062
G2 X35.65 Y-42.6062 Z-1.3333 I-0.7 J0.0
G2 Y-41.3938 Z-1.4667 I0.35 J0.6062
G2 X36.7 Y-42.0 Z-1.6 I0.35 J-0.6062
G2 X35.65 Y-42.6062 Z-1.7333 I-0.7 J0.0
G2 Y-41.3938 Z-1.8667 I0.35 J0.6062
G2 X36.7 Y-42.0 Z-2.0 I0.35 J-0.6062
G2 X35.65 Y-42.6062 I-0.7 J0.0
G2 Y-41.3938 I0.35 J0.6062
G2 X36.7 Y-42.0 I0.35 J-0.6062
G0 Z3.0
G0 X9.7 Y-22.0
G0 Z1.0
G1 Z0.0
G2 X8.65 Y-22.6062 Z-0.1333 I-0.7 J0.0
G2 Y-21.3938 Z-0.2667 I0.35 J0.6062
G2 X9.7 Y-22.0 Z-0.4 I0.35 J-0.6062
G2 X8.65 Y-22.6062 Z-0.5333 I-0.7 J0.0
G2 Y-21.3938 Z-0.6667 I0.35 J0.6062
G2 X9.7 Y-22.0 Z-0.8 I0.35 J-0.6062
G2 X8.65 Y-22.6062 Z-0.9333 I-0.7 J0.0
G2 Y-21.3938 Z-1.0667 I0.35 J0.6062
G2 X9.7 Y-22.0 Z-1.2 I0.35 J-0.6062
G2 X8.65 Y-22.6062 Z-1.3333 I-0.7 J0.0
G2 Y-21.3938 Z-1.4667 I0.35 J0.6062
G2 X9.7 Y-22.0 Z-1.6 I0.35 J-0.6062
G2 X8.65 Y-22.6062 Z-1.7333 I-0.7 J0.0
G2 Y-21.3938 Z-1.8667 I0.35 J0.6062
G2 X9.7 Y-22.0 Z-2.0 I0.35 J-0.6062
G2 X8.65 Y-22.6062 I-0.7 J0.0
G2 Y-21.3938 I0.35 J0.6062
G2 X9.7 Y-22.0 I0.35 J-0.6062
G0 Z3.0
G0 X5.7 Y-86.0
G0 Z1.0
G1 Z0.0
G2 X4.65 Y-86.6062 Z-0.1333 I-0.7 J0.0
G2 Y-85.3938 Z-0.2667 I0.35 J0.6062
G2 X5.7 Y-86.0 Z-0.4 I0.35 J-0.6062
G2 X4.65 Y-86.6062 Z-0.5333 I-0.7 J0.0
G2 Y-85.3938 Z-0.6667 I0.35 J0.6062
G2 X5.7 Y-86.0 Z-0.8 I0.35 J-0.6062
G2 X4.65 Y-86.6062 Z-0.9333 I-0.7 J0.0
G2 Y-85.3938 Z-1.0667 I0.35 J0.6062
G2 X5.7 Y-86.0 Z-1.2 I0.35 J-0.6062
G2 X4.65 Y-86.6062 Z-1.3333 I-0.7 J0.0
G2 Y-85.3938 Z-1.4667 I0.35 J0.6062
G2 X5.7 Y-86.0 Z-1.6 I0.35 J-0.6062
G2 X4.65 Y-86.6062 Z-1.7333 I-0.7 J0.0
G2 Y-85.3938 Z-1.8667 I0.35 J0.6062
G2 X5.7 Y-86.0 Z-2.0 I0.35 J-0.6062
G2 X4.65 Y-86.6062 I-0.7 J0.0
G2 Y-85.3938 I0.35 J0.6062
G2 X5.7 Y-86.0 I0.35 J-0.6062
G0 Z3.0
G0 X29.7 Y-134.0
G0 Z1.0
G1 Z0.0
G2 X28.65 Y-134.6062 Z-0.1333 I-0.7 J0.0
G2 Y-133.3938 Z-0.2667 I0.35 J0.6062
G2 X29.7 Y-134.0 Z-0.4 I0.35 J-0.6062
G2 X28.65 Y-134.6062 Z-0.5333 I-0.7 J0.0
G2 Y-133.3938 Z-0.6667 I0.35 J0.6062
G2 X29.7 Y-134.0 Z-0.8 I0.35 J-0.6062
G2 X28.65 Y-134.6062 Z-0.9333 I-0.7 J0.0
G2 Y-133.3938 Z-1.0667 I0.35 J0.6062
G2 X29.7 Y-134.0 Z-1.2 I0.35 J-0.6062
G2 X28.65 Y-134.6062 Z-1.3333 I-0.7 J0.0
G2 Y-133.3938 Z-1.4667 I0.35 J0.6062
G2 X29.7 Y-134.0 Z-1.6 I0.35 J-0.6062
G2 X28.65 Y-134.6062 Z-1.7333 I-0.7 J0.0
G2 Y-133.3938 Z-1.8667 I0.35 J0.6062
G2 X29.7 Y-134.0 Z-2.0 I0.35 J-0.6062
G2 X28.65 Y-134.6062 I-0.7 J0.0
G2 Y-133.3938 I0.35 J0.6062
G2 X29.7 Y-134.0 I0.35 J-0.6062
G0 Z3.0
G0 X51.7 Y-154.0
G0 Z1.0
G1 Z0.0
G2 X50.65 Y-154.6062 Z-0.1333 I-0.7 J0.0
G2 Y-153.3938 Z-0.2667 I0.35 J0.6062
G2 X51.7 Y-154.0 Z-0.4 I0.35 J-0.6062
G2 X50.65 Y-154.6062 Z-0.5333 I-0.7 J0.0
G2 Y-153.3938 Z-0.6667 I0.35 J0.6062
G2 X51.7 Y-154.0 Z-0.8 I0.35 J-0.6062
G2 X50.65 Y-154.6062 Z-0.9333 I-0.7 J0.0
G2 Y-153.3938 Z-1.0667 I0.35 J0.6062
G2 X51.7 Y-154.0 Z-1.2 I0.35 J-0.6062
G2 X50.65 Y-154.6062 Z-1.3333 I-0.7 J0.0
G2 Y-153.3938 Z-1.4667 I0.35 J0.6062
G2 X51.7 Y-154.0 Z-1.6 I0.35 J-0.6062
G2 X50.65 Y-154.6062 Z-1.7333 I-0.7 J0.0
G2 Y-153.3938 Z-1.8667 I0.35 J0.6062
G2 X51.7 Y-154.0 Z-2.0 I0.35 J-0.6062
G2 X50.65 Y-154.6062 I-0.7 J0.0
G2 Y-153.3938 I0.35 J0.6062
G2 X51.7 Y-154.0 I0.35 J-0.6062
G0 Z3.0
G0 X99.7 Y-176.0
G0 Z1.0
G1 Z0.0
G2 X98.65 Y-176.6062 Z-0.1333 I-0.7 J0.0
G2 Y-175.3938 Z-0.2667 I0.35 J0.6062
G2 X99.7 Y-176.0 Z-0.4 I0.35 J-0.6062
G2 X98.65 Y-176.6062 Z-0.5333 I-0.7 J0.0
G2 Y-175.3938 Z-0.6667 I0.35 J0.6062
G2 X99.7 Y-176.0 Z-0.8 I0.35 J-0.6062
G2 X98.65 Y-176.6062 Z-0.9333 I-0.7 J0.0
G2 Y-175.3938 Z-1.0667 I0.35 J0.6062
G2 X99.7 Y-176.0 Z-1.2 I0.35 J-0.6062
G2 X98.65 Y-176.6062 Z-1.3333 I-0.7 J0.0
G2 Y-175.3938 Z-1.4667 I0.35 J0.6062
G2 X99.7 Y-176.0 Z-1.6 I0.35 J-0.6062
G2 X98.65 Y-176.6062 Z-1.7333 I-0.7 J0.0
G2 Y-175.3938 Z-1.8667 I0.35 J0.6062
G2 X99.7 Y-176.0 Z-2.0 I0.35 J-0.6062
G2 X98.65 Y-176.6062 I-0.7 J0.0
G2 Y-175.3938 I0.35 J0.6062
G2 X99.7 Y-176.0 I0.35 J-0.6062
G0 Z3.0
G0 X97.7 Y-113.0
G0 Z1.0
G1 Z0.0
G2 X96.65 Y-113.6062 Z-0.1333 I-0.7 J0.0
G2 Y-112.3938 Z-0.2667 I0.35 J0.6062
G2 X97.7 Y-113.0 Z-0.4 I0.35 J-0.6062
G2 X96.65 Y-113.6062 Z-0.5333 I-0.7 J0.0
G2 Y-112.3938 Z-0.6667 I0.35 J0.6062
G2 X97.7 Y-113.0 Z-0.8 I0.35 J-0.6062
G2 X96.65 Y-113.6062 Z-0.9333 I-0.7 J0.0
G2 Y-112.3938 Z-1.0667 I0.35 J0.6062
G2 X97.7 Y-113.0 Z-1.2 I0.35 J-0.6062
G2 X96.65 Y-113.6062 Z-1.3333 I-0.7 J0.0
G2 Y-112.3938 Z-1.4667 I0.35 J0.6062
G2 X97.7 Y-113.0 Z-1.6 I0.35 J-0.6062
G2 X96.65 Y-113.6062 Z-1.7333 I-0.7 J0.0
G2 Y-112.3938 Z-1.8667 I0.35 J0.6062
G2 X97.7 Y-113.0 Z-2.0 I0.35 J-0.6062
G2 X96.65 Y-113.6062 I-0.7 J0.0
G2 Y-112.3938 I0.35 J0.6062
G2 X97.7 Y-113.0 I0.35 J-0.6062
G0 Z3.0
G0 X87.7 Y-72.0
G0 Z1.0
G1 Z0.0
G2 X86.65 Y-72.6062 Z-0.1333 I-0.7 J0.0
G2 Y-71.3938 Z-0.2667 I0.35 J0.6062
G2 X87.7 Y-72.0 Z-0.4 I0.35 J-0.6062
G2 X86.65 Y-72.6062 Z-0.5333 I-0.7 J0.0
G2 Y-71.3938 Z-0.6667 I0.35 J0.6062
G2 X87.7 Y-72.0 Z-0.8 I0.35 J-0.6062
G2 X86.65 Y-72.6062 Z-0.9333 I-0.7 J0.0
G2 Y-71.3938 Z-1.0667 I0.35 J0.6062
G2 X87.7 Y-72.0 Z-1.2 I0.35 J-0.6062
G2 X86.65 Y-72.6062 Z-1.3333 I-0.7 J0.0
G2 Y-71.3938 Z-1.4667 I0.35 J0.6062
G2 X87.7 Y-72.0 Z-1.6 I0.35 J-0.6062
G2 X86.65 Y-72.6062 Z-1.7333 I-0.7 J0.0
G2 Y-71.3938 Z-1.8667 I0.35 J0.6062
G2 X87.7 Y-72.0 Z-2.0 I0.35 J-0.6062
G2 X86.65 Y-72.6062 I-0.7 J0.0
G2 Y-71.3938 I0.35 J0.6062
G2 X87.7 Y-72.0 I0.35 J-0.6062
( Profile1 )
S1000
G0 Z3.0
G0 X37.6471 Y-8.2944
G0 Z1.0
G1 Z-0.4
G1 X39.0412 Y-8.4646
G1 X40.381 Y-8.7968
G1 X41.6614 Y-9.2985
G1 X42.8886 Y-9.9814
G1 X44.068 Y-10.8603
G1 X45.202 Y-11.9516
G1 X46.29 Y-13.2715
G1 X47.3293 Y-14.8348
G1 X48.3161 Y-16.6545
G1 X49.2461 Y-18.7421
G1 X50.1156 Y-21.1081
G1 X50.9213 Y-23.7625
G1 X51.6603 Y-26.715
G1 X52.3302 Y-29.9744
G1 X52.6669 Y-32.002
G3 X52.6691 Y-32.0143 I0.9865 J0.1638
G1 X53.0045 Y-33.8887
G3 X53.0077 Y-33.9056 I0.9844 J0.1762
G1 X53.346 Y-35.6255
G3 X53.3506 Y-35.6475 I0.9812 J0.193
G1 X53.6991 Y-37.2306
G3 X53.7055 Y-37.2581 I0.9766 J0.215
G1 X54.0714 Y-38.722
G3 X54.0803 Y-38.7551 I0.9702 J0.2425
G1 X54.4709 Y-40.1174
G3 X54.4827 Y-40.1556 I0.9613 J0.2756
G1 X54.9052 Y-41.4338
G3 X54.9202 Y-41.476 I0.9495 J0.3138
G1 X55.3819 Y-42.6877
G3 X55.4 Y-42.7321 I0.9345 J0.3561
G1 X55.9082 Y-43.895
G3 X55.9289 Y-43.9393 I0.9163 J0.4005
G1 X56.4909 Y-45.0709
G3 X56.513 Y-45.1129 I0.8956 J0.4448
G1 X57.1359 Y-46.2307
G3 X57.1581 Y-46.2686 I0.8735 J0.4868
G1 X57.8493 Y-47.3903
G3 X57.8702 Y-47.4227 I0.8513 J0.5246
G1 X58.637 Y-48.566
G3 X58.6554 Y-48.5925 I0.8305 J0.557
G1 X59.505 Y-49.7748
G3 X59.5203 Y-49.7956 I0.8121 J0.5835
G1 X60.46 Y-51.0346
G3 X60.472 Y-51.05 I0.7968 J0.6043
G1 X61.509 Y-52.3633
G3 X61.6217 Y-52.484 I0.7848 J0.6197
G1 X63.0046 Y-53.7392
G1 X64.3973 Y-55.0894
G1 X65.7976 Y-56.5249
G1 X67.1887 Y-58.0227
G1 X68.5543 Y-59.5599
G1 X69.8784 Y-61.1135
G1 X71.1449 Y-62.6607
G1 X72.3377 Y-64.1786
G1 X73.4408 Y-65.644
G1 X74.438 Y-67.0335
G1 X75.1533 Y-68.0879
G1 X75.0893 Y-68.0331
G3 X75.0662 Y-68.0139 I-0.6507 J-0.7593
G1 X74.4733 Y-67.5359
G3 X74.4405 Y-67.5105 I-0.6276 J-0.7785
G1 X73.8307 Y-67.0593
G3 X73.7883 Y-67.0297 I-0.5948 J-0.8039
G1 X73.1507 Y-66.6071
G3 X73.0998 Y-66.5755 I-0.5524 J-0.8336
G1 X72.4233 Y-66.1832
G3 X72.3659 Y-66.1524 I-0.5016 J-0.8651
G1 X71.6394 Y-65.7922
G3 X71.5781 Y-65.7643 I-0.4442 J-0.8959
G1 X70.7906 Y-65.4378
G3 X70.7283 Y-65.4144 I-0.383 J-0.9237
G1 X69.8689 Y-65.1234
G3 X69.8082 Y-65.105 I-0.3207 J-0.9472
G1 X68.8657 Y-64.8512
G3 X68.8086 Y-64.8376 I-0.26 J-0.9656
G1 X67.7721 Y-64.6227
G3 X67.72 Y-64.6133 I-0.203 J-0.9792
G1 X66.5784 Y-64.4392
G3 X66.4322 Y-64.4277 I-0.1508 J-0.9886
G1 X64.3157 Y-64.4179
G3 X64.0553 Y-64.4511 I-0.0047 J-1.0
G1 X62.4303 Y-64.8811
G3 X62.1124 Y-65.0287 I0.2558 J-0.9667
G1 X60.9414 Y-65.8489
G3 X60.6766 Y-66.1229 I0.5737 J-0.8191
G1 X59.9222 Y-67.2836
G3 X59.7925 Y-67.5782 I0.8384 J-0.545
G1 X59.4171 Y-69.0296
G3 X59.3855 Y-69.2601 I0.9682 J-0.2504
G1 X59.3518 Y-70.9526
G3 X59.3617 Y-71.1147 I0.9998 J-0.0199
G1 X59.6322 Y-72.9987
G3 X59.6554 Y-73.1129 I0.9899 J0.1421
G1 X60.1926 Y-75.1386
G3 X60.2188 Y-75.2226 I0.9666 J0.2563
G1 X60.9852 Y-77.3405
G3 X61.0114 Y-77.4056 I0.9403 J0.3403
G1 X61.9695 Y-79.5659
G3 X61.9952 Y-79.6195 I0.9141 J0.4054
G1 X63.1077 Y-81.7725
G3 X63.1335 Y-81.8193 I0.8884 J0.459
G1 X64.3627 Y-83.9153
G3 X64.3899 Y-83.959 I0.8626 J0.5059
G1 X65.6985 Y-85.9484
G3 X65.7289 Y-85.992 I0.8355 J0.5496
G1 X67.0794 Y-87.825
G3 X67.116 Y-87.8718 I0.8051 J0.5932
G1 X68.471 Y-89.4989
G3 X68.5195 Y-89.553 I0.7684 J0.6399
G1 X69.8414 Y-90.9243
G3 X69.8939 Y-90.975 I0.72 J0.694
G1 X72.1759 Y-93.0204
G1 X74.2133 Y-94.9006
G1 X76.0277 Y-96.6344
G1 X77.636 Y-98.2363
G1 X79.0557 Y-99.7208
G1 X80.3039 Y-101.1025
G1 X81.3982 Y-102.3963
G1 X82.3567 Y-103.6171
G1 X83.1974 Y-104.7804
G1 X83.9387 Y-105.9026
G1 X84.5992 Y-107.0002
G1 X85.1971 Y-108.0904
G1 X85.7504 Y-109.1905
G1 X85.8061 Y-109.3098
G1 X83.6946 Y-107.7669
G3 X83.6101 Y-107.7114 I-0.59 J-0.8074
G1 X79.2091 Y-105.1328
G3 X79.0795 Y-105.069 I-0.5055 J-0.8628
G1 X75.389 Y-103.5719
G3 X75.1794 Y-103.5124 I-0.3759 J-0.9267
G1 X72.1792 Y-103.0065
G3 X71.8458 Y-103.0066 I-0.1663 J-0.9861
G1 X69.5154 Y-103.4016
G3 X69.0997 Y-103.5749 I0.1671 J-0.9859
G1 X67.4187 Y-104.7805
G3 X67.1239 Y-105.1137 I0.5828 J-0.8126
G1 X66.0717 Y-107.0396
G3 X65.964 Y-107.348 I0.8776 J-0.4794
G1 X65.5203 Y-109.9039
G3 X65.5066 Y-110.1215 I0.9853 J-0.171
G1 X65.6509 Y-113.2172
G3 X65.6694 Y-113.3675 I0.9989 J0.0466
G1 X66.3813 Y-116.9126
G3 X66.41 Y-117.0227 I0.9804 J0.1969
G1 X67.669 Y-120.927
G3 X67.7014 Y-121.0135 I0.9517 J0.3069
G1 X69.4871 Y-125.1866
G3 X69.5217 Y-125.2592 I0.9194 J0.3934
G1 X71.8137 Y-129.611
G3 X71.8507 Y-129.6754 I0.8848 J0.466
G1 X74.6285 Y-134.1154
G3 X74.6689 Y-134.1751 I0.8478 J0.5304
G1 X77.9121 Y-138.6131
G3 X77.957 Y-138.6702 I0.8074 J0.59
G1 X79.2201 Y-140.1585
G1 X79.097 Y-140.1254
G3 X79.0135 Y-140.1067 I-0.2597 J-0.9657
G1 X78.059 Y-139.9359
G3 X77.9396 Y-139.9219 I-0.1762 J-0.9844
G1 X77.0363 Y-139.8704
G3 X76.86 Y-139.876 I-0.0569 J-0.9984
G1 X76.0459 Y-139.9739
G3 X75.791 Y-140.0395 I0.1195 J-0.9928
G1 X75.1039 Y-140.3168
G3 X74.7963 Y-140.5128 I0.3743 J-0.9273
G1 X74.2743 Y-140.9995
G3 X74.0407 Y-141.3287 I0.682 J-0.7314
G1 X73.7218 Y-142.0548
G3 X73.6404 Y-142.3789 I0.9156 J-0.4021
G1 X73.5625 Y-143.3744
G3 X73.5713 Y-143.6059 I0.997 J-0.078
G1 X73.7724 Y-144.9007
G3 X73.8078 Y-145.0511 I0.9882 J0.1534
G1 X74.3258 Y-146.6753
G3 X74.3633 Y-146.7742 I0.9527 J0.3039
G1 X75.2362 Y-148.7577
G3 X75.2692 Y-148.8256 I0.9153 J0.4028
G1 X76.535 Y-151.1984
G3 X76.5627 Y-151.247 I0.8823 J0.4707
G1 X78.2594 Y-154.0391
G3 X78.2835 Y-154.0768 I0.8546 J0.5193
G1 X78.6852 Y-154.6757
G3 X78.6885 Y-154.6807 I0.8305 J0.557
G1 X79.1334 Y-155.3354
G3 X79.138 Y-155.3422 I0.8271 J0.562
G1 X79.6301 Y-156.0537
G3 X79.6357 Y-156.0617 I0.8225 J0.5688
G1 X80.1788 Y-156.831
G3 X80.1851 Y-156.8398 I0.8169 J0.5768
G1 X80.7833 Y-157.6678
G3 X80.7902 Y-157.6772 I0.8106 J0.5856
G1 X81.4475 Y-158.5649
G3 X81.4548 Y-158.5746 I0.8037 J0.5951
G1 X82.175 Y-159.5229
G3 X82.1827 Y-159.5328 I0.7964 J0.6048
G1 X82.9698 Y-160.5427
G3 X82.9777 Y-160.5527 I0.7887 J0.6148
G1 X83.8358 Y-161.6251
G3 X83.8438 Y-161.6351 I0.7808 J0.6247
G1 X84.7767 Y-162.771
G3 X84.7849 Y-162.7808 I0.7728 J0.6347
G1 X85.7966 Y-163.9812
G3 X85.8048 Y-163.9908 I0.7646 J0.6444
G1 X86.8993 Y-165.2567
G3 X86.9075 Y-165.2661 I0.7565 J0.654
G1 X87.2915 Y-165.6992
G1 X86.5587 Y-165.3025
G1 X85.4256 Y-164.6859
G1 X84.2689 Y-164.039
G1 X83.0749 Y-163.3407
G1 X81.8296 Y-162.5696
G1 X80.5191 Y-161.7041
G1 X79.1298 Y-160.7227
G1 X77.6484 Y-159.604
G1 X76.062 Y-158.3265
G1 X74.3582 Y-156.8688
G1 X72.5151 Y-155.2014
G3 X72.4913 Y-155.1805 I-0.6709 J-0.7416
G1 X69.0291 Y-152.2426
G1 X65.5232 Y-148.5666
G1 X61.9684 Y-144.2674
G1 X58.4124 Y-139.5116
G1 X54.8982 Y-134.4645
G1 X51.4665 Y-129.29
G1 X48.1567 Y-124.1511
G1 X45.0085 Y-119.2114
G3 X45.006 Y-119.2075 I-0.8433 J-0.5375
G1 X42.0599 Y-114.633
G3 X42.0506 Y-114.6187 I-0.8407 J-0.5414
G1 X39.3463 Y-110.5734
G3 X39.3254 Y-110.5433 I-0.8313 J-0.5558
G1 X36.9011 Y-107.1895
G3 X36.8555 Y-107.1311 I-0.8104 J-0.5858
G1 X34.7495 Y-104.6307
G3 X34.6317 Y-104.5124 I-0.7649 J-0.6442
G1 X32.8823 Y-103.0276
G3 X32.4563 Y-102.8148 I-0.6471 J-0.7624
G1 X31.1016 Y-102.5077
G3 X30.1344 Y-102.8172 I-0.2211 J-0.9753
G1 X29.2128 Y-103.85
G3 X28.9744 Y-104.3409 I0.7461 J-0.6658
G1 X28.5242 Y-106.8756
G3 X28.5089 Y-107.0312 I0.9846 J-0.1749
G1 X28.4818 Y-108.4405
G3 X28.4816 Y-108.4575 I0.9998 J-0.0193
G1 X28.4788 Y-109.7096
G3 X28.479 Y-109.7321 I1.0 J-0.0023
G1 X28.5016 Y-110.8508
G3 X28.5026 Y-110.8789 I0.9998 J0.0202
G1 X28.5514 Y-111.8878
G3 X28.5536 Y-111.9215 I0.9988 J0.0483
G1 X28.6295 Y-112.8444
G3 X28.6333 Y-112.8822 I0.9966 J0.082
G1 X28.7372 Y-113.7428
G3 X28.7428 Y-113.7824 I0.9928 J0.1198
G1 X28.8755 Y-114.6043
G3 X28.8824 Y-114.6422 I0.9872 J0.1594
G1 X29.0449 Y-115.4492
G3 X29.0521 Y-115.4822 I0.9803 J0.1974
G1 X29.2452 Y-116.2979
G3 X29.2516 Y-116.3235 I0.9731 J0.2304
G1 X29.4762 Y-117.1717
G3 X29.481 Y-117.1891 I0.9667 J0.256
G1 X29.738 Y-118.0934
G3 X29.7408 Y-118.1029 I0.9619 J0.2734
G1 X30.0311 Y-119.0871
G3 X30.032 Y-119.09 I0.9591 J0.2829
G1 X30.3561 Y-120.1767
G1 X30.4555 Y-120.5125
G1 X30.0206 Y-120.0577
G1 X29.4123 Y-119.3684
G1 X28.8136 Y-118.6142
G1 X28.2223 Y-117.7703
G1 X27.637 Y-116.8115
G1 X27.0574 Y-115.7128
G1 X26.4845 Y-114.4498
G1 X25.9201 Y-112.9987
G1 X25.3662 Y-111.3368
G1 X24.8252 Y-109.4416
G1 X24.2993 Y-107.2913
G1 X23.8108 Y-104.9593
G1 X23.8473 Y-102.7156
G1 X23.9224 Y-100.5296
G1 X24.0284 Y-98.4944
G1 X24.1588 Y-96.6005
G1 X24.3076 Y-94.8383
G1 X24.4685 Y-93.1981
G1 X24.6354 Y-91.67
G1 X24.8023 Y-90.244
G1 X24.9628 Y-88.9109
G3 X24.963 Y-88.909 I-0.9928 J0.1196
G1 X25.1107 Y-87.662
G3 X25.1117 Y-87.6535 I-0.9931 J0.1176
G1 X25.24 Y-86.4851
G3 X25.2417 Y-86.4689 I-0.994 J0.1092
G1 X25.3443 Y-85.3699
G3 X25.3464 Y-85.3448 I-0.9957 J0.093
G1 X25.4171 Y-84.3061
G3 X25.4189 Y-84.2711 I-0.9977 J0.068
G1 X25.4514 Y-83.2835
G3 X25.4519 Y-83.2379 I-0.9995 J0.0329
G1 X25.4398 Y-82.2924
G3 X25.4376 Y-82.2364 I-0.9999 J-0.0127
G1 X25.3799 Y-81.4002
G1 X25.4755 Y-80.2637
G3 X25.4784 Y-80.2157 I-0.9965 J0.0838
G1 X25.5182 Y-79.1051
G3 X25.5186 Y-79.0508 I-0.9994 J0.0358
G1 X25.5 Y-78.0399
G3 X25.4969 Y-77.9784 I-0.9998 J-0.0185
G1 X25.4236 Y-77.0646
G3 X25.4155 Y-76.9948 I-0.9968 J-0.08
G1 X25.2914 Y-76.1756
G3 X25.276 Y-76.0963 I-0.9887 J-0.1498
G1 X25.1049 Y-75.3692
G3 X25.0793 Y-75.2796 I-0.9734 J-0.2292
G1 X24.8649 Y-74.6421
G3 X24.8252 Y-74.5421 I-0.9478 J-0.3188
G1 X24.5714 Y-73.9917
G3 X24.5127 Y-73.8828 I-0.9081 J-0.4187
G1 X24.2233 Y-73.4169
G3 X24.1408 Y-73.3028 I-0.8494 J-0.5277
G1 X23.8196 Y-72.919
G3 X23.7097 Y-72.8069 I-0.7669 J-0.6418
G1 X23.3605 Y-72.5026
G3 X23.2235 Y-72.4023 I-0.657 J-0.7539
G1 X22.8501 Y-72.175
G3 X22.6919 Y-72.097 I-0.5199 J-0.8542
G1 X22.2981 Y-71.9442
G3 X22.1296 Y-71.8953 I-0.3617 J-0.9323
G1 X21.7192 Y-71.8145
G3 X21.5528 Y-71.796 I-0.1932 J-0.9812
G1 X21.1297 Y-71.7847
G3 X20.9752 Y-71.7926 I-0.0267 J-0.9996
G1 X20.5432 Y-71.8482
G3 X20.3093 Y-71.9077 I0.1277 J-0.9918
G1 X19.3445 Y-72.2819
G3 X19.2339 Y-72.3327 I0.3616 J-0.9323
G1 X18.3682 Y-72.7965
G3 X18.2676 Y-72.8582 I0.4722 J-0.8815
G1 X17.4907 Y-73.401
G3 X17.4047 Y-73.4683 I0.5727 J-0.8198
G1 X16.7064 Y-74.0796
G3 X16.6368 Y-74.1466 I0.6586 J-0.7525
G1 X16.0069 Y-74.8158
G3 X15.9533 Y-74.8776 I0.7282 J-0.6854
G1 X15.3816 Y-75.5943
G3 X15.3422 Y-75.6472 I0.7817 J-0.6236
G1 X14.8185 Y-76.4007
G3 X14.7909 Y-76.4426 I0.8212 J-0.5707
G1 X14.305 Y-77.2224
G3 X14.2872 Y-77.2522 I0.8488 J-0.5288
G1 X13.829 Y-78.0478
G3 X13.8195 Y-78.0647 I0.8666 J-0.4991
G1 X13.5025 Y-78.6406
G1 X14.1117 Y-75.5634
G3 X14.1148 Y-75.5467 I-0.981 J0.1942
G1 X14.8883 Y-71.2578
G3 X14.8909 Y-71.2426 I-0.9841 J0.1775
G1 X15.6045 Y-66.9035
G3 X15.6067 Y-66.8895 I-0.9867 J0.1623
G1 X16.2601 Y-62.531
G3 X16.262 Y-62.5178 I-0.9889 J0.1483
G1 X16.8549 Y-58.1707
G3 X16.8565 Y-58.1582 I-0.9908 J0.1351
G1 X17.3885 Y-53.853
G3 X17.39 Y-53.841 I-0.9925 J0.1226
G1 X17.8608 Y-49.6086
G3 X17.862 Y-49.5967 I-0.9939 J0.1106
G1 X18.2713 Y-45.468
G3 X18.2725 Y-45.456 I-0.9951 J0.0986
G1 X18.6199 Y-41.4616
G3 X18.6209 Y-41.4492 I-0.9962 J0.0867
G1 X18.9061 Y-37.6199
G3 X18.907 Y-37.6068 I-0.9972 J0.0743
G1 X19.1297 Y-33.9734
G3 X19.1305 Y-33.9591 I-0.9981 J0.0612
G1 X19.2903 Y-30.5522
G3 X19.2909 Y-30.536 I-0.9989 J0.0469
G1 X19.3875 Y-27.3865
G3 X19.3879 Y-27.3674 I-0.9995 J0.0307
G1 X19.421 Y-24.506
G3 Y-24.4823 I-0.9999 J0.0116
G1 X19.391 Y-22.0109
G1 X19.4414 Y-21.6256
G1 X19.6021 Y-21.0797
G1 X19.8839 Y-20.3752
G1 X20.2743 Y-19.5572
G1 X20.7599 Y-18.6569
G1 X21.3277 Y-17.7003
G1 X21.9652 Y-16.7112
G1 X22.6598 Y-15.7121
G1 X23.3989 Y-14.7255
G1 X24.1697 Y-13.7732
G1 X24.9589 Y-12.8774
G1 X25.7525 Y-12.0603
G1 X26.0272 Y-11.809
G1 X25.6308 Y-12.8383
G3 X25.615 Y-12.8826 I0.9332 J-0.3593
G1 X24.93 Y-14.946
G3 X24.9168 Y-14.9889 I0.9491 J-0.315
G1 X24.3326 Y-17.055
G3 X24.322 Y-17.0959 I0.9623 J-0.2721
G1 X23.8301 Y-19.1659
G3 X23.8218 Y-19.2043 I0.9729 J-0.2312
G1 X23.414 Y-21.2794
G3 X23.4077 Y-21.3147 I0.9812 J-0.1928
G1 X23.0756 Y-23.396
G3 X23.0711 Y-23.4279 I0.9875 J-0.1575
G1 X22.8064 Y-25.5167
G3 X22.8033 Y-25.5449 I0.9921 J-0.1257
G1 X22.5978 Y-27.6423
G3 X22.5957 Y-27.6666 I0.9952 J-0.0975
G1 X22.441 Y-29.7738
G3 X22.4397 Y-29.7941 I0.9973 J-0.0732
G1 X22.3274 Y-31.9124
G3 X22.3267 Y-31.9287 I0.9986 J-0.0529
G1 X22.2486 Y-34.059
G3 X22.2482 Y-34.0713 I0.9993 J-0.0366
G1 X22.196 Y-36.215
G3 X22.1958 Y-36.2233 I0.9997 J-0.0244
G1 X22.1611 Y-38.3816
G3 Y-38.3859 I0.9999 J-0.0161
G1 X22.1356 Y-40.5599
G3 Y-40.5603 I0.9999 J-0.0117
G1 X22.111 Y-42.7512
G3 X22.1116 Y-42.8003 I0.9999 J-0.0112
G1 X22.1891 Y-44.8419
G3 X22.1948 Y-44.9169 I0.9993 J0.0379
G1 X22.4717 Y-47.354
G3 X22.4783 Y-47.4016 I0.9936 J0.1129
G1 X22.9262 Y-50.1564
G3 X22.9321 Y-50.1894 I0.987 J0.1605
G1 X23.5226 Y-53.1841
G3 X23.5278 Y-53.2085 I0.9811 J0.1935
G1 X24.2324 Y-56.3653
G3 X24.2369 Y-56.3844 I0.976 J0.2179
G1 X25.0272 Y-59.6255
G3 X25.0312 Y-59.6411 I0.9715 J0.2369
G1 X25.8789 Y-62.8887
G3 X25.8825 Y-62.9021 I0.9676 J0.2526
G1 X26.759 Y-66.0783
G3 X26.7625 Y-66.0905 I0.964 J0.266
G1 X27.6394 Y-69.1175
G3 X27.6429 Y-69.1294 I0.9605 J0.2783
G1 X28.4919 Y-71.9295
G3 X28.4958 Y-71.942 I0.957 J0.2902
G1 X29.2883 Y-74.4372
G3 X29.2932 Y-74.4522 I0.9531 J0.3027
G1 X30.0009 Y-76.5648
G3 X30.0081 Y-76.5856 I0.9482 J0.3176
G1 X30.6025 Y-78.2378
G3 X30.617 Y-78.2758 I0.941 J0.3385
G1 X31.0697 Y-79.3897
G3 X31.1264 Y-79.5068 I0.9264 J0.3765
G1 X31.409 Y-80.0047
G3 X33.1979 Y-79.905 I0.8697 J0.4936
G1 X33.2818 Y-79.709
G3 X33.3588 Y-79.227 I-0.9192 J0.3938
G1 X33.2865 Y-78.4097
G3 X33.2827 Y-78.374 I-0.9961 J-0.0881
G1 X33.1328 Y-77.1723
G3 X33.1313 Y-77.1607 I-0.9923 J-0.1238
G1 X32.9263 Y-75.6606
G3 X32.9261 Y-75.6586 I-0.9908 J-0.1354
G1 X32.6889 Y-73.9485
G1 X32.4423 Y-72.117
G1 X32.209 Y-70.2515
G1 X32.0114 Y-68.4402
G1 X31.872 Y-66.7743
G1 X31.8124 Y-65.3527
G1 X31.8209 Y-65.1055
G1 X32.49 Y-66.3355
G1 X33.599 Y-68.7512
G1 X34.1677 Y-70.107
G1 X34.8261 Y-71.7517
G1 X35.5558 Y-73.6354
G1 X36.3404 Y-75.7134
G1 X37.164 Y-77.9413
G1 X38.0108 Y-80.2755
G1 X38.8651 Y-82.6722
G1 X39.7112 Y-85.0879
G1 X40.5334 Y-87.4788
G1 X41.3161 Y-89.8015
G1 X42.0434 Y-92.012
G1 X42.6997 Y-94.0663
G1 X43.2689 Y-95.9196
G1 X43.7348 Y-97.5258
G1 X44.0804 Y-98.8344
G1 X44.2971 Y-99.827
G3 X44.3202 Y-99.914 I0.977 J0.2133
G1 X44.3356 Y-99.9629
G3 X46.2829 Y-99.5486 I0.9538 J0.3003
G1 X46.2456 Y-99.2227
G3 X46.2446 Y-99.2148 I-0.9935 J-0.1139
G1 X46.164 Y-98.5579
G1 X46.0496 Y-97.6142
G1 X45.9108 Y-96.427
G1 X45.757 Y-95.0385
G1 X45.5974 Y-93.4916
G1 X45.4414 Y-91.8297
G1 X45.2985 Y-90.096
G1 X45.1778 Y-88.3344
G1 X45.0888 Y-86.589
G1 X45.0405 Y-84.9045
G1 X45.0419 Y-83.327
G1 X45.1011 Y-81.9053
G1 X45.2238 Y-80.6934
G1 X45.4098 Y-79.7488
G1 X45.6364 Y-79.1055
G1 X45.8776 Y-78.6926
G1 X46.1002 Y-78.4653
G1 X46.305 Y-78.352
G1 X46.5389 Y-78.3017
G1 X46.8467 Y-78.3142
G1 X47.2337 Y-78.408
G1 X47.6805 Y-78.5892
G1 X48.1631 Y-78.8504
G1 X48.6607 Y-79.1772
G1 X49.1563 Y-79.5525
G1 X49.6352 Y-79.9581
G1 X50.0843 Y-80.3755
G1 X50.4915 Y-80.7859
G1 X50.8446 Y-81.1701
G1 X51.1458 Y-81.5246
G3 X51.4254 Y-81.753 I0.7621 J0.6475
G1 X51.5064 Y-81.7976
G3 X52.9168 Y-80.549 I0.4825 J0.8759
G1 X52.7876 Y-80.2273
G3 X52.7625 Y-80.1701 I-0.9279 J-0.3727
G1 X52.4557 Y-79.5257
G3 X52.451 Y-79.5161 I-0.9029 J-0.4299
G1 X51.9996 Y-78.5934
G1 X51.4376 Y-77.439
G1 X50.798 Y-76.0977
G1 X50.1131 Y-74.6124
G1 X49.4153 Y-73.0272
G1 X48.7374 Y-71.387
G1 X48.1123 Y-69.7374
G1 X47.5728 Y-68.1258
G1 X47.1515 Y-66.6022
G1 X46.8795 Y-65.2221
G1 X46.7824 Y-64.0512
G1 X46.865 Y-63.1706
G1 X47.0967 Y-62.5962
G1 X47.4285 Y-62.2211
G1 X47.8349 Y-61.9719
G1 X48.3318 Y-61.831
G1 X48.9381 Y-61.7976
G1 X49.6374 Y-61.876
G1 X50.3982 Y-62.0582
G1 X51.1883 Y-62.3265
G1 X51.9781 Y-62.6578
G1 X52.7408 Y-63.0273
G1 X53.4519 Y-63.4093
G1 X54.0884 Y-63.778
G1 X54.629 Y-64.1085
G1 X55.0545 Y-64.3764
G3 X55.0595 Y-64.3796 I0.5329 J0.8462
G1 X55.3443 Y-64.5566
G3 X55.438 Y-64.6081 I0.5279 J0.8493
G1 X55.5554 Y-64.6647
G3 X56.7737 Y-63.1433 I0.4341 J0.9009
G1 X56.7027 Y-63.0535
G3 X56.6467 Y-62.9887 I-0.7842 J-0.6205
G1 X55.0408 Y-61.2825
G1 X53.6292 Y-59.5756
G1 X52.3796 Y-57.8564
G1 X51.2824 Y-56.1376
G1 X50.328 Y-54.4316
G1 X49.5071 Y-52.7512
G1 X48.8104 Y-51.1091
G1 X48.2286 Y-49.5184
G1 X47.7523 Y-47.9919
G1 X47.3724 Y-46.543
G1 X47.0795 Y-45.1849
G1 X46.8642 Y-43.931
G1 X46.7172 Y-42.7951
G1 X46.629 Y-41.7913
G1 X46.5901 Y-40.9347
G1 X46.5903 Y-40.2149
G1 Y-40.2148
G1 Y-40.2149
G1 X46.5917 Y-36.9871
G3 X46.5904 Y-36.9355 I-1.0 J0.0004
G1 X46.4295 Y-33.7912
G3 X46.4257 Y-33.7415 I-0.9987 J-0.0511
G1 X46.1174 Y-30.6964
G3 X46.1113 Y-30.6484 I-0.9949 J-0.1007
G1 X45.6706 Y-27.7183
G3 X45.6624 Y-27.6715 I-0.9889 J-0.1487
G1 X45.1042 Y-24.8722
G3 X45.0938 Y-24.826 I-0.9807 J-0.1956
G1 X44.433 Y-22.1732
G3 X44.4203 Y-22.1271 I-0.9703 J-0.2417
G1 X43.6719 Y-19.6366
G3 X43.6565 Y-19.5898 I-0.9577 J-0.2878
G1 X42.8354 Y-17.2773
G3 X42.8167 Y-17.2288 I-0.9423 J-0.3346
G1 X41.9377 Y-15.1101
G3 X41.9146 Y-15.0585 I-0.9237 J-0.3832
G1 X40.9928 Y-13.1493
G3 X40.9633 Y-13.0929 I-0.9005 J-0.4348
G1 X40.0135 Y-11.4091
G3 X39.9743 Y-11.3453 I-0.871 J-0.4913
G1 X39.0116 Y-9.9025
G3 X38.9568 Y-9.8281 I-0.8318 J-0.5551
G1 X37.996 Y-8.6422
G3 X37.9144 Y-8.553 I-0.777 J-0.6295
G1 X37.6471 Y-8.2944
G1 Z-0.8
G1 X39.0412 Y-8.4646
G1 X40.381 Y-8.7968
G1 X41.6614 Y-9.2985
G1 X42.8886 Y-9.9814
G1 X44.068 Y-10.8603
G1 X45.202 Y-11.9516
G1 X46.29 Y-13.2715
G1 X47.3293 Y-14.8348
G1 X48.3161 Y-16.6545
G1 X49.2461 Y-18.7421
G1 X50.1156 Y-21.1081
G1 X50.9213 Y-23.7625
G1 X51.6603 Y-26.715
G1 X52.3302 Y-29.9744
G1 X52.6669 Y-32.002
G3 X52.6691 Y-32.0143 I0.9865 J0.1638
G1 X53.0045 Y-33.8887
G3 X53.0077 Y-33.9056 I0.9844 J0.1762
G1 X53.346 Y-35.6255
G3 X53.3506 Y-35.6475 I0.9812 J0.193
G1 X53.6991 Y-37.2306
G3 X53.7055 Y-37.2581 I0.9766 J0.215
G1 X54.0714 Y-38.722
G3 X54.0803 Y-38.7551 I0.9702 J0.2425
G1 X54.4709 Y-40.1174
G3 X54.4827 Y-40.1556 I0.9613 J0.2756
G1 X54.9052 Y-41.4338
G3 X54.9202 Y-41.476 I0.9495 J0.3138
G1 X55.3819 Y-42.6877
G3 X55.4 Y-42.7321 I0.9345 J0.3561
G1 X55.9082 Y-43.895
G3 X55.9289 Y-43.9393 I0.9163 J0.4005
G1 X56.4909 Y-45.0709
G3 X56.513 Y-45.1129 I0.8956 J0.4448
G1 X57.1359 Y-46.2307
G3 X57.1581 Y-46.2686 I0.8735 J0.4868
G1 X57.8493 Y-47.3903
G3 X57.8702 Y-47.4227 I0.8513 J0.5246
G1 X58.637 Y-48.566
G3 X58.6554 Y-48.5925 I0.8305 J0.557
G1 X59.505 Y-49.7748
G3 X59.5203 Y-49.7956 I0.8121 J0.5835
G1 X60.46 Y-51.0346
G3 X60.472 Y-51.05 I0.7968 J0.6043
G1 X61.509 Y-52.3633
G3 X61.6217 Y-52.484 I0.7848 J0.6197
G1 X63.0046 Y-53.7392
G1 X64.3973 Y-55.0894
G1 X65.7976 Y-56.5249
G1 X67.1887 Y-58.0227
G1 X68.5543 Y-59.5599
G1 X69.8784 Y-61.1135
G1 X71.1449 Y-62.6607
G1 X72.3377 Y-64.1786
G1 X73.4408 Y-65.644
G1 X74.438 Y-67.0335
G1 X75.1533 Y-68.0879
G1 X75.0893 Y-68.0331
G3 X75.0662 Y-68.0139 I-0.6507 J-0.7593
G1 X74.4733 Y-67.5359
G3 X74.4405 Y-67.5105 I-0.6276 J-0.7785
G1 X73.8307 Y-67.0593
G3 X73.7883 Y-67.0297 I-0.5948 J-0.8039
G1 X73.1507 Y-66.6071
G3 X73.0998 Y-66.5755 I-0.5524 J-0.8336
G1 X72.4233 Y-66.1832
G3 X72.3659 Y-66.1524 I-0.5016 J-0.8651
G1 X71.6394 Y-65.7922
G3 X71.5781 Y-65.7643 I-0.4442 J-0.8959
G1 X70.7906 Y-65.4378
G3 X70.7283 Y-65.4144 I-0.383 J-0.9237
G1 X69.8689 Y-65.1234
G3 X69.8082 Y-65.105 I-0.3207 J-0.9472
G1 X68.8657 Y-64.8512
G3 X68.8086 Y-64.8376 I-0.26 J-0.9656
G1 X67.7721 Y-64.6227
G3 X67.72 Y-64.6133 I-0.203 J-0.9792
G1 X66.5784 Y-64.4392
G3 X66.4322 Y-64.4277 I-0.1508 J-0.9886
G1 X64.3157 Y-64.4179
G3 X64.0553 Y-64.4511 I-0.0047 J-1.0
G1 X62.4303 Y-64.8811
G3 X62.1124 Y-65.0287 I0.2558 J-0.9667
G1 X60.9414 Y-65.8489
G3 X60.6766 Y-66.1229 I0.5737 J-0.8191
G1 X59.9222 Y-67.2836
G3 X59.7925 Y-67.5782 I0.8384 J-0.545
G1 X59.4171 Y-69.0296
G3 X59.3855 Y-69.2601 I0.9682 J-0.2504
G1 X59.3518 Y-70.9526
G3 X59.3617 Y-71.1147 I0.9998 J-0.0199
G1 X59.6322 Y-72.9987
G3 X59.6554 Y-73.1129 I0.9899 J0.1421
G1 X60.1926 Y-75.1386
G3 X60.2188 Y-75.2226 I0.9666 J0.2563
G1 X60.9852 Y-77.3405
G3 X61.0114 Y-77.4056 I0.9403 J0.3403
G1 X61.9695 Y-79.5659
G3 X61.9952 Y-79.6195 I0.9141 J0.4054
G1 X63.1077 Y-81.7725
G3 X63.1335 Y-81.8193 I0.8884 J0.459
G1 X64.3627 Y-83.9153
G3 X64.3899 Y-83.959 I0.8626 J0.5059
G1 X65.6985 Y-85.9484
G3 X65.7289 Y-85.992 I0.8355 J0.5496
G1 X67.0794 Y-87.825
G3 X67.116 Y-87.8718 I0.8051 J0.5932
G1 X68.471 Y-89.4989
G3 X68.5195 Y-89.553 I0.7684 J0.6399
G1 X69.8414 Y-90.9243
G3 X69.8939 Y-90.975 I0.72 J0.694
G1 X72.1759 Y-93.0204
G1 X74.2133 Y-94.9006
G1 X76.0277 Y-96.6344
G1 X77.636 Y-98.2363
G1 X79.0557 Y-99.7208
G1 X80.3039 Y-101.1025
G1 X81.3982 Y-102.3963
G1 X82.3567 Y-103.6171
G1 X83.1974 Y-104.7804
G1 X83.9387 Y-105.9026
G1 X84.5992 Y-107.0002
G1 X85.1971 Y-108.0904
G1 X85.7504 Y-109.1905
G1 X85.8061 Y-109.3098
G1 X83.6946 Y-107.7669
G3 X83.6101 Y-107.7114 I-0.59 J-0.8074
G1 X79.2091 Y-105.1328
G3 X79.0795 Y-105.069 I-0.5055 J-0.8628
G1 X75.389 Y-103.5719
G3 X75.1794 Y-103.5124 I-0.3759 J-0.9267
G1 X72.1792 Y-103.0065
G3 X71.8458 Y-103.0066 I-0.1663 J-0.9861
G1 X69.5154 Y-103.4016
G3 X69.0997 Y-103.5749 I0.1671 J-0.9859
G1 X67.4187 Y-104.7805
G3 X67.1239 Y-105.1137 I0.5828 J-0.8126
G1 X66.0717 Y-107.0396
G3 X65.964 Y-107.348 I0.8776 J-0.4794
G1 X65.5203 Y-109.9039
G3 X65.5066 Y-110.1215 I0.9853 J-0.171
G1 X65.6509 Y-113.2172
G3 X65.6694 Y-113.3675 I0.9989 J0.0466
G1 X66.3813 Y-116.9126
G3 X66.41 Y-117.0227 I0.9804 J0.1969
G1 X67.669 Y-120.927
G3 X67.7014 Y-121.0135 I0.9517 J0.3069
G1 X69.4871 Y-125.1866
G3 X69.5217 Y-125.2592 I0.9194 J0.3934
G1 X71.8137 Y-129.611
G3 X71.8507 Y-129.6754 I0.8848 J0.466
G1 X74.6285 Y-134.1154
G3 X74.6689 Y-134.1751 I0.8478 J0.5304
G1 X77.9121 Y-138.6131
G3 X77.957 Y-138.6702 I0.8074 J0.59
G1 X79.2201 Y-140.1585
G1 X79.097 Y-140.1254
G3 X79.0135 Y-140.1067 I-0.2597 J-0.9657
G1 X78.059 Y-139.9359
G3 X77.9396 Y-139.9219 I-0.1762 J-0.9844
G1 X77.0363 Y-139.8704
G3 X76.86 Y-139.876 I-0.0569 J-0.9984
G1 X76.0459 Y-139.9739
G3 X75.791 Y-140.0395 I0.1195 J-0.9928
G1 X75.1039 Y-140.3168
G3 X74.7963 Y-140.5128 I0.3743 J-0.9273
G1 X74.2743 Y-140.9995
G3 X74.0407 Y-141.3287 I0.682 J-0.7314
G1 X73.7218 Y-142.0548
G3 X73.6404 Y-142.3789 I0.9156 J-0.4021
G1 X73.5625 Y-143.3744
G3 X73.5713 Y-143.6059 I0.997 J-0.078
G1 X73.7724 Y-144.9007
G3 X73.8078 Y-145.0511 I0.9882 J0.1534
G1 X74.3258 Y-146.6753
G3 X74.3633 Y-146.7742 I0.9527 J0.3039
G1 X75.2362 Y-148.7577
G3 X75.2692 Y-148.8256 I0.9153 J0.4028
G1 X76.535 Y-151.1984
G3 X76.5627 Y-151.247 I0.8823 J0.4707
G1 X78.2594 Y-154.0391
G3 X78.2835 Y-154.0768 I0.8546 J0.5193
G1 X78.6852 Y-154.6757
G3 X78.6885 Y-154.6807 I0.8305 J0.557
G1 X79.1334 Y-155.3354
G3 X79.138 Y-155.3422 I0.8271 J0.562
G1 X79.6301 Y-156.0537
G3 X79.6357 Y-156.0617 I0.8225 J0.5688
G1 X80.1788 Y-156.831
G3 X80.1851 Y-156.8398 I0.8169 J0.5768
G1 X80.7833 Y-157.6678
G3 X80.7902 Y-157.6772 I0.8106 J0.5856
G1 X81.4475 Y-158.5649
G3 X81.4548 Y-158.5746 I0.8037 J0.5951
G1 X82.175 Y-159.5229
G3 X82.1827 Y-159.5328 I0.7964 J0.6048
G1 X82.9698 Y-160.5427
G3 X82.9777 Y-160.5527 I0.7887 J0.6148
G1 X83.8358 Y-161.6251
G3 X83.8438 Y-161.6351 I0.7808 J0.6247
G1 X84.7767 Y-162.771
G3 X84.7849 Y-162.7808 I0.7728 J0.6347
G1 X85.7966 Y-163.9812
G3 X85.8048 Y-163.9908 I0.7646 J0.6444
G1 X86.8993 Y-165.2567
G3 X86.9075 Y-165.2661 I0.7565 J0.654
G1 X87.2915 Y-165.6992
G1 X86.5587 Y-165.3025
G1 X85.4256 Y-164.6859
G1 X84.2689 Y-164.039
G1 X83.0749 Y-163.3407
G1 X81.8296 Y-162.5696
G1 X80.5191 Y-161.7041
G1 X79.1298 Y-160.7227
G1 X77.6484 Y-159.604
G1 X76.062 Y-158.3265
G1 X74.3582 Y-156.8688
G1 X72.5151 Y-155.2014
G3 X72.4913 Y-155.1805 I-0.6709 J-0.7416
G1 X69.0291 Y-152.2426
G1 X65.5232 Y-148.5666
G1 X61.9684 Y-144.2674
G1 X58.4124 Y-139.5116
G1 X54.8982 Y-134.4645
G1 X51.4665 Y-129.29
G1 X48.1567 Y-124.1511
G1 X45.0085 Y-119.2114
G3 X45.006 Y-119.2075 I-0.8433 J-0.5375
G1 X42.0599 Y-114.633
G3 X42.0506 Y-114.6187 I-0.8407 J-0.5414
G1 X39.3463 Y-110.5734
G3 X39.3254 Y-110.5433 I-0.8313 J-0.5558
G1 X36.9011 Y-107.1895
G3 X36.8555 Y-107.1311 I-0.8104 J-0.5858
G1 X34.7495 Y-104.6307
G3 X34.6317 Y-104.5124 I-0.7649 J-0.6442
G1 X32.8823 Y-103.0276
G3 X32.4563 Y-102.8148 I-0.6471 J-0.7624
G1 X31.1016 Y-102.5077
G3 X30.1344 Y-102.8172 I-0.2211 J-0.9753
G1 X29.2128 Y-103.85
G3 X28.9744 Y-104.3409 I0.7461 J-0.6658
G1 X28.5242 Y-106.8756
G3 X28.5089 Y-107.0312 I0.9846 J-0.1749
G1 X28.4818 Y-108.4405
G3 X28.4816 Y-108.4575 I0.9998 J-0.0193
G1 X28.4788 Y-109.7096
G3 X28.479 Y-109.7321 I1.0 J-0.0023
G1 X28.5016 Y-110.8508
G3 X28.5026 Y-110.8789 I0.9998 J0.0202
G1 X28.5514 Y-111.8878
G3 X28.5536 Y-111.9215 I0.9988 J0.0483
G1 X28.6295 Y-112.8444
G3 X28.6333 Y-112.8822 I0.9966 J0.082
G1 X28.7372 Y-113.7428
G3 X28.7428 Y-113.7824 I0.9928 J0.1198
G1 X28.8755 Y-114.6043
G3 X28.8824 Y-114.6422 I0.9872 J0.1594
G1 X29.0449 Y-115.4492
G3 X29.0521 Y-115.4822 I0.9803 J0.1974
G1 X29.2452 Y-116.2979
G3 X29.2516 Y-116.3235 I0.9731 J0.2304
G1 X29.4762 Y-117.1717
G3 X29.481 Y-117.1891 I0.9667 J0.256
G1 X29.738 Y-118.0934
G3 X29.7408 Y-118.1029 I0.9619 J0.2734
G1 X30.0311 Y-119.0871
G3 X30.032 Y-119.09 I0.9591 J0.2829
G1 X30.3561 Y-120.1767
G1 X30.4555 Y-120.5125
G1 X30.0206 Y-120.0577
G1 X29.4123 Y-119.3684
G1 X28.8136 Y-118.6142
G1 X28.2223 Y-117.7703
G1 X27.637 Y-116.8115
G1 X27.0574 Y-115.7128
G1 X26.4845 Y-114.4498
G1 X25.9201 Y-112.9987
G1 X25.3662 Y-111.3368
G1 X24.8252 Y-109.4416
G1 X24.2993 Y-107.2913
G1 X23.8108 Y-104.9593
G1 X23.8473 Y-102.7156
G1 X23.9224 Y-100.5296
G1 X24.0284 Y-98.4944
G1 X24.1588 Y-96.6005
G1 X24.3076 Y-94.8383
G1 X24.4685 Y-93.1981
G1 X24.6354 Y-91.67
G1 X24.8023 Y-90.244
G1 X24.9628 Y-88.9109
G3 X24.963 Y-88.909 I-0.9928 J0.1196
G1 X25.1107 Y-87.662
G3 X25.1117 Y-87.6535 I-0.9931 J0.1176
G1 X25.24 Y-86.4851
G3 X25.2417 Y-86.4689 I-0.994 J0.1092
G1 X25.3443 Y-85.3699
G3 X25.3464 Y-85.3448 I-0.9957 J0.093
G1 X25.4171 Y-84.3061
G3 X25.4189 Y-84.2711 I-0.9977 J0.068
G1 X25.4514 Y-83.2835
G3 X25.4519 Y-83.2379 I-0.9995 J0.0329
G1 X25.4398 Y-82.2924
G3 X25.4376 Y-82.2364 I-0.9999 J-0.0127
G1 X25.3799 Y-81.4002
G1 X25.4755 Y-80.2637
G3 X25.4784 Y-80.2157 I-0.9965 J0.0838
G1 X25.5182 Y-79.1051
G3 X25.5186 Y-79.0508 I-0.9994 J0.0358
G1 X25.5 Y-78.0399
G3 X25.4969 Y-77.9784 I-0.9998 J-0.0185
G1 X25.4236 Y-77.0646
G3 X25.4155 Y-76.9948 I-0.9968 J-0.08
G1 X25.2914 Y-76.1756
G3 X25.276 Y-76.0963 I-0.9887 J-0.1498
G1 X25.1049 Y-75.3692
G3 X25.0793 Y-75.2796 I-0.9734 J-0.2292
G1 X24.8649 Y-74.6421
G3 X24.8252 Y-74.5421 I-0.9478 J-0.3188
G1 X24.5714 Y-73.9917
G3 X24.5127 Y-73.8828 I-0.9081 J-0.4187
G1 X24.2233 Y-73.4169
G3 X24.1408 Y-73.3028 I-0.8494 J-0.5277
G1 X23.8196 Y-72.919
G3 X23.7097 Y-72.8069 I-0.7669 J-0.6418
G1 X23.3605 Y-72.5026
G3 X23.2235 Y-72.4023 I-0.657 J-0.7539
G1 X22.8501 Y-72.175
G3 X22.6919 Y-72.097 I-0.5199 J-0.8542
G1 X22.2981 Y-71.9442
G3 X22.1296 Y-71.8953 I-0.3617 J-0.9323
G1 X21.7192 Y-71.8145
G3 X21.5528 Y-71.796 I-0.1932 J-0.9812
G1 X21.1297 Y-71.7847
G3 X20.9752 Y-71.7926 I-0.0267 J-0.9996
G1 X20.5432 Y-71.8482
G3 X20.3093 Y-71.9077 I0.1277 J-0.9918
G1 X19.3445 Y-72.2819
G3 X19.2339 Y-72.3327 I0.3616 J-0.9323
G1 X18.3682 Y-72.7965
G3 X18.2676 Y-72.8582 I0.4722 J-0.8815
G1 X17.4907 Y-73.401
G3 X17.4047 Y-73.4683 I0.5727 J-0.8198
G1 X16.7064 Y-74.0796
G3 X16.6368 Y-74.1466 I0.6586 J-0.7525
G1 X16.0069 Y-74.8158
G3 X15.9533 Y-74.8776 I0.7282 J-0.6854
G1 X15.3816 Y-75.5943
G3 X15.3422 Y-75.6472 I0.7817 J-0.6236
G1 X14.8185 Y-76.4007
G3 X14.7909 Y-76.4426 I0.8212 J-0.5707
G1 X14.305 Y-77.2224
G3 X14.2872 Y-77.2522 I0.8488 J-0.5288
G1 X13.829 Y-78.0478
G3 X13.8195 Y-78.0647 I0.8666 J-0.4991
G1 X13.5025 Y-78.6406
G1 X14.1117 Y-75.5634
G3 X14.1148 Y-75.5467 I-0.981 J0.1942
G1 X14.8883 Y-71.2578
G3 X14.8909 Y-71.2426 I-0.9841 J0.1775
G1 X15.6045 Y-66.9035
G3 X15.6067 Y-66.8895 I-0.9867 J0.1623
G1 X16.2601 Y-62.531
G3 X16.262 Y-62.5178 I-0.9889 J0.1483
G1 X16.8549 Y-58.1707
G3 X16.8565 Y-58.1582 I-0.9908 J0.1351
G1 X17.3885 Y-53.853
G3 X17.39 Y-53.841 I-0.9925 J0.1226
G1 X17.8608 Y-49.6086
G3 X17.862 Y-49.5967 I-0.9939 J0.1106
G1 X18.2713 Y-45.468
G3 X18.2725 Y-45.456 I-0.9951 J0.0986
G1 X18.6199 Y-41.4616
G3 X18.6209 Y-41.4492 I-0.9962 J0.0867
G1 X18.9061 Y-37.6199
G3 X18.907 Y-37.6068 I-0.9972 J0.0743
G1 X19.1297 Y-33.9734
G3 X19.1305 Y-33.9591 I-0.9981 J0.0612
G1 X19.2903 Y-30.5522
G3 X19.2909 Y-30.536 I-0.9989 J0.0469
G1 X19.3875 Y-27.3865
G3 X19.3879 Y-27.3674 I-0.9995 J0.0307
G1 X19.421 Y-24.506
G3 Y-24.4823 I-0.9999 J0.0116
G1 X19.391 Y-22.0109
G1 X19.4414 Y-21.6256
G1 X19.6021 Y-21.0797
G1 X19.8839 Y-20.3752
G1 X20.2743 Y-19.5572
G1 X20.7599 Y-18.6569
G1 X21.3277 Y-17.7003
G1 X21.9652 Y-16.7112
G1 X22.6598 Y-15.7121
G1 X23.3989 Y-14.7255
G1 X24.1697 Y-13.7732
G1 X24.9589 Y-12.8774
G1 X25.7525 Y-12.0603
G1 X26.0272 Y-11.809
G1 X25.6308 Y-12.8383
G3 X25.615 Y-12.8826 I0.9332 J-0.3593
G1 X24.93 Y-14.946
G3 X24.9168 Y-14.9889 I0.9491 J-0.315
G1 X24.3326 Y-17.055
G3 X24.322 Y-17.0959 I0.9623 J-0.2721
G1 X23.8301 Y-19.1659
G3 X23.8218 Y-19.2043 I0.9729 J-0.2312
G1 X23.414 Y-21.2794
G3 X23.4077 Y-21.3147 I0.9812 J-0.1928
G1 X23.0756 Y-23.396
G3 X23.0711 Y-23.4279 I0.9875 J-0.1575
G1 X22.8064 Y-25.5167
G3 X22.8033 Y-25.5449 I0.9921 J-0.1257
G1 X22.5978 Y-27.6423
G3 X22.5957 Y-27.6666 I0.9952 J-0.0975
G1 X22.441 Y-29.7738
G3 X22.4397 Y-29.7941 I0.9973 J-0.0732
G1 X22.3274 Y-31.9124
G3 X22.3267 Y-31.9287 I0.9986 J-0.0529
G1 X22.2486 Y-34.059
G3 X22.2482 Y-34.0713 I0.9993 J-0.0366
G1 X22.196 Y-36.215
G3 X22.1958 Y-36.2233 I0.9997 J-0.0244
G1 X22.1611 Y-38.3816
G3 Y-38.3859 I0.9999 J-0.0161
G1 X22.1356 Y-40.5599
G3 Y-40.5603 I0.9999 J-0.0117
G1 X22.111 Y-42.7512
G3 X22.1116 Y-42.8003 I0.9999 J-0.0112
G1 X22.1891 Y-44.8419
G3 X22.1948 Y-44.9169 I0.9993 J0.0379
G1 X22.4717 Y-47.354
G3 X22.4783 Y-47.4016 I0.9936 J0.1129
G1 X22.9262 Y-50.1564
G3 X22.9321 Y-50.1894 I0.987 J0.1605
G1 X23.5226 Y-53.1841
G3 X23.5278 Y-53.2085 I0.9811 J0.1935
G1 X24.2324 Y-56.3653
G3 X24.2369 Y-56.3844 I0.976 J0.2179
G1 X25.0272 Y-59.6255
G3 X25.0312 Y-59.6411 I0.9715 J0.2369
G1 X25.8789 Y-62.8887
G3 X25.8825 Y-62.9021 I0.9676 J0.2526
G1 X26.759 Y-66.0783
G3 X26.7625 Y-66.0905 I0.964 J0.266
G1 X27.6394 Y-69.1175
G3 X27.6429 Y-69.1294 I0.9605 J0.2783
G1 X28.4919 Y-71.9295
G3 X28.4958 Y-71.942 I0.957 J0.2902
G1 X29.2883 Y-74.4372
G3 X29.2932 Y-74.4522 I0.9531 J0.3027
G1 X30.0009 Y-76.5648
G3 X30.0081 Y-76.5856 I0.9482 J0.3176
G1 X30.6025 Y-78.2378
G3 X30.617 Y-78.2758 I0.941 J0.3385
G1 X31.0697 Y-79.3897
G3 X31.1264 Y-79.5068 I0.9264 J0.3765
G1 X31.409 Y-80.0047
G3 X33.1979 Y-79.905 I0.8697 J0.4936
G1 X33.2818 Y-79.709
G3 X33.3588 Y-79.227 I-0.9192 J0.3938
G1 X33.2865 Y-78.4097
G3 X33.2827 Y-78.374 I-0.9961 J-0.0881
G1 X33.1328 Y-77.1723
G3 X33.1313 Y-77.1607 I-0.9923 J-0.1238
G1 X32.9263 Y-75.6606
G3 X32.9261 Y-75.6586 I-0.9908 J-0.1354
G1 X32.6889 Y-73.9485
G1 X32.4423 Y-72.117
G1 X32.209 Y-70.2515
G1 X32.0114 Y-68.4402
G1 X31.872 Y-66.7743
G1 X31.8124 Y-65.3527
G1 X31.8209 Y-65.1055
G1 X32.49 Y-66.3355
G1 X33.599 Y-68.7512
G1 X34.1677 Y-70.107
G1 X34.8261 Y-71.7517
G1 X35.5558 Y-73.6354
G1 X36.3404 Y-75.7134
G1 X37.164 Y-77.9413
G1 X38.0108 Y-80.2755
G1 X38.8651 Y-82.6722
G1 X39.7112 Y-85.0879
G1 X40.5334 Y-87.4788
G1 X41.3161 Y-89.8015
G1 X42.0434 Y-92.012
G1 X42.6997 Y-94.0663
G1 X43.2689 Y-95.9196
G1 X43.7348 Y-97.5258
G1 X44.0804 Y-98.8344
G1 X44.2971 Y-99.827
G3 X44.3202 Y-99.914 I0.977 J0.2133
G1 X44.3356 Y-99.9629
G3 X46.2829 Y-99.5486 I0.9538 J0.3003
G1 X46.2456 Y-99.2227
G3 X46.2446 Y-99.2148 I-0.9935 J-0.1139
G1 X46.164 Y-98.5579
G1 X46.0496 Y-97.6142
G1 X45.9108 Y-96.427
G1 X45.757 Y-95.0385
G1 X45.5974 Y-93.4916
G1 X45.4414 Y-91.8297
G1 X45.2985 Y-90.096
G1 X45.1778 Y-88.3344
G1 X45.0888 Y-86.589
G1 X45.0405 Y-84.9045
G1 X45.0419 Y-83.327
G1 X45.1011 Y-81.9053
G1 X45.2238 Y-80.6934
G1 X45.4098 Y-79.7488
G1 X45.6364 Y-79.1055
G1 X45.8776 Y-78.6926
G1 X46.1002 Y-78.4653
G1 X46.305 Y-78.352
G1 X46.5389 Y-78.3017
G1 X46.8467 Y-78.3142
G1 X47.2337 Y-78.408
G1 X47.6805 Y-78.5892
G1 X48.1631 Y-78.8504
G1 X48.6607 Y-79.1772
G1 X49.1563 Y-79.5525
G1 X49.6352 Y-79.9581
G1 X50.0843 Y-80.3755
G1 X50.4915 Y-80.7859
G1 X50.8446 Y-81.1701
G1 X51.1458 Y-81.5246
G3 X51.4254 Y-81.753 I0.7621 J0.6475
G1 X51.5064 Y-81.7976
G3 X52.9168 Y-80.549 I0.4825 J0.8759
G1 X52.7876 Y-80.2273
G3 X52.7625 Y-80.1701 I-0.9279 J-0.3727
G1 X52.4557 Y-79.5257
G3 X52.451 Y-79.5161 I-0.9029 J-0.4299
G1 X51.9996 Y-78.5934
G1 X51.4376 Y-77.439
G1 X50.798 Y-76.0977
G1 X50.1131 Y-74.6124
G1 X49.4153 Y-73.0272
G1 X48.7374 Y-71.387
G1 X48.1123 Y-69.7374
G1 X47.5728 Y-68.1258
G1 X47.1515 Y-66.6022
G1 X46.8795 Y-65.2221
G1 X46.7824 Y-64.0512
G1 X46.865 Y-63.1706
G1 X47.0967 Y-62.5962
G1 X47.4285 Y-62.2211
G1 X47.8349 Y-61.9719
G1 X48.3318 Y-61.831
G1 X48.9381 Y-61.7976
G1 X49.6374 Y-61.876
G1 X50.3982 Y-62.0582
G1 X51.1883 Y-62.3265
G1 X51.9781 Y-62.6578
G1 X52.7408 Y-63.0273
G1 X53.4519 Y-63.4093
G1 X54.0884 Y-63.778
G1 X54.629 Y-64.1085
G1 X55.0545 Y-64.3764
G3 X55.0595 Y-64.3796 I0.5329 J0.8462
G1 X55.3443 Y-64.5566
G3 X55.438 Y-64.6081 I0.5279 J0.8493
G1 X55.5554 Y-64.6647
G3 X56.7737 Y-63.1433 I0.4341 J0.9009
G1 X56.7027 Y-63.0535
G3 X56.6467 Y-62.9887 I-0.7842 J-0.6205
G1 X55.0408 Y-61.2825
G1 X53.6292 Y-59.5756
G1 X52.3796 Y-57.8564
G1 X51.2824 Y-56.1376
G1 X50.328 Y-54.4316
G1 X49.5071 Y-52.7512
G1 X48.8104 Y-51.1091
G1 X48.2286 Y-49.5184
G1 X47.7523 Y-47.9919
G1 X47.3724 Y-46.543
G1 X47.0795 Y-45.1849
G1 X46.8642 Y-43.931
G1 X46.7172 Y-42.7951
G1 X46.629 Y-41.7913
G1 X46.5901 Y-40.9347
G1 X46.5903 Y-40.2149
G1 Y-40.2148
G1 Y-40.2149
G1 X46.5917 Y-36.9871
G3 X46.5904 Y-36.9355 I-1.0 J0.0004
G1 X46.4295 Y-33.7912
G3 X46.4257 Y-33.7415 I-0.9987 J-0.0511
G1 X46.1174 Y-30.6964
G3 X46.1113 Y-30.6484 I-0.9949 J-0.1007
G1 X45.6706 Y-27.7183
G3 X45.6624 Y-27.6715 I-0.9889 J-0.1487
G1 X45.1042 Y-24.8722
G3 X45.0938 Y-24.826 I-0.9807 J-0.1956
G1 X44.433 Y-22.1732
G3 X44.4203 Y-22.1271 I-0.9703 J-0.2417
G1 X43.6719 Y-19.6366
G3 X43.6565 Y-19.5898 I-0.9577 J-0.2878
G1 X42.8354 Y-17.2773
G3 X42.8167 Y-17.2288 I-0.9423 J-0.3346
G1 X41.9377 Y-15.1101
G3 X41.9146 Y-15.0585 I-0.9237 J-0.3832
G1 X40.9928 Y-13.1493
G3 X40.9633 Y-13.0929 I-0.9005 J-0.4348
G1 X40.0135 Y-11.4091
G3 X39.9743 Y-11.3453 I-0.871 J-0.4913
G1 X39.0116 Y-9.9025
G3 X38.9568 Y-9.8281 I-0.8318 J-0.5551
G1 X37.996 Y-8.6422
G3 X37.9144 Y-8.553 I-0.777 J-0.6295
G1 X37.6471 Y-8.2944
G1 Z-1.2
G1 X39.0412 Y-8.4646
G1 X40.381 Y-8.7968
G1 X41.6614 Y-9.2985
G1 X42.8886 Y-9.9814
G1 X44.068 Y-10.8603
G1 X45.202 Y-11.9516
G1 X46.29 Y-13.2715
G1 X47.3293 Y-14.8348
G1 X48.3161 Y-16.6545
G1 X49.2461 Y-18.7421
G1 X50.1156 Y-21.1081
G1 X50.9213 Y-23.7625
G1 X51.6603 Y-26.715
G1 X52.3302 Y-29.9744
G1 X52.6669 Y-32.002
G3 X52.6691 Y-32.0143 I0.9865 J0.1638
G1 X53.0045 Y-33.8887
G3 X53.0077 Y-33.9056 I0.9844 J0.1762
G1 X53.346 Y-35.6255
G3 X53.3506 Y-35.6475 I0.9812 J0.193
G1 X53.6991 Y-37.2306
G3 X53.7055 Y-37.2581 I0.9766 J0.215
G1 X54.0714 Y-38.722
G3 X54.0803 Y-38.7551 I0.9702 J0.2425
G1 X54.4709 Y-40.1174
G3 X54.4827 Y-40.1556 I0.9613 J0.2756
G1 X54.9052 Y-41.4338
G3 X54.9202 Y-41.476 I0.9495 J0.3138
G1 X55.3819 Y-42.6877
G3 X55.4 Y-42.7321 I0.9345 J0.3561
G1 X55.9082 Y-43.895
G3 X55.9289 Y-43.9393 I0.9163 J0.4005
G1 X56.4909 Y-45.0709
G3 X56.513 Y-45.1129 I0.8956 J0.4448
G1 X57.1359 Y-46.2307
G3 X57.1581 Y-46.2686 I0.8735 J0.4868
G1 X57.8493 Y-47.3903
G3 X57.8702 Y-47.4227 I0.8513 J0.5246
G1 X58.637 Y-48.566
G3 X58.6554 Y-48.5925 I0.8305 J0.557
G1 X59.505 Y-49.7748
G3 X59.5203 Y-49.7956 I0.8121 J0.5835
G1 X60.46 Y-51.0346
G3 X60.472 Y-51.05 I0.7968 J0.6043
G1 X61.509 Y-52.3633
G3 X61.6217 Y-52.484 I0.7848 J0.6197
G1 X63.0046 Y-53.7392
G1 X64.3973 Y-55.0894
G1 X65.7976 Y-56.5249
G1 X67.1887 Y-58.0227
G1 X68.5543 Y-59.5599
G1 X69.8784 Y-61.1135
G1 X71.1449 Y-62.6607
G1 X72.3377 Y-64.1786
G1 X73.4408 Y-65.644
G1 X74.438 Y-67.0335
G1 X75.1533 Y-68.0879
G1 X75.0893 Y-68.0331
G3 X75.0662 Y-68.0139 I-0.6507 J-0.7593
G1 X74.4733 Y-67.5359
G3 X74.4405 Y-67.5105 I-0.6276 J-0.7785
G1 X73.8307 Y-67.0593
G3 X73.7883 Y-67.0297 I-0.5948 J-0.8039
G1 X73.1507 Y-66.6071
G3 X73.0998 Y-66.5755 I-0.5524 J-0.8336
G1 X72.4233 Y-66.1832
G3 X72.3659 Y-66.1524 I-0.5016 J-0.8651
G1 X71.6394 Y-65.7922
G3 X71.5781 Y-65.7643 I-0.4442 J-0.8959
G1 X70.7906 Y-65.4378
G3 X70.7283 Y-65.4144 I-0.383 J-0.9237
G1 X69.8689 Y-65.1234
G3 X69.8082 Y-65.105 I-0.3207 J-0.9472
G1 X68.8657 Y-64.8512
G3 X68.8086 Y-64.8376 I-0.26 J-0.9656
G1 X67.7721 Y-64.6227
G3 X67.72 Y-64.6133 I-0.203 J-0.9792
G1 X66.5784 Y-64.4392
G3 X66.4322 Y-64.4277 I-0.1508 J-0.9886
G1 X64.3157 Y-64.4179
G3 X64.0553 Y-64.4511 I-0.0047 J-1.0
G1 X62.4303 Y-64.8811
G3 X62.1124 Y-65.0287 I0.2558 J-0.9667
G1 X60.9414 Y-65.8489
G3 X60.6766 Y-66.1229 I0.5737 J-0.8191
G1 X59.9222 Y-67.2836
G3 X59.7925 Y-67.5782 I0.8384 J-0.545
G1 X59.4171 Y-69.0296
G3 X59.3855 Y-69.2601 I0.9682 J-0.2504
G1 X59.3518 Y-70.9526
G3 X59.3617 Y-71.1147 I0.9998 J-0.0199
G1 X59.6322 Y-72.9987
G3 X59.6554 Y-73.1129 I0.9899 J0.1421
G1 X60.1926 Y-75.1386
G3 X60.2188 Y-75.2226 I0.9666 J0.2563
G1 X60.9852 Y-77.3405
G3 X61.0114 Y-77.4056 I0.9403 J0.3403
G1 X61.9695 Y-79.5659
G3 X61.9952 Y-79.6195 I0.9141 J0.4054
G1 X63.1077 Y-81.7725
G3 X63.1335 Y-81.8193 I0.8884 J0.459
G1 X64.3627 Y-83.9153
G3 X64.3899 Y-83.959 I0.8626 J0.5059
G1 X65.6985 Y-85.9484
G3 X65.7289 Y-85.992 I0.8355 J0.5496
G1 X67.0794 Y-87.825
G3 X67.116 Y-87.8718 I0.8051 J0.5932
G1 X68.471 Y-89.4989
G3 X68.5195 Y-89.553 I0.7684 J0.6399
G1 X69.8414 Y-90.9243
G3 X69.8939 Y-90.975 I0.72 J0.694
G1 X72.1759 Y-93.0204
G1 X74.2133 Y-94.9006
G1 X76.0277 Y-96.6344
G1 X77.636 Y-98.2363
G1 X79.0557 Y-99.7208
G1 X80.3039 Y-101.1025
G1 X81.3982 Y-102.3963
G1 X82.3567 Y-103.6171
G1 X83.1974 Y-104.7804
G1 X83.9387 Y-105.9026
G1 X84.5992 Y-107.0002
G1 X85.1971 Y-108.0904
G1 X85.7504 Y-109.1905
G1 X85.8061 Y-109.3098
G1 X83.6946 Y-107.7669
G3 X83.6101 Y-107.7114 I-0.59 J-0.8074
G1 X79.2091 Y-105.1328
G3 X79.0795 Y-105.069 I-0.5055 J-0.8628
G1 X75.389 Y-103.5719
G3 X75.1794 Y-103.5124 I-0.3759 J-0.9267
G1 X72.1792 Y-103.0065
G3 X71.8458 Y-103.0066 I-0.1663 J-0.9861
G1 X69.5154 Y-103.4016
G3 X69.0997 Y-103.5749 I0.1671 J-0.9859
G1 X67.4187 Y-104.7805
G3 X67.1239 Y-105.1137 I0.5828 J-0.8126
G1 X66.0717 Y-107.0396
G3 X65.964 Y-107.348 I0.8776 J-0.4794
G1 X65.5203 Y-109.9039
G3 X65.5066 Y-110.1215 I0.9853 J-0.171
G1 X65.6509 Y-113.2172
G3 X65.6694 Y-113.3675 I0.9989 J0.0466
G1 X66.3813 Y-116.9126
G3 X66.41 Y-117.0227 I0.9804 J0.1969
G1 X67.669 Y-120.927
G3 X67.7014 Y-121.0135 I0.9517 J0.3069
G1 X69.4871 Y-125.1866
G3 X69.5217 Y-125.2592 I0.9194 J0.3934
G1 X71.8137 Y-129.611
G3 X71.8507 Y-129.6754 I0.8848 J0.466
G1 X74.6285 Y-134.1154
G3 X74.6689 Y-134.1751 I0.8478 J0.5304
G1 X77.9121 Y-138.6131
G3 X77.957 Y-138.6702 I0.8074 J0.59
G1 X79.2201 Y-140.1585
G1 X79.097 Y-140.1254
G3 X79.0135 Y-140.1067 I-0.2597 J-0.9657
G1 X78.059 Y-139.9359
G3 X77.9396 Y-139.9219 I-0.1762 J-0.9844
G1 X77.0363 Y-139.8704
G3 X76.86 Y-139.876 I-0.0569 J-0.9984
G1 X76.0459 Y-139.9739
G3 X75.791 Y-140.0395 I0.1195 J-0.9928
G1 X75.1039 Y-140.3168
G3 X74.7963 Y-140.5128 I0.3743 J-0.9273
G1 X74.2743 Y-140.9995
G3 X74.0407 Y-141.3287 I0.682 J-0.7314
G1 X73.7218 Y-142.0548
G3 X73.6404 Y-142.3789 I0.9156 J-0.4021
G1 X73.5625 Y-143.3744
G3 X73.5713 Y-143.6059 I0.997 J-0.078
G1 X73.7724 Y-144.9007
G3 X73.8078 Y-145.0511 I0.9882 J0.1534
G1 X74.3258 Y-146.6753
G3 X74.3633 Y-146.7742 I0.9527 J0.3039
G1 X75.2362 Y-148.7577
G3 X75.2692 Y-148.8256 I0.9153 J0.4028
G1 X76.535 Y-151.1984
G3 X76.5627 Y-151.247 I0.8823 J0.4707
G1 X78.2594 Y-154.0391
G3 X78.2835 Y-154.0768 I0.8546 J0.5193
G1 X78.6852 Y-154.6757
G3 X78.6885 Y-154.6807 I0.8305 J0.557
G1 X79.1334 Y-155.3354
G3 X79.138 Y-155.3422 I0.8271 J0.562
G1 X79.6301 Y-156.0537
G3 X79.6357 Y-156.0617 I0.8225 J0.5688
G1 X80.1788 Y-156.831
G3 X80.1851 Y-156.8398 I0.8169 J0.5768
G1 X80.7833 Y-157.6678
G3 X80.7902 Y-157.6772 I0.8106 J0.5856
G1 X81.4475 Y-158.5649
G3 X81.4548 Y-158.5746 I0.8037 J0.5951
G1 X82.175 Y-159.5229
G3 X82.1827 Y-159.5328 I0.7964 J0.6048
G1 X82.9698 Y-160.5427
G3 X82.9777 Y-160.5527 I0.7887 J0.6148
G1 X83.8358 Y-161.6251
G3 X83.8438 Y-161.6351 I0.7808 J0.6247
G1 X84.7767 Y-162.771
G3 X84.7849 Y-162.7808 I0.7728 J0.6347
G1 X85.7966 Y-163.9812
G3 X85.8048 Y-163.9908 I0.7646 J0.6444
G1 X86.8993 Y-165.2567
G3 X86.9075 Y-165.2661 I0.7565 J0.654
G1 X87.2915 Y-165.6992
G1 X86.5587 Y-165.3025
G1 X85.4256 Y-164.6859
G1 X84.2689 Y-164.039
G1 X83.0749 Y-163.3407
G1 X81.8296 Y-162.5696
G1 X80.5191 Y-161.7041
G1 X79.1298 Y-160.7227
G1 X77.6484 Y-159.604
G1 X76.062 Y-158.3265
G1 X74.3582 Y-156.8688
G1 X72.5151 Y-155.2014
G3 X72.4913 Y-155.1805 I-0.6709 J-0.7416
G1 X69.0291 Y-152.2426
G1 X65.5232 Y-148.5666
G1 X61.9684 Y-144.2674
G1 X58.4124 Y-139.5116
G1 X54.8982 Y-134.4645
G1 X51.4665 Y-129.29
G1 X48.1567 Y-124.1511
G1 X45.0085 Y-119.2114
G3 X45.006 Y-119.2075 I-0.8433 J-0.5375
G1 X42.0599 Y-114.633
G3 X42.0506 Y-114.6187 I-0.8407 J-0.5414
G1 X39.3463 Y-110.5734
G3 X39.3254 Y-110.5433 I-0.8313 J-0.5558
G1 X36.9011 Y-107.1895
G3 X36.8555 Y-107.1311 I-0.8104 J-0.5858
G1 X34.7495 Y-104.6307
G3 X34.6317 Y-104.5124 I-0.7649 J-0.6442
G1 X32.8823 Y-103.0276
G3 X32.4563 Y-102.8148 I-0.6471 J-0.7624
G1 X31.1016 Y-102.5077
G3 X30.1344 Y-102.8172 I-0.2211 J-0.9753
G1 X29.2128 Y-103.85
G3 X28.9744 Y-104.3409 I0.7461 J-0.6658
G1 X28.5242 Y-106.8756
G3 X28.5089 Y-107.0312 I0.9846 J-0.1749
G1 X28.4818 Y-108.4405
G3 X28.4816 Y-108.4575 I0.9998 J-0.0193
G1 X28.4788 Y-109.7096
G3 X28.479 Y-109.7321 I1.0 J-0.0023
G1 X28.5016 Y-110.8508
G3 X28.5026 Y-110.8789 I0.9998 J0.0202
G1 X28.5514 Y-111.8878
G3 X28.5536 Y-111.9215 I0.9988 J0.0483
G1 X28.6295 Y-112.8444
G3 X28.6333 Y-112.8822 I0.9966 J0.082
G1 X28.7372 Y-113.7428
G3 X28.7428 Y-113.7824 I0.9928 J0.1198
G1 X28.8755 Y-114.6043
G3 X28.8824 Y-114.6422 I0.9872 J0.1594
G1 X29.0449 Y-115.4492
G3 X29.0521 Y-115.4822 I0.9803 J0.1974
G1 X29.2452 Y-116.2979
G3 X29.2516 Y-116.3235 I0.9731 J0.2304
G1 X29.4762 Y-117.1717
G3 X29.481 Y-117.1891 I0.9667 J0.256
G1 X29.738 Y-118.0934
G3 X29.7408 Y-118.1029 I0.9619 J0.2734
G1 X30.0311 Y-119.0871
G3 X30.032 Y-119.09 I0.9591 J0.2829
G1 X30.3561 Y-120.1767
G1 X30.4555 Y-120.5125
G1 X30.0206 Y-120.0577
G1 X29.4123 Y-119.3684
G1 X28.8136 Y-118.6142
G1 X28.2223 Y-117.7703
G1 X27.637 Y-116.8115
G1 X27.0574 Y-115.7128
G1 X26.4845 Y-114.4498
G1 X25.9201 Y-112.9987
G1 X25.3662 Y-111.3368
G1 X24.8252 Y-109.4416
G1 X24.2993 Y-107.2913
G1 X23.8108 Y-104.9593
G1 X23.8473 Y-102.7156
G1 X23.9224 Y-100.5296
G1 X24.0284 Y-98.4944
G1 X24.1588 Y-96.6005
G1 X24.3076 Y-94.8383
G1 X24.4685 Y-93.1981
G1 X24.6354 Y-91.67
G1 X24.8023 Y-90.244
G1 X24.9628 Y-88.9109
G3 X24.963 Y-88.909 I-0.9928 J0.1196
G1 X25.1107 Y-87.662
G3 X25.1117 Y-87.6535 I-0.9931 J0.1176
G1 X25.24 Y-86.4851
G3 X25.2417 Y-86.4689 I-0.994 J0.1092
G1 X25.3443 Y-85.3699
G3 X25.3464 Y-85.3448 I-0.9957 J0.093
G1 X25.4171 Y-84.3061
G3 X25.4189 Y-84.2711 I-0.9977 J0.068
G1 X25.4514 Y-83.2835
G3 X25.4519 Y-83.2379 I-0.9995 J0.0329
G1 X25.4398 Y-82.2924
G3 X25.4376 Y-82.2364 I-0.9999 J-0.0127
G1 X25.3799 Y-81.4002
G1 X25.4755 Y-80.2637
G3 X25.4784 Y-80.2157 I-0.9965 J0.0838
G1 X25.5182 Y-79.1051
G3 X25.5186 Y-79.0508 I-0.9994 J0.0358
G1 X25.5 Y-78.0399
G3 X25.4969 Y-77.9784 I-0.9998 J-0.0185
G1 X25.4236 Y-77.0646
G3 X25.4155 Y-76.9948 I-0.9968 J-0.08
G1 X25.2914 Y-76.1756
G3 X25.276 Y-76.0963 I-0.9887 J-0.1498
G1 X25.1049 Y-75.3692
G3 X25.0793 Y-75.2796 I-0.9734 J-0.2292
G1 X24.8649 Y-74.6421
G3 X24.8252 Y-74.5421 I-0.9478 J-0.3188
G1 X24.5714 Y-73.9917
G3 X24.5127 Y-73.8828 I-0.9081 J-0.4187
G1 X24.2233 Y-73.4169
G3 X24.1408 Y-73.3028 I-0.8494 J-0.5277
G1 X23.8196 Y-72.919
G3 X23.7097 Y-72.8069 I-0.7669 J-0.6418
G1 X23.3605 Y-72.5026
G3 X23.2235 Y-72.4023 I-0.657 J-0.7539
G1 X22.8501 Y-72.175
G3 X22.6919 Y-72.097 I-0.5199 J-0.8542
G1 X22.2981 Y-71.9442
G3 X22.1296 Y-71.8953 I-0.3617 J-0.9323
G1 X21.7192 Y-71.8145
G3 X21.5528 Y-71.796 I-0.1932 J-0.9812
G1 X21.1297 Y-71.7847
G3 X20.9752 Y-71.7926 I-0.0267 J-0.9996
G1 X20.5432 Y-71.8482
G3 X20.3093 Y-71.9077 I0.1277 J-0.9918
G1 X19.3445 Y-72.2819
G3 X19.2339 Y-72.3327 I0.3616 J-0.9323
G1 X18.3682 Y-72.7965
G3 X18.2676 Y-72.8582 I0.4722 J-0.8815
G1 X17.4907 Y-73.401
G3 X17.4047 Y-73.4683 I0.5727 J-0.8198
G1 X16.7064 Y-74.0796
G3 X16.6368 Y-74.1466 I0.6586 J-0.7525
G1 X16.0069 Y-74.8158
G3 X15.9533 Y-74.8776 I0.7282 J-0.6854
G1 X15.3816 Y-75.5943
G3 X15.3422 Y-75.6472 I0.7817 J-0.6236
G1 X14.8185 Y-76.4007
G3 X14.7909 Y-76.4426 I0.8212 J-0.5707
G1 X14.305 Y-77.2224
G3 X14.2872 Y-77.2522 I0.8488 J-0.5288
G1 X13.829 Y-78.0478
G3 X13.8195 Y-78.0647 I0.8666 J-0.4991
G1 X13.5025 Y-78.6406
G1 X14.1117 Y-75.5634
G3 X14.1148 Y-75.5467 I-0.981 J0.1942
G1 X14.8883 Y-71.2578
G3 X14.8909 Y-71.2426 I-0.9841 J0.1775
G1 X15.6045 Y-66.9035
G3 X15.6067 Y-66.8895 I-0.9867 J0.1623
G1 X16.2601 Y-62.531
G3 X16.262 Y-62.5178 I-0.9889 J0.1483
G1 X16.8549 Y-58.1707
G3 X16.8565 Y-58.1582 I-0.9908 J0.1351
G1 X17.3885 Y-53.853
G3 X17.39 Y-53.841 I-0.9925 J0.1226
G1 X17.8608 Y-49.6086
G3 X17.862 Y-49.5967 I-0.9939 J0.1106
G1 X18.2713 Y-45.468
G3 X18.2725 Y-45.456 I-0.9951 J0.0986
G1 X18.6199 Y-41.4616
G3 X18.6209 Y-41.4492 I-0.9962 J0.0867
G1 X18.9061 Y-37.6199
G3 X18.907 Y-37.6068 I-0.9972 J0.0743
G1 X19.1297 Y-33.9734
G3 X19.1305 Y-33.9591 I-0.9981 J0.0612
G1 X19.2903 Y-30.5522
G3 X19.2909 Y-30.536 I-0.9989 J0.0469
G1 X19.3875 Y-27.3865
G3 X19.3879 Y-27.3674 I-0.9995 J0.0307
G1 X19.421 Y-24.506
G3 Y-24.4823 I-0.9999 J0.0116
G1 X19.391 Y-22.0109
G1 X19.4414 Y-21.6256
G1 X19.6021 Y-21.0797
G1 X19.8839 Y-20.3752
G1 X20.2743 Y-19.5572
G1 X20.7599 Y-18.6569
G1 X21.3277 Y-17.7003
G1 X21.9652 Y-16.7112
G1 X22.6598 Y-15.7121
G1 X23.3989 Y-14.7255
G1 X24.1697 Y-13.7732
G1 X24.9589 Y-12.8774
G1 X25.7525 Y-12.0603
G1 X26.0272 Y-11.809
G1 X25.6308 Y-12.8383
G3 X25.615 Y-12.8826 I0.9332 J-0.3593
G1 X24.93 Y-14.946
G3 X24.9168 Y-14.9889 I0.9491 J-0.315
G1 X24.3326 Y-17.055
G3 X24.322 Y-17.0959 I0.9623 J-0.2721
G1 X23.8301 Y-19.1659
G3 X23.8218 Y-19.2043 I0.9729 J-0.2312
G1 X23.414 Y-21.2794
G3 X23.4077 Y-21.3147 I0.9812 J-0.1928
G1 X23.0756 Y-23.396
G3 X23.0711 Y-23.4279 I0.9875 J-0.1575
G1 X22.8064 Y-25.5167
G3 X22.8033 Y-25.5449 I0.9921 J-0.1257
G1 X22.5978 Y-27.6423
G3 X22.5957 Y-27.6666 I0.9952 J-0.0975
G1 X22.441 Y-29.7738
G3 X22.4397 Y-29.7941 I0.9973 J-0.0732
G1 X22.3274 Y-31.9124
G3 X22.3267 Y-31.9287 I0.9986 J-0.0529
G1 X22.2486 Y-34.059
G3 X22.2482 Y-34.0713 I0.9993 J-0.0366
G1 X22.196 Y-36.215
G3 X22.1958 Y-36.2233 I0.9997 J-0.0244
G1 X22.1611 Y-38.3816
G3 Y-38.3859 I0.9999 J-0.0161
G1 X22.1356 Y-40.5599
G3 Y-40.5603 I0.9999 J-0.0117
G1 X22.111 Y-42.7512
G3 X22.1116 Y-42.8003 I0.9999 J-0.0112
G1 X22.1891 Y-44.8419
G3 X22.1948 Y-44.9169 I0.9993 J0.0379
G1 X22.4717 Y-47.354
G3 X22.4783 Y-47.4016 I0.9936 J0.1129
G1 X22.9262 Y-50.1564
G3 X22.9321 Y-50.1894 I0.987 J0.1605
G1 X23.5226 Y-53.1841
G3 X23.5278 Y-53.2085 I0.9811 J0.1935
G1 X24.2324 Y-56.3653
G3 X24.2369 Y-56.3844 I0.976 J0.2179
G1 X25.0272 Y-59.6255
G3 X25.0312 Y-59.6411 I0.9715 J0.2369
G1 X25.8789 Y-62.8887
G3 X25.8825 Y-62.9021 I0.9676 J0.2526
G1 X26.759 Y-66.0783
G3 X26.7625 Y-66.0905 I0.964 J0.266
G1 X27.6394 Y-69.1175
G3 X27.6429 Y-69.1294 I0.9605 J0.2783
G1 X28.4919 Y-71.9295
G3 X28.4958 Y-71.942 I0.957 J0.2902
G1 X29.2883 Y-74.4372
G3 X29.2932 Y-74.4522 I0.9531 J0.3027
G1 X30.0009 Y-76.5648
G3 X30.0081 Y-76.5856 I0.9482 J0.3176
G1 X30.6025 Y-78.2378
G3 X30.617 Y-78.2758 I0.941 J0.3385
G1 X31.0697 Y-79.3897
G3 X31.1264 Y-79.5068 I0.9264 J0.3765
G1 X31.409 Y-80.0047
G3 X33.1979 Y-79.905 I0.8697 J0.4936
G1 X33.2818 Y-79.709
G3 X33.3588 Y-79.227 I-0.9192 J0.3938
G1 X33.2865 Y-78.4097
G3 X33.2827 Y-78.374 I-0.9961 J-0.0881
G1 X33.1328 Y-77.1723
G3 X33.1313 Y-77.1607 I-0.9923 J-0.1238
G1 X32.9263 Y-75.6606
G3 X32.9261 Y-75.6586 I-0.9908 J-0.1354
G1 X32.6889 Y-73.9485
G1 X32.4423 Y-72.117
G1 X32.209 Y-70.2515
G1 X32.0114 Y-68.4402
G1 X31.872 Y-66.7743
G1 X31.8124 Y-65.3527
G1 X31.8209 Y-65.1055
G1 X32.49 Y-66.3355
G1 X33.599 Y-68.7512
G1 X34.1677 Y-70.107
G1 X34.8261 Y-71.7517
G1 X35.5558 Y-73.6354
G1 X36.3404 Y-75.7134
G1 X37.164 Y-77.9413
G1 X38.0108 Y-80.2755
G1 X38.8651 Y-82.6722
G1 X39.7112 Y-85.0879
G1 X40.5334 Y-87.4788
G1 X41.3161 Y-89.8015
G1 X42.0434 Y-92.012
G1 X42.6997 Y-94.0663
G1 X43.2689 Y-95.9196
G1 X43.7348 Y-97.5258
G1 X44.0804 Y-98.8344
G1 X44.2971 Y-99.827
G3 X44.3202 Y-99.914 I0.977 J0.2133
G1 X44.3356 Y-99.9629
G3 X46.2829 Y-99.5486 I0.9538 J0.3003
G1 X46.2456 Y-99.2227
G3 X46.2446 Y-99.2148 I-0.9935 J-0.1139
G1 X46.164 Y-98.5579
G1 X46.0496 Y-97.6142
G1 X45.9108 Y-96.427
G1 X45.757 Y-95.0385
G1 X45.5974 Y-93.4916
G1 X45.4414 Y-91.8297
G1 X45.2985 Y-90.096
G1 X45.1778 Y-88.3344
G1 X45.0888 Y-86.589
G1 X45.0405 Y-84.9045
G1 X45.0419 Y-83.327
G1 X45.1011 Y-81.9053
G1 X45.2238 Y-80.6934
G1 X45.4098 Y-79.7488
G1 X45.6364 Y-79.1055
G1 X45.8776 Y-78.6926
G1 X46.1002 Y-78.4653
G1 X46.305 Y-78.352
G1 X46.5389 Y-78.3017
G1 X46.8467 Y-78.3142
G1 X47.2337 Y-78.408
G1 X47.6805 Y-78.5892
G1 X48.1631 Y-78.8504
G1 X48.6607 Y-79.1772
G1 X49.1563 Y-79.5525
G1 X49.6352 Y-79.9581
G1 X50.0843 Y-80.3755
G1 X50.4915 Y-80.7859
G1 X50.8446 Y-81.1701
G1 X51.1458 Y-81.5246
G3 X51.4254 Y-81.753 I0.7621 J0.6475
G1 X51.5064 Y-81.7976
G3 X52.9168 Y-80.549 I0.4825 J0.8759
G1 X52.7876 Y-80.2273
G3 X52.7625 Y-80.1701 I-0.9279 J-0.3727
G1 X52.4557 Y-79.5257
G3 X52.451 Y-79.5161 I-0.9029 J-0.4299
G1 X51.9996 Y-78.5934
G1 X51.4376 Y-77.439
G1 X50.798 Y-76.0977
G1 X50.1131 Y-74.6124
G1 X49.4153 Y-73.0272
G1 X48.7374 Y-71.387
G1 X48.1123 Y-69.7374
G1 X47.5728 Y-68.1258
G1 X47.1515 Y-66.6022
G1 X46.8795 Y-65.2221
G1 X46.7824 Y-64.0512
G1 X46.865 Y-63.1706
G1 X47.0967 Y-62.5962
G1 X47.4285 Y-62.2211
G1 X47.8349 Y-61.9719
G1 X48.3318 Y-61.831
G1 X48.9381 Y-61.7976
G1 X49.6374 Y-61.876
G1 X50.3982 Y-62.0582
G1 X51.1883 Y-62.3265
G1 X51.9781 Y-62.6578
G1 X52.7408 Y-63.0273
G1 X53.4519 Y-63.4093
G1 X54.0884 Y-63.778
G1 X54.629 Y-64.1085
G1 X55.0545 Y-64.3764
G3 X55.0595 Y-64.3796 I0.5329 J0.8462
G1 X55.3443 Y-64.5566
G3 X55.438 Y-64.6081 I0.5279 J0.8493
G1 X55.5554 Y-64.6647
G3 X56.7737 Y-63.1433 I0.4341 J0.9009
G1 X56.7027 Y-63.0535
G3 X56.6467 Y-62.9887 I-0.7842 J-0.6205
G1 X55.0408 Y-61.2825
G1 X53.6292 Y-59.5756
G1 X52.3796 Y-57.8564
G1 X51.2824 Y-56.1376
G1 X50.328 Y-54.4316
G1 X49.5071 Y-52.7512
G1 X48.8104 Y-51.1091
G1 X48.2286 Y-49.5184
G1 X47.7523 Y-47.9919
G1 X47.3724 Y-46.543
G1 X47.0795 Y-45.1849
G1 X46.8642 Y-43.931
G1 X46.7172 Y-42.7951
G1 X46.629 Y-41.7913
G1 X46.5901 Y-40.9347
G1 X46.5903 Y-40.2149
G1 Y-40.2148
G1 Y-40.2149
G1 X46.5917 Y-36.9871
G3 X46.5904 Y-36.9355 I-1.0 J0.0004
G1 X46.4295 Y-33.7912
G3 X46.4257 Y-33.7415 I-0.9987 J-0.0511
G1 X46.1174 Y-30.6964
G3 X46.1113 Y-30.6484 I-0.9949 J-0.1007
G1 X45.6706 Y-27.7183
G3 X45.6624 Y-27.6715 I-0.9889 J-0.1487
G1 X45.1042 Y-24.8722
G3 X45.0938 Y-24.826 I-0.9807 J-0.1956
G1 X44.433 Y-22.1732
G3 X44.4203 Y-22.1271 I-0.9703 J-0.2417
G1 X43.6719 Y-19.6366
G3 X43.6565 Y-19.5898 I-0.9577 J-0.2878
G1 X42.8354 Y-17.2773
G3 X42.8167 Y-17.2288 I-0.9423 J-0.3346
G1 X41.9377 Y-15.1101
G3 X41.9146 Y-15.0585 I-0.9237 J-0.3832
G1 X40.9928 Y-13.1493
G3 X40.9633 Y-13.0929 I-0.9005 J-0.4348
G1 X40.0135 Y-11.4091
G3 X39.9743 Y-11.3453 I-0.871 J-0.4913
G1 X39.0116 Y-9.9025
G3 X38.9568 Y-9.8281 I-0.8318 J-0.5551
G1 X37.996 Y-8.6422
G3 X37.9144 Y-8.553 I-0.777 J-0.6295
G1 X37.6471 Y-8.2944
G1 Z-1.6
G1 X39.0412 Y-8.4646
G1 X40.381 Y-8.7968
G1 X41.6614 Y-9.2985
G1 X42.8886 Y-9.9814
G1 X44.068 Y-10.8603
G1 X45.202 Y-11.9516
G1 X46.29 Y-13.2715
G1 X47.3293 Y-14.8348
G1 X48.3161 Y-16.6545
G1 X49.2461 Y-18.7421
G1 X50.1156 Y-21.1081
G1 X50.9213 Y-23.7625
G1 X51.6603 Y-26.715
G1 X52.3302 Y-29.9744
G1 X52.6669 Y-32.002
G3 X52.6691 Y-32.0143 I0.9865 J0.1638
G1 X53.0045 Y-33.8887
G3 X53.0077 Y-33.9056 I0.9844 J0.1762
G1 X53.346 Y-35.6255
G3 X53.3506 Y-35.6475 I0.9812 J0.193
G1 X53.6991 Y-37.2306
G3 X53.7055 Y-37.2581 I0.9766 J0.215
G1 X54.0714 Y-38.722
G3 X54.0803 Y-38.7551 I0.9702 J0.2425
G1 X54.4709 Y-40.1174
G3 X54.4827 Y-40.1556 I0.9613 J0.2756
G1 X54.9052 Y-41.4338
G3 X54.9202 Y-41.476 I0.9495 J0.3138
G1 X55.3819 Y-42.6877
G3 X55.4 Y-42.7321 I0.9345 J0.3561
G1 X55.9082 Y-43.895
G3 X55.9289 Y-43.9393 I0.9163 J0.4005
G1 X56.4909 Y-45.0709
G3 X56.513 Y-45.1129 I0.8956 J0.4448
G1 X57.1359 Y-46.2307
G3 X57.1581 Y-46.2686 I0.8735 J0.4868
G1 X57.8493 Y-47.3903
G3 X57.8702 Y-47.4227 I0.8513 J0.5246
G1 X58.637 Y-48.566
G3 X58.6554 Y-48.5925 I0.8305 J0.557
G1 X59.505 Y-49.7748
G3 X59.5203 Y-49.7956 I0.8121 J0.5835
G1 X60.46 Y-51.0346
G3 X60.472 Y-51.05 I0.7968 J0.6043
G1 X61.509 Y-52.3633
G3 X61.6217 Y-52.484 I0.7848 J0.6197
G1 X63.0046 Y-53.7392
G1 X64.3973 Y-55.0894
G1 X65.7976 Y-56.5249
G1 X67.1887 Y-58.0227
G1 X68.5543 Y-59.5599
G1 X69.8784 Y-61.1135
G1 X71.1449 Y-62.6607
G1 X72.3377 Y-64.1786
G1 X73.4408 Y-65.644
G1 X74.438 Y-67.0335
G1 X75.1533 Y-68.0879
G1 X75.0893 Y-68.0331
G3 X75.0662 Y-68.0139 I-0.6507 J-0.7593
G1 X74.4733 Y-67.5359
G3 X74.4405 Y-67.5105 I-0.6276 J-0.7785
G1 X73.8307 Y-67.0593
G3 X73.7883 Y-67.0297 I-0.5948 J-0.8039
G1 X73.1507 Y-66.6071
G3 X73.0998 Y-66.5755 I-0.5524 J-0.8336
G1 X72.4233 Y-66.1832
G3 X72.3659 Y-66.1524 I-0.5016 J-0.8651
G1 X71.6394 Y-65.7922
G3 X71.5781 Y-65.7643 I-0.4442 J-0.8959
G1 X70.7906 Y-65.4378
G3 X70.7283 Y-65.4144 I-0.383 J-0.9237
G1 X69.8689 Y-65.1234
G3 X69.8082 Y-65.105 I-0.3207 J-0.9472
G1 X68.8657 Y-64.8512
G3 X68.8086 Y-64.8376 I-0.26 J-0.9656
G1 X67.7721 Y-64.6227
G3 X67.72 Y-64.6133 I-0.203 J-0.9792
G1 X66.5784 Y-64.4392
G3 X66.4322 Y-64.4277 I-0.1508 J-0.9886
G1 X64.3157 Y-64.4179
G3 X64.0553 Y-64.4511 I-0.0047 J-1.0
G1 X62.4303 Y-64.8811
G3 X62.1124 Y-65.0287 I0.2558 J-0.9667
G1 X60.9414 Y-65.8489
G3 X60.6766 Y-66.1229 I0.5737 J-0.8191
G1 X59.9222 Y-67.2836
G3 X59.7925 Y-67.5782 I0.8384 J-0.545
G1 X59.4171 Y-69.0296
G3 X59.3855 Y-69.2601 I0.9682 J-0.2504
G1 X59.3518 Y-70.9526
G3 X59.3617 Y-71.1147 I0.9998 J-0.0199
G1 X59.6322 Y-72.9987
G3 X59.6554 Y-73.1129 I0.9899 J0.1421
G1 X60.1926 Y-75.1386
G3 X60.2188 Y-75.2226 I0.9666 J0.2563
G1 X60.9852 Y-77.3405
G3 X61.0114 Y-77.4056 I0.9403 J0.3403
G1 X61.9695 Y-79.5659
G3 X61.9952 Y-79.6195 I0.9141 J0.4054
G1 X63.1077 Y-81.7725
G3 X63.1335 Y-81.8193 I0.8884 J0.459
G1 X64.3627 Y-83.9153
G3 X64.3899 Y-83.959 I0.8626 J0.5059
G1 X65.6985 Y-85.9484
G3 X65.7289 Y-85.992 I0.8355 J0.5496
G1 X67.0794 Y-87.825
G3 X67.116 Y-87.8718 I0.8051 J0.5932
G1 X68.471 Y-89.4989
G3 X68.5195 Y-89.553 I0.7684 J0.6399
G1 X69.8414 Y-90.9243
G3 X69.8939 Y-90.975 I0.72 J0.694
G1 X72.1759 Y-93.0204
G1 X74.2133 Y-94.9006
G1 X76.0277 Y-96.6344
G1 X77.636 Y-98.2363
G1 X79.0557 Y-99.7208
G1 X80.3039 Y-101.1025
G1 X81.3982 Y-102.3963
G1 X82.3567 Y-103.6171
G1 X83.1974 Y-104.7804
G1 X83.9387 Y-105.9026
G1 X84.5992 Y-107.0002
G1 X85.1971 Y-108.0904
G1 X85.7504 Y-109.1905
G1 X85.8061 Y-109.3098
G1 X83.6946 Y-107.7669
G3 X83.6101 Y-107.7114 I-0.59 J-0.8074
G1 X79.2091 Y-105.1328
G3 X79.0795 Y-105.069 I-0.5055 J-0.8628
G1 X75.389 Y-103.5719
G3 X75.1794 Y-103.5124 I-0.3759 J-0.9267
G1 X72.1792 Y-103.0065
G3 X71.8458 Y-103.0066 I-0.1663 J-0.9861
G1 X69.5154 Y-103.4016
G3 X69.0997 Y-103.5749 I0.1671 J-0.9859
G1 X67.4187 Y-104.7805
G3 X67.1239 Y-105.1137 I0.5828 J-0.8126
G1 X66.0717 Y-107.0396
G3 X65.964 Y-107.348 I0.8776 J-0.4794
G1 X65.5203 Y-109.9039
G3 X65.5066 Y-110.1215 I0.9853 J-0.171
G1 X65.6509 Y-113.2172
G3 X65.6694 Y-113.3675 I0.9989 J0.0466
G1 X66.3813 Y-116.9126
G3 X66.41 Y-117.0227 I0.9804 J0.1969
G1 X67.669 Y-120.927
G3 X67.7014 Y-121.0135 I0.9517 J0.3069
G1 X69.4871 Y-125.1866
G3 X69.5217 Y-125.2592 I0.9194 J0.3934
G1 X71.8137 Y-129.611
G3 X71.8507 Y-129.6754 I0.8848 J0.466
G1 X74.6285 Y-134.1154
G3 X74.6689 Y-134.1751 I0.8478 J0.5304
G1 X77.9121 Y-138.6131
G3 X77.957 Y-138.6702 I0.8074 J0.59
G1 X79.2201 Y-140.1585
G1 X79.097 Y-140.1254
G3 X79.0135 Y-140.1067 I-0.2597 J-0.9657
G1 X78.059 Y-139.9359
G3 X77.9396 Y-139.9219 I-0.1762 J-0.9844
G1 X77.0363 Y-139.8704
G3 X76.86 Y-139.876 I-0.0569 J-0.9984
G1 X76.0459 Y-139.9739
G3 X75.791 Y-140.0395 I0.1195 J-0.9928
G1 X75.1039 Y-140.3168
G3 X74.7963 Y-140.5128 I0.3743 J-0.9273
G1 X74.2743 Y-140.9995
G3 X74.0407 Y-141.3287 I0.682 J-0.7314
G1 X73.7218 Y-142.0548
G3 X73.6404 Y-142.3789 I0.9156 J-0.4021
G1 X73.5625 Y-143.3744
G3 X73.5713 Y-143.6059 I0.997 J-0.078
G1 X73.7724 Y-144.9007
G3 X73.8078 Y-145.0511 I0.9882 J0.1534
G1 X74.3258 Y-146.6753
G3 X74.3633 Y-146.7742 I0.9527 J0.3039
G1 X75.2362 Y-148.7577
G3 X75.2692 Y-148.8256 I0.9153 J0.4028
G1 X76.535 Y-151.1984
G3 X76.5627 Y-151.247 I0.8823 J0.4707
G1 X78.2594 Y-154.0391
G3 X78.2835 Y-154.0768 I0.8546 J0.5193
G1 X78.6852 Y-154.6757
G3 X78.6885 Y-154.6807 I0.8305 J0.557
G1 X79.1334 Y-155.3354
G3 X79.138 Y-155.3422 I0.8271 J0.562
G1 X79.6301 Y-156.0537
G3 X79.6357 Y-156.0617 I0.8225 J0.5688
G1 X80.1788 Y-156.831
G3 X80.1851 Y-156.8398 I0.8169 J0.5768
G1 X80.7833 Y-157.6678
G3 X80.7902 Y-157.6772 I0.8106 J0.5856
G1 X81.4475 Y-158.5649
G3 X81.4548 Y-158.5746 I0.8037 J0.5951
G1 X82.175 Y-159.5229
G3 X82.1827 Y-159.5328 I0.7964 J0.6048
G1 X82.9698 Y-160.5427
G3 X82.9777 Y-160.5527 I0.7887 J0.6148
G1 X83.8358 Y-161.6251
G3 X83.8438 Y-161.6351 I0.7808 J0.6247
G1 X84.7767 Y-162.771
G3 X84.7849 Y-162.7808 I0.7728 J0.6347
G1 X85.7966 Y-163.9812
G3 X85.8048 Y-163.9908 I0.7646 J0.6444
G1 X86.8993 Y-165.2567
G3 X86.9075 Y-165.2661 I0.7565 J0.654
G1 X87.2915 Y-165.6992
G1 X86.5587 Y-165.3025
G1 X85.4256 Y-164.6859
G1 X84.2689 Y-164.039
G1 X83.0749 Y-163.3407
G1 X81.8296 Y-162.5696
G1 X80.5191 Y-161.7041
G1 X79.1298 Y-160.7227
G1 X77.6484 Y-159.604
G1 X76.062 Y-158.3265
G1 X74.3582 Y-156.8688
G1 X72.5151 Y-155.2014
G3 X72.4913 Y-155.1805 I-0.6709 J-0.7416
G1 X69.0291 Y-152.2426
G1 X65.5232 Y-148.5666
G1 X61.9684 Y-144.2674
G1 X58.4124 Y-139.5116
G1 X54.8982 Y-134.4645
G1 X51.4665 Y-129.29
G1 X48.1567 Y-124.1511
G1 X45.0085 Y-119.2114
G3 X45.006 Y-119.2075 I-0.8433 J-0.5375
G1 X42.0599 Y-114.633
G3 X42.0506 Y-114.6187 I-0.8407 J-0.5414
G1 X39.3463 Y-110.5734
G3 X39.3254 Y-110.5433 I-0.8313 J-0.5558
G1 X36.9011 Y-107.1895
G3 X36.8555 Y-107.1311 I-0.8104 J-0.5858
G1 X34.7495 Y-104.6307
G3 X34.6317 Y-104.5124 I-0.7649 J-0.6442
G1 X32.8823 Y-103.0276
G3 X32.4563 Y-102.8148 I-0.6471 J-0.7624
G1 X31.1016 Y-102.5077
G3 X30.1344 Y-102.8172 I-0.2211 J-0.9753
G1 X29.2128 Y-103.85
G3 X28.9744 Y-104.3409 I0.7461 J-0.6658
G1 X28.5242 Y-106.8756
G3 X28.5089 Y-107.0312 I0.9846 J-0.1749
G1 X28.4818 Y-108.4405
G3 X28.4816 Y-108.4575 I0.9998 J-0.0193
G1 X28.4788 Y-109.7096
G3 X28.479 Y-109.7321 I1.0 J-0.0023
G1 X28.5016 Y-110.8508
G3 X28.5026 Y-110.8789 I0.9998 J0.0202
G1 X28.5514 Y-111.8878
G3 X28.5536 Y-111.9215 I0.9988 J0.0483
G1 X28.6295 Y-112.8444
G3 X28.6333 Y-112.8822 I0.9966 J0.082
G1 X28.7372 Y-113.7428
G3 X28.7428 Y-113.7824 I0.9928 J0.1198
G1 X28.8755 Y-114.6043
G3 X28.8824 Y-114.6422 I0.9872 J0.1594
G1 X29.0449 Y-115.4492
G3 X29.0521 Y-115.4822 I0.9803 J0.1974
G1 X29.2452 Y-116.2979
G3 X29.2516 Y-116.3235 I0.9731 J0.2304
G1 X29.4762 Y-117.1717
G3 X29.481 Y-117.1891 I0.9667 J0.256
G1 X29.738 Y-118.0934
G3 X29.7408 Y-118.1029 I0.9619 J0.2734
G1 X30.0311 Y-119.0871
G3 X30.032 Y-119.09 I0.9591 J0.2829
G1 X30.3561 Y-120.1767
G1 X30.4555 Y-120.5125
G1 X30.0206 Y-120.0577
G1 X29.4123 Y-119.3684
G1 X28.8136 Y-118.6142
G1 X28.2223 Y-117.7703
G1 X27.637 Y-116.8115
G1 X27.0574 Y-115.7128
G1 X26.4845 Y-114.4498
G1 X25.9201 Y-112.9987
G1 X25.3662 Y-111.3368
G1 X24.8252 Y-109.4416
G1 X24.2993 Y-107.2913
G1 X23.8108 Y-104.9593
G1 X23.8473 Y-102.7156
G1 X23.9224 Y-100.5296
G1 X24.0284 Y-98.4944
G1 X24.1588 Y-96.6005
G1 X24.3076 Y-94.8383
G1 X24.4685 Y-93.1981
G1 X24.6354 Y-91.67
G1 X24.8023 Y-90.244
G1 X24.9628 Y-88.9109
G3 X24.963 Y-88.909 I-0.9928 J0.1196
G1 X25.1107 Y-87.662
G3 X25.1117 Y-87.6535 I-0.9931 J0.1176
G1 X25.24 Y-86.4851
G3 X25.2417 Y-86.4689 I-0.994 J0.1092
G1 X25.3443 Y-85.3699
G3 X25.3464 Y-85.3448 I-0.9957 J0.093
G1 X25.4171 Y-84.3061
G3 X25.4189 Y-84.2711 I-0.9977 J0.068
G1 X25.4514 Y-83.2835
G3 X25.4519 Y-83.2379 I-0.9995 J0.0329
G1 X25.4398 Y-82.2924
G3 X25.4376 Y-82.2364 I-0.9999 J-0.0127
G1 X25.3799 Y-81.4002
G1 X25.4755 Y-80.2637
G3 X25.4784 Y-80.2157 I-0.9965 J0.0838
G1 X25.5182 Y-79.1051
G3 X25.5186 Y-79.0508 I-0.9994 J0.0358
G1 X25.5 Y-78.0399
G3 X25.4969 Y-77.9784 I-0.9998 J-0.0185
G1 X25.4236 Y-77.0646
G3 X25.4155 Y-76.9948 I-0.9968 J-0.08
G1 X25.2914 Y-76.1756
G3 X25.276 Y-76.0963 I-0.9887 J-0.1498
G1 X25.1049 Y-75.3692
G3 X25.0793 Y-75.2796 I-0.9734 J-0.2292
G1 X24.8649 Y-74.6421
G3 X24.8252 Y-74.5421 I-0.9478 J-0.3188
G1 X24.5714 Y-73.9917
G3 X24.5127 Y-73.8828 I-0.9081 J-0.4187
G1 X24.2233 Y-73.4169
G3 X24.1408 Y-73.3028 I-0.8494 J-0.5277
G1 X23.8196 Y-72.919
G3 X23.7097 Y-72.8069 I-0.7669 J-0.6418
G1 X23.3605 Y-72.5026
G3 X23.2235 Y-72.4023 I-0.657 J-0.7539
G1 X22.8501 Y-72.175
G3 X22.6919 Y-72.097 I-0.5199 J-0.8542
G1 X22.2981 Y-71.9442
G3 X22.1296 Y-71.8953 I-0.3617 J-0.9323
G1 X21.7192 Y-71.8145
G3 X21.5528 Y-71.796 I-0.1932 J-0.9812
G1 X21.1297 Y-71.7847
G3 X20.9752 Y-71.7926 I-0.0267 J-0.9996
G1 X20.5432 Y-71.8482
G3 X20.3093 Y-71.9077 I0.1277 J-0.9918
G1 X19.3445 Y-72.2819
G3 X19.2339 Y-72.3327 I0.3616 J-0.9323
G1 X18.3682 Y-72.7965
G3 X18.2676 Y-72.8582 I0.4722 J-0.8815
G1 X17.4907 Y-73.401
G3 X17.4047 Y-73.4683 I0.5727 J-0.8198
G1 X16.7064 Y-74.0796
G3 X16.6368 Y-74.1466 I0.6586 J-0.7525
G1 X16.0069 Y-74.8158
G3 X15.9533 Y-74.8776 I0.7282 J-0.6854
G1 X15.3816 Y-75.5943
G3 X15.3422 Y-75.6472 I0.7817 J-0.6236
G1 X14.8185 Y-76.4007
G3 X14.7909 Y-76.4426 I0.8212 J-0.5707
G1 X14.305 Y-77.2224
G3 X14.2872 Y-77.2522 I0.8488 J-0.5288
G1 X13.829 Y-78.0478
G3 X13.8195 Y-78.0647 I0.8666 J-0.4991
G1 X13.5025 Y-78.6406
G1 X14.1117 Y-75.5634
G3 X14.1148 Y-75.5467 I-0.981 J0.1942
G1 X14.8883 Y-71.2578
G3 X14.8909 Y-71.2426 I-0.9841 J0.1775
G1 X15.6045 Y-66.9035
G3 X15.6067 Y-66.8895 I-0.9867 J0.1623
G1 X16.2601 Y-62.531
G3 X16.262 Y-62.5178 I-0.9889 J0.1483
G1 X16.8549 Y-58.1707
G3 X16.8565 Y-58.1582 I-0.9908 J0.1351
G1 X17.3885 Y-53.853
G3 X17.39 Y-53.841 I-0.9925 J0.1226
G1 X17.8608 Y-49.6086
G3 X17.862 Y-49.5967 I-0.9939 J0.1106
G1 X18.2713 Y-45.468
G3 X18.2725 Y-45.456 I-0.9951 J0.0986
G1 X18.6199 Y-41.4616
G3 X18.6209 Y-41.4492 I-0.9962 J0.0867
G1 X18.9061 Y-37.6199
G3 X18.907 Y-37.6068 I-0.9972 J0.0743
G1 X19.1297 Y-33.9734
G3 X19.1305 Y-33.9591 I-0.9981 J0.0612
G1 X19.2903 Y-30.5522
G3 X19.2909 Y-30.536 I-0.9989 J0.0469
G1 X19.3875 Y-27.3865
G3 X19.3879 Y-27.3674 I-0.9995 J0.0307
G1 X19.421 Y-24.506
G3 Y-24.4823 I-0.9999 J0.0116
G1 X19.391 Y-22.0109
G1 X19.4414 Y-21.6256
G1 X19.6021 Y-21.0797
G1 X19.8839 Y-20.3752
G1 X20.2743 Y-19.5572
G1 X20.7599 Y-18.6569
G1 X21.3277 Y-17.7003
G1 X21.9652 Y-16.7112
G1 X22.6598 Y-15.7121
G1 X23.3989 Y-14.7255
G1 X24.1697 Y-13.7732
G1 X24.9589 Y-12.8774
G1 X25.7525 Y-12.0603
G1 X26.0272 Y-11.809
G1 X25.6308 Y-12.8383
G3 X25.615 Y-12.8826 I0.9332 J-0.3593
G1 X24.93 Y-14.946
G3 X24.9168 Y-14.9889 I0.9491 J-0.315
G1 X24.3326 Y-17.055
G3 X24.322 Y-17.0959 I0.9623 J-0.2721
G1 X23.8301 Y-19.1659
G3 X23.8218 Y-19.2043 I0.9729 J-0.2312
G1 X23.414 Y-21.2794
G3 X23.4077 Y-21.3147 I0.9812 J-0.1928
G1 X23.0756 Y-23.396
G3 X23.0711 Y-23.4279 I0.9875 J-0.1575
G1 X22.8064 Y-25.5167
G3 X22.8033 Y-25.5449 I0.9921 J-0.1257
G1 X22.5978 Y-27.6423
G3 X22.5957 Y-27.6666 I0.9952 J-0.0975
G1 X22.441 Y-29.7738
G3 X22.4397 Y-29.7941 I0.9973 J-0.0732
G1 X22.3274 Y-31.9124
G3 X22.3267 Y-31.9287 I0.9986 J-0.0529
G1 X22.2486 Y-34.059
G3 X22.2482 Y-34.0713 I0.9993 J-0.0366
G1 X22.196 Y-36.215
G3 X22.1958 Y-36.2233 I0.9997 J-0.0244
G1 X22.1611 Y-38.3816
G3 Y-38.3859 I0.9999 J-0.0161
G1 X22.1356 Y-40.5599
G3 Y-40.5603 I0.9999 J-0.0117
G1 X22.111 Y-42.7512
G3 X22.1116 Y-42.8003 I0.9999 J-0.0112
G1 X22.1891 Y-44.8419
G3 X22.1948 Y-44.9169 I0.9993 J0.0379
G1 X22.4717 Y-47.354
G3 X22.4783 Y-47.4016 I0.9936 J0.1129
G1 X22.9262 Y-50.1564
G3 X22.9321 Y-50.1894 I0.987 J0.1605
G1 X23.5226 Y-53.1841
G3 X23.5278 Y-53.2085 I0.9811 J0.1935
G1 X24.2324 Y-56.3653
G3 X24.2369 Y-56.3844 I0.976 J0.2179
G1 X25.0272 Y-59.6255
G3 X25.0312 Y-59.6411 I0.9715 J0.2369
G1 X25.8789 Y-62.8887
G3 X25.8825 Y-62.9021 I0.9676 J0.2526
G1 X26.759 Y-66.0783
G3 X26.7625 Y-66.0905 I0.964 J0.266
G1 X27.6394 Y-69.1175
G3 X27.6429 Y-69.1294 I0.9605 J0.2783
G1 X28.4919 Y-71.9295
G3 X28.4958 Y-71.942 I0.957 J0.2902
G1 X29.2883 Y-74.4372
G3 X29.2932 Y-74.4522 I0.9531 J0.3027
G1 X30.0009 Y-76.5648
G3 X30.0081 Y-76.5856 I0.9482 J0.3176
G1 X30.6025 Y-78.2378
G3 X30.617 Y-78.2758 I0.941 J0.3385
G1 X31.0697 Y-79.3897
G3 X31.1264 Y-79.5068 I0.9264 J0.3765
G1 X31.409 Y-80.0047
G3 X33.1979 Y-79.905 I0.8697 J0.4936
G1 X33.2818 Y-79.709
G3 X33.3588 Y-79.227 I-0.9192 J0.3938
G1 X33.2865 Y-78.4097
G3 X33.2827 Y-78.374 I-0.9961 J-0.0881
G1 X33.1328 Y-77.1723
G3 X33.1313 Y-77.1607 I-0.9923 J-0.1238
G1 X32.9263 Y-75.6606
G3 X32.9261 Y-75.6586 I-0.9908 J-0.1354
G1 X32.6889 Y-73.9485
G1 X32.4423 Y-72.117
G1 X32.209 Y-70.2515
G1 X32.0114 Y-68.4402
G1 X31.872 Y-66.7743
G1 X31.8124 Y-65.3527
G1 X31.8209 Y-65.1055
G1 X32.49 Y-66.3355
G1 X33.599 Y-68.7512
G1 X34.1677 Y-70.107
G1 X34.8261 Y-71.7517
G1 X35.5558 Y-73.6354
G1 X36.3404 Y-75.7134
G1 X37.164 Y-77.9413
G1 X38.0108 Y-80.2755
G1 X38.8651 Y-82.6722
G1 X39.7112 Y-85.0879
G1 X40.5334 Y-87.4788
G1 X41.3161 Y-89.8015
G1 X42.0434 Y-92.012
G1 X42.6997 Y-94.0663
G1 X43.2689 Y-95.9196
G1 X43.7348 Y-97.5258
G1 X44.0804 Y-98.8344
G1 X44.2971 Y-99.827
G3 X44.3202 Y-99.914 I0.977 J0.2133
G1 X44.3356 Y-99.9629
G3 X46.2829 Y-99.5486 I0.9538 J0.3003
G1 X46.2456 Y-99.2227
G3 X46.2446 Y-99.2148 I-0.9935 J-0.1139
G1 X46.164 Y-98.5579
G1 X46.0496 Y-97.6142
G1 X45.9108 Y-96.427
G1 X45.757 Y-95.0385
G1 X45.5974 Y-93.4916
G1 X45.4414 Y-91.8297
G1 X45.2985 Y-90.096
G1 X45.1778 Y-88.3344
G1 X45.0888 Y-86.589
G1 X45.0405 Y-84.9045
G1 X45.0419 Y-83.327
G1 X45.1011 Y-81.9053
G1 X45.2238 Y-80.6934
G1 X45.4098 Y-79.7488
G1 X45.6364 Y-79.1055
G1 X45.8776 Y-78.6926
G1 X46.1002 Y-78.4653
G1 X46.305 Y-78.352
G1 X46.5389 Y-78.3017
G1 X46.8467 Y-78.3142
G1 X47.2337 Y-78.408
G1 X47.6805 Y-78.5892
G1 X48.1631 Y-78.8504
G1 X48.6607 Y-79.1772
G1 X49.1563 Y-79.5525
G1 X49.6352 Y-79.9581
G1 X50.0843 Y-80.3755
G1 X50.4915 Y-80.7859
G1 X50.8446 Y-81.1701
G1 X51.1458 Y-81.5246
G3 X51.4254 Y-81.753 I0.7621 J0.6475
G1 X51.5064 Y-81.7976
G3 X52.9168 Y-80.549 I0.4825 J0.8759
G1 X52.7876 Y-80.2273
G3 X52.7625 Y-80.1701 I-0.9279 J-0.3727
G1 X52.4557 Y-79.5257
G3 X52.451 Y-79.5161 I-0.9029 J-0.4299
G1 X51.9996 Y-78.5934
G1 X51.4376 Y-77.439
G1 X50.798 Y-76.0977
G1 X50.1131 Y-74.6124
G1 X49.4153 Y-73.0272
G1 X48.7374 Y-71.387
G1 X48.1123 Y-69.7374
G1 X47.5728 Y-68.1258
G1 X47.1515 Y-66.6022
G1 X46.8795 Y-65.2221
G1 X46.7824 Y-64.0512
G1 X46.865 Y-63.1706
G1 X47.0967 Y-62.5962
G1 X47.4285 Y-62.2211
G1 X47.8349 Y-61.9719
G1 X48.3318 Y-61.831
G1 X48.9381 Y-61.7976
G1 X49.6374 Y-61.876
G1 X50.3982 Y-62.0582
G1 X51.1883 Y-62.3265
G1 X51.9781 Y-62.6578
G1 X52.7408 Y-63.0273
G1 X53.4519 Y-63.4093
G1 X54.0884 Y-63.778
G1 X54.629 Y-64.1085
G1 X55.0545 Y-64.3764
G3 X55.0595 Y-64.3796 I0.5329 J0.8462
G1 X55.3443 Y-64.5566
G3 X55.438 Y-64.6081 I0.5279 J0.8493
G1 X55.5554 Y-64.6647
G3 X56.7737 Y-63.1433 I0.4341 J0.9009
G1 X56.7027 Y-63.0535
G3 X56.6467 Y-62.9887 I-0.7842 J-0.6205
G1 X55.0408 Y-61.2825
G1 X53.6292 Y-59.5756
G1 X52.3796 Y-57.8564
G1 X51.2824 Y-56.1376
G1 X50.328 Y-54.4316
G1 X49.5071 Y-52.7512
G1 X48.8104 Y-51.1091
G1 X48.2286 Y-49.5184
G1 X47.7523 Y-47.9919
G1 X47.3724 Y-46.543
G1 X47.0795 Y-45.1849
G1 X46.8642 Y-43.931
G1 X46.7172 Y-42.7951
G1 X46.629 Y-41.7913
G1 X46.5901 Y-40.9347
G1 X46.5903 Y-40.2149
G1 Y-40.2148
G1 Y-40.2149
G1 X46.5917 Y-36.9871
G3 X46.5904 Y-36.9355 I-1.0 J0.0004
G1 X46.4295 Y-33.7912
G3 X46.4257 Y-33.7415 I-0.9987 J-0.0511
G1 X46.1174 Y-30.6964
G3 X46.1113 Y-30.6484 I-0.9949 J-0.1007
G1 X45.6706 Y-27.7183
G3 X45.6624 Y-27.6715 I-0.9889 J-0.1487
G1 X45.1042 Y-24.8722
G3 X45.0938 Y-24.826 I-0.9807 J-0.1956
G1 X44.433 Y-22.1732
G3 X44.4203 Y-22.1271 I-0.9703 J-0.2417
G1 X43.6719 Y-19.6366
G3 X43.6565 Y-19.5898 I-0.9577 J-0.2878
G1 X42.8354 Y-17.2773
G3 X42.8167 Y-17.2288 I-0.9423 J-0.3346
G1 X41.9377 Y-15.1101
G3 X41.9146 Y-15.0585 I-0.9237 J-0.3832
G1 X40.9928 Y-13.1493
G3 X40.9633 Y-13.0929 I-0.9005 J-0.4348
G1 X40.0135 Y-11.4091
G3 X39.9743 Y-11.3453 I-0.871 J-0.4913
G1 X39.0116 Y-9.9025
G3 X38.9568 Y-9.8281 I-0.8318 J-0.5551
G1 X37.996 Y-8.6422
G3 X37.9144 Y-8.553 I-0.777 J-0.6295
G1 X37.6471 Y-8.2944
G1 Z-2.0
G1 X39.0412 Y-8.4646
G1 X40.381 Y-8.7968
G1 X41.6614 Y-9.2985
G1 X42.8886 Y-9.9814
G1 X44.068 Y-10.8603
G1 X45.202 Y-11.9516
G1 X46.29 Y-13.2715
G1 X47.3293 Y-14.8348
G1 X48.3161 Y-16.6545
G1 X49.2461 Y-18.7421
G1 X50.1156 Y-21.1081
G1 X50.9213 Y-23.7625
G1 X51.6603 Y-26.715
G1 X52.3302 Y-29.9744
G1 X52.6669 Y-32.002
G3 X52.6691 Y-32.0143 I0.9865 J0.1638
G1 X53.0045 Y-33.8887
G3 X53.0077 Y-33.9056 I0.9844 J0.1762
G1 X53.346 Y-35.6255
G3 X53.3506 Y-35.6475 I0.9812 J0.193
G1 X53.6991 Y-37.2306
G3 X53.7055 Y-37.2581 I0.9766 J0.215
G1 X54.0714 Y-38.722
G3 X54.0803 Y-38.7551 I0.9702 J0.2425
G1 X54.4709 Y-40.1174
G3 X54.4827 Y-40.1556 I0.9613 J0.2756
G1 X54.9052 Y-41.4338
G3 X54.9202 Y-41.476 I0.9495 J0.3138
G1 X55.3819 Y-42.6877
G3 X55.4 Y-42.7321 I0.9345 J0.3561
G1 X55.9082 Y-43.895
G3 X55.9289 Y-43.9393 I0.9163 J0.4005
G1 X56.4909 Y-45.0709
G3 X56.513 Y-45.1129 I0.8956 J0.4448
G1 X57.1359 Y-46.2307
G3 X57.1581 Y-46.2686 I0.8735 J0.4868
G1 X57.8493 Y-47.3903
G3 X57.8702 Y-47.4227 I0.8513 J0.5246
G1 X58.637 Y-48.566
G3 X58.6554 Y-48.5925 I0.8305 J0.557
G1 X59.505 Y-49.7748
G3 X59.5203 Y-49.7956 I0.8121 J0.5835
G1 X60.46 Y-51.0346
G3 X60.472 Y-51.05 I0.7968 J0.6043
G1 X61.509 Y-52.3633
G3 X61.6217 Y-52.484 I0.7848 J0.6197
G1 X63.0046 Y-53.7392
G1 X64.3973 Y-55.0894
G1 X65.7976 Y-56.5249
G1 X67.1887 Y-58.0227
G1 X68.5543 Y-59.5599
G1 X69.8784 Y-61.1135
G1 X71.1449 Y-62.6607
G1 X72.3377 Y-64.1786
G1 X73.4408 Y-65.644
G1 X74.438 Y-67.0335
G1 X75.1533 Y-68.0879
G1 X75.0893 Y-68.0331
G3 X75.0662 Y-68.0139 I-0.6507 J-0.7593
G1 X74.4733 Y-67.5359
G3 X74.4405 Y-67.5105 I-0.6276 J-0.7785
G1 X73.8307 Y-67.0593
G3 X73.7883 Y-67.0297 I-0.5948 J-0.8039
G1 X73.1507 Y-66.6071
G3 X73.0998 Y-66.5755 I-0.5524 J-0.8336
G1 X72.4233 Y-66.1832
G3 X72.3659 Y-66.1524 I-0.5016 J-0.8651
G1 X71.6394 Y-65.7922
G3 X71.5781 Y-65.7643 I-0.4442 J-0.8959
G1 X70.7906 Y-65.4378
G3 X70.7283 Y-65.4144 I-0.383 J-0.9237
G1 X69.8689 Y-65.1234
G3 X69.8082 Y-65.105 I-0.3207 J-0.9472
G1 X68.8657 Y-64.8512
G3 X68.8086 Y-64.8376 I-0.26 J-0.9656
G1 X67.7721 Y-64.6227
G3 X67.72 Y-64.6133 I-0.203 J-0.9792
G1 X66.5784 Y-64.4392
G3 X66.4322 Y-64.4277 I-0.1508 J-0.9886
G1 X64.3157 Y-64.4179
G3 X64.0553 Y-64.4511 I-0.0047 J-1.0
G1 X62.4303 Y-64.8811
G3 X62.1124 Y-65.0287 I0.2558 J-0.9667
G1 X60.9414 Y-65.8489
G3 X60.6766 Y-66.1229 I0.5737 J-0.8191
G1 X59.9222 Y-67.2836
G3 X59.7925 Y-67.5782 I0.8384 J-0.545
G1 X59.4171 Y-69.0296
G3 X59.3855 Y-69.2601 I0.9682 J-0.2504
G1 X59.3518 Y-70.9526
G3 X59.3617 Y-71.1147 I0.9998 J-0.0199
G1 X59.6322 Y-72.9987
G3 X59.6554 Y-73.1129 I0.9899 J0.1421
G1 X60.1926 Y-75.1386
G3 X60.2188 Y-75.2226 I0.9666 J0.2563
G1 X60.9852 Y-77.3405
G3 X61.0114 Y-77.4056 I0.9403 J0.3403
G1 X61.9695 Y-79.5659
G3 X61.9952 Y-79.6195 I0.9141 J0.4054
G1 X63.1077 Y-81.7725
G3 X63.1335 Y-81.8193 I0.8884 J0.459
G1 X64.3627 Y-83.9153
G3 X64.3899 Y-83.959 I0.8626 J0.5059
G1 X65.6985 Y-85.9484
G3 X65.7289 Y-85.992 I0.8355 J0.5496
G1 X67.0794 Y-87.825
G3 X67.116 Y-87.8718 I0.8051 J0.5932
G1 X68.471 Y-89.4989
G3 X68.5195 Y-89.553 I0.7684 J0.6399
G1 X69.8414 Y-90.9243
G3 X69.8939 Y-90.975 I0.72 J0.694
G1 X72.1759 Y-93.0204
G1 X74.2133 Y-94.9006
G1 X76.0277 Y-96.6344
G1 X77.636 Y-98.2363
G1 X79.0557 Y-99.7208
G1 X80.3039 Y-101.1025
G1 X81.3982 Y-102.3963
G1 X82.3567 Y-103.6171
G1 X83.1974 Y-104.7804
G1 X83.9387 Y-105.9026
G1 X84.5992 Y-107.0002
G1 X85.1971 Y-108.0904
G1 X85.7504 Y-109.1905
G1 X85.8061 Y-109.3098
G1 X83.6946 Y-107.7669
G3 X83.6101 Y-107.7114 I-0.59 J-0.8074
G1 X79.2091 Y-105.1328
G3 X79.0795 Y-105.069 I-0.5055 J-0.8628
G1 X75.389 Y-103.5719
G3 X75.1794 Y-103.5124 I-0.3759 J-0.9267
G1 X72.1792 Y-103.0065
G3 X71.8458 Y-103.0066 I-0.1663 J-0.9861
G1 X69.5154 Y-103.4016
G3 X69.0997 Y-103.5749 I0.1671 J-0.9859
G1 X67.4187 Y-104.7805
G3 X67.1239 Y-105.1137 I0.5828 J-0.8126
G1 X66.0717 Y-107.0396
G3 X65.964 Y-107.348 I0.8776 J-0.4794
G1 X65.5203 Y-109.9039
G3 X65.5066 Y-110.1215 I0.9853 J-0.171
G1 X65.6509 Y-113.2172
G3 X65.6694 Y-113.3675 I0.9989 J0.0466
G1 X66.3813 Y-116.9126
G3 X66.41 Y-117.0227 I0.9804 J0.1969
G1 X67.669 Y-120.927
G3 X67.7014 Y-121.0135 I0.9517 J0.3069
G1 X69.4871 Y-125.1866
G3 X69.5217 Y-125.2592 I0.9194 J0.3934
G1 X71.8137 Y-129.611
G3 X71.8507 Y-129.6754 I0.8848 J0.466
G1 X74.6285 Y-134.1154
G3 X74.6689 Y-134.1751 I0.8478 J0.5304
G1 X77.9121 Y-138.6131
G3 X77.957 Y-138.6702 I0.8074 J0.59
G1 X79.2201 Y-140.1585
G1 X79.097 Y-140.1254
G3 X79.0135 Y-140.1067 I-0.2597 J-0.9657
G1 X78.059 Y-139.9359
G3 X77.9396 Y-139.9219 I-0.1762 J-0.9844
G1 X77.0363 Y-139.8704
G3 X76.86 Y-139.876 I-0.0569 J-0.9984
G1 X76.0459 Y-139.9739
G3 X75.791 Y-140.0395 I0.1195 J-0.9928
G1 X75.1039 Y-140.3168
G3 X74.7963 Y-140.5128 I0.3743 J-0.9273
G1 X74.2743 Y-140.9995
G3 X74.0407 Y-141.3287 I0.682 J-0.7314
G1 X73.7218 Y-142.0548
G3 X73.6404 Y-142.3789 I0.9156 J-0.4021
G1 X73.5625 Y-143.3744
G3 X73.5713 Y-143.6059 I0.997 J-0.078
G1 X73.7724 Y-144.9007
G3 X73.8078 Y-145.0511 I0.9882 J0.1534
G1 X74.3258 Y-146.6753
G3 X74.3633 Y-146.7742 I0.9527 J0.3039
G1 X75.2362 Y-148.7577
G3 X75.2692 Y-148.8256 I0.9153 J0.4028
G1 X76.535 Y-151.1984
G3 X76.5627 Y-151.247 I0.8823 J0.4707
G1 X78.2594 Y-154.0391
G3 X78.2835 Y-154.0768 I0.8546 J0.5193
G1 X78.6852 Y-154.6757
G3 X78.6885 Y-154.6807 I0.8305 J0.557
G1 X79.1334 Y-155.3354
G3 X79.138 Y-155.3422 I0.8271 J0.562
G1 X79.6301 Y-156.0537
G3 X79.6357 Y-156.0617 I0.8225 J0.5688
G1 X80.1788 Y-156.831
G3 X80.1851 Y-156.8398 I0.8169 J0.5768
G1 X80.7833 Y-157.6678
G3 X80.7902 Y-157.6772 I0.8106 J0.5856
G1 X81.4475 Y-158.5649
G3 X81.4548 Y-158.5746 I0.8037 J0.5951
G1 X82.175 Y-159.5229
G3 X82.1827 Y-159.5328 I0.7964 J0.6048
G1 X82.9698 Y-160.5427
G3 X82.9777 Y-160.5527 I0.7887 J0.6148
G1 X83.8358 Y-161.6251
G3 X83.8438 Y-161.6351 I0.7808 J0.6247
G1 X84.7767 Y-162.771
G3 X84.7849 Y-162.7808 I0.7728 J0.6347
G1 X85.7966 Y-163.9812
G3 X85.8048 Y-163.9908 I0.7646 J0.6444
G1 X86.8993 Y-165.2567
G3 X86.9075 Y-165.2661 I0.7565 J0.654
G1 X87.2915 Y-165.6992
G1 X86.5587 Y-165.3025
G1 X85.4256 Y-164.6859
G1 X84.2689 Y-164.039
G1 X83.0749 Y-163.3407
G1 X81.8296 Y-162.5696
G1 X80.5191 Y-161.7041
G1 X79.1298 Y-160.7227
G1 X77.6484 Y-159.604
G1 X76.062 Y-158.3265
G1 X74.3582 Y-156.8688
G1 X72.5151 Y-155.2014
G3 X72.4913 Y-155.1805 I-0.6709 J-0.7416
G1 X69.0291 Y-152.2426
G1 X65.5232 Y-148.5666
G1 X61.9684 Y-144.2674
G1 X58.4124 Y-139.5116
G1 X54.8982 Y-134.4645
G1 X51.4665 Y-129.29
G1 X48.1567 Y-124.1511
G1 X45.0085 Y-119.2114
G3 X45.006 Y-119.2075 I-0.8433 J-0.5375
G1 X42.0599 Y-114.633
G3 X42.0506 Y-114.6187 I-0.8407 J-0.5414
G1 X39.3463 Y-110.5734
G3 X39.3254 Y-110.5433 I-0.8313 J-0.5558
G1 X36.9011 Y-107.1895
G3 X36.8555 Y-107.1311 I-0.8104 J-0.5858
G1 X34.7495 Y-104.6307
G3 X34.6317 Y-104.5124 I-0.7649 J-0.6442
G1 X32.8823 Y-103.0276
G3 X32.4563 Y-102.8148 I-0.6471 J-0.7624
G1 X31.1016 Y-102.5077
G3 X30.1344 Y-102.8172 I-0.2211 J-0.9753
G1 X29.2128 Y-103.85
G3 X28.9744 Y-104.3409 I0.7461 J-0.6658
G1 X28.5242 Y-106.8756
G3 X28.5089 Y-107.0312 I0.9846 J-0.1749
G1 X28.4818 Y-108.4405
G3 X28.4816 Y-108.4575 I0.9998 J-0.0193
G1 X28.4788 Y-109.7096
G3 X28.479 Y-109.7321 I1.0 J-0.0023
G1 X28.5016 Y-110.8508
G3 X28.5026 Y-110.8789 I0.9998 J0.0202
G1 X28.5514 Y-111.8878
G3 X28.5536 Y-111.9215 I0.9988 J0.0483
G1 X28.6295 Y-112.8444
G3 X28.6333 Y-112.8822 I0.9966 J0.082
G1 X28.7372 Y-113.7428
G3 X28.7428 Y-113.7824 I0.9928 J0.1198
G1 X28.8755 Y-114.6043
G3 X28.8824 Y-114.6422 I0.9872 J0.1594
G1 X29.0449 Y-115.4492
G3 X29.0521 Y-115.4822 I0.9803 J0.1974
G1 X29.2452 Y-116.2979
G3 X29.2516 Y-116.3235 I0.9731 J0.2304
G1 X29.4762 Y-117.1717
G3 X29.481 Y-117.1891 I0.9667 J0.256
G1 X29.738 Y-118.0934
G3 X29.7408 Y-118.1029 I0.9619 J0.2734
G1 X30.0311 Y-119.0871
G3 X30.032 Y-119.09 I0.9591 J0.2829
G1 X30.3561 Y-120.1767
G1 X30.4555 Y-120.5125
G1 X30.0206 Y-120.0577
G1 X29.4123 Y-119.3684
G1 X28.8136 Y-118.6142
G1 X28.2223 Y-117.7703
G1 X27.637 Y-116.8115
G1 X27.0574 Y-115.7128
G1 X26.4845 Y-114.4498
G1 X25.9201 Y-112.9987
G1 X25.3662 Y-111.3368
G1 X24.8252 Y-109.4416
G1 X24.2993 Y-107.2913
G1 X23.8108 Y-104.9593
G1 X23.8473 Y-102.7156
G1 X23.9224 Y-100.5296
G1 X24.0284 Y-98.4944
G1 X24.1588 Y-96.6005
G1 X24.3076 Y-94.8383
G1 X24.4685 Y-93.1981
G1 X24.6354 Y-91.67
G1 X24.8023 Y-90.244
G1 X24.9628 Y-88.9109
G3 X24.963 Y-88.909 I-0.9928 J0.1196
G1 X25.1107 Y-87.662
G3 X25.1117 Y-87.6535 I-0.9931 J0.1176
G1 X25.24 Y-86.4851
G3 X25.2417 Y-86.4689 I-0.994 J0.1092
G1 X25.3443 Y-85.3699
G3 X25.3464 Y-85.3448 I-0.9957 J0.093
G1 X25.4171 Y-84.3061
G3 X25.4189 Y-84.2711 I-0.9977 J0.068
G1 X25.4514 Y-83.2835
G3 X25.4519 Y-83.2379 I-0.9995 J0.0329
G1 X25.4398 Y-82.2924
G3 X25.4376 Y-82.2364 I-0.9999 J-0.0127
G1 X25.3799 Y-81.4002
G1 X25.4755 Y-80.2637
G3 X25.4784 Y-80.2157 I-0.9965 J0.0838
G1 X25.5182 Y-79.1051
G3 X25.5186 Y-79.0508 I-0.9994 J0.0358
G1 X25.5 Y-78.0399
G3 X25.4969 Y-77.9784 I-0.9998 J-0.0185
G1 X25.4236 Y-77.0646
G3 X25.4155 Y-76.9948 I-0.9968 J-0.08
G1 X25.2914 Y-76.1756
G3 X25.276 Y-76.0963 I-0.9887 J-0.1498
G1 X25.1049 Y-75.3692
G3 X25.0793 Y-75.2796 I-0.9734 J-0.2292
G1 X24.8649 Y-74.6421
G3 X24.8252 Y-74.5421 I-0.9478 J-0.3188
G1 X24.5714 Y-73.9917
G3 X24.5127 Y-73.8828 I-0.9081 J-0.4187
G1 X24.2233 Y-73.4169
G3 X24.1408 Y-73.3028 I-0.8494 J-0.5277
G1 X23.8196 Y-72.919
G3 X23.7097 Y-72.8069 I-0.7669 J-0.6418
G1 X23.3605 Y-72.5026
G3 X23.2235 Y-72.4023 I-0.657 J-0.7539
G1 X22.8501 Y-72.175
G3 X22.6919 Y-72.097 I-0.5199 J-0.8542
G1 X22.2981 Y-71.9442
G3 X22.1296 Y-71.8953 I-0.3617 J-0.9323
G1 X21.7192 Y-71.8145
G3 X21.5528 Y-71.796 I-0.1932 J-0.9812
G1 X21.1297 Y-71.7847
G3 X20.9752 Y-71.7926 I-0.0267 J-0.9996
G1 X20.5432 Y-71.8482
G3 X20.3093 Y-71.9077 I0.1277 J-0.9918
G1 X19.3445 Y-72.2819
G3 X19.2339 Y-72.3327 I0.3616 J-0.9323
G1 X18.3682 Y-72.7965
G3 X18.2676 Y-72.8582 I0.4722 J-0.8815
G1 X17.4907 Y-73.401
G3 X17.4047 Y-73.4683 I0.5727 J-0.8198
G1 X16.7064 Y-74.0796
G3 X16.6368 Y-74.1466 I0.6586 J-0.7525
G1 X16.0069 Y-74.8158
G3 X15.9533 Y-74.8776 I0.7282 J-0.6854
G1 X15.3816 Y-75.5943
G3 X15.3422 Y-75.6472 I0.7817 J-0.6236
G1 X14.8185 Y-76.4007
G3 X14.7909 Y-76.4426 I0.8212 J-0.5707
G1 X14.305 Y-77.2224
G3 X14.2872 Y-77.2522 I0.8488 J-0.5288
G1 X13.829 Y-78.0478
G3 X13.8195 Y-78.0647 I0.8666 J-0.4991
G1 X13.5025 Y-78.6406
G1 X14.1117 Y-75.5634
G3 X14.1148 Y-75.5467 I-0.981 J0.1942
G1 X14.8883 Y-71.2578
G3 X14.8909 Y-71.2426 I-0.9841 J0.1775
G1 X15.6045 Y-66.9035
G3 X15.6067 Y-66.8895 I-0.9867 J0.1623
G1 X16.2601 Y-62.531
G3 X16.262 Y-62.5178 I-0.9889 J0.1483
G1 X16.8549 Y-58.1707
G3 X16.8565 Y-58.1582 I-0.9908 J0.1351
G1 X17.3885 Y-53.853
G3 X17.39 Y-53.841 I-0.9925 J0.1226
G1 X17.8608 Y-49.6086
G3 X17.862 Y-49.5967 I-0.9939 J0.1106
G1 X18.2713 Y-45.468
G3 X18.2725 Y-45.456 I-0.9951 J0.0986
G1 X18.6199 Y-41.4616
G3 X18.6209 Y-41.4492 I-0.9962 J0.0867
G1 X18.9061 Y-37.6199
G3 X18.907 Y-37.6068 I-0.9972 J0.0743
G1 X19.1297 Y-33.9734
G3 X19.1305 Y-33.9591 I-0.9981 J0.0612
G1 X19.2903 Y-30.5522
G3 X19.2909 Y-30.536 I-0.9989 J0.0469
G1 X19.3875 Y-27.3865
G3 X19.3879 Y-27.3674 I-0.9995 J0.0307
G1 X19.421 Y-24.506
G3 Y-24.4823 I-0.9999 J0.0116
G1 X19.391 Y-22.0109
G1 X19.4414 Y-21.6256
G1 X19.6021 Y-21.0797
G1 X19.8839 Y-20.3752
G1 X20.2743 Y-19.5572
G1 X20.7599 Y-18.6569
G1 X21.3277 Y-17.7003
G1 X21.9652 Y-16.7112
G1 X22.6598 Y-15.7121
G1 X23.3989 Y-14.7255
G1 X24.1697 Y-13.7732
G1 X24.9589 Y-12.8774
G1 X25.7525 Y-12.0603
G1 X26.0272 Y-11.809
G1 X25.6308 Y-12.8383
G3 X25.615 Y-12.8826 I0.9332 J-0.3593
G1 X24.93 Y-14.946
G3 X24.9168 Y-14.9889 I0.9491 J-0.315
G1 X24.3326 Y-17.055
G3 X24.322 Y-17.0959 I0.9623 J-0.2721
G1 X23.8301 Y-19.1659
G3 X23.8218 Y-19.2043 I0.9729 J-0.2312
G1 X23.414 Y-21.2794
G3 X23.4077 Y-21.3147 I0.9812 J-0.1928
G1 X23.0756 Y-23.396
G3 X23.0711 Y-23.4279 I0.9875 J-0.1575
G1 X22.8064 Y-25.5167
G3 X22.8033 Y-25.5449 I0.9921 J-0.1257
G1 X22.5978 Y-27.6423
G3 X22.5957 Y-27.6666 I0.9952 J-0.0975
G1 X22.441 Y-29.7738
G3 X22.4397 Y-29.7941 I0.9973 J-0.0732
G1 X22.3274 Y-31.9124
G3 X22.3267 Y-31.9287 I0.9986 J-0.0529
G1 X22.2486 Y-34.059
G3 X22.2482 Y-34.0713 I0.9993 J-0.0366
G1 X22.196 Y-36.215
G3 X22.1958 Y-36.2233 I0.9997 J-0.0244
G1 X22.1611 Y-38.3816
G3 Y-38.3859 I0.9999 J-0.0161
G1 X22.1356 Y-40.5599
G3 Y-40.5603 I0.9999 J-0.0117
G1 X22.111 Y-42.7512
G3 X22.1116 Y-42.8003 I0.9999 J-0.0112
G1 X22.1891 Y-44.8419
G3 X22.1948 Y-44.9169 I0.9993 J0.0379
G1 X22.4717 Y-47.354
G3 X22.4783 Y-47.4016 I0.9936 J0.1129
G1 X22.9262 Y-50.1564
G3 X22.9321 Y-50.1894 I0.987 J0.1605
G1 X23.5226 Y-53.1841
G3 X23.5278 Y-53.2085 I0.9811 J0.1935
G1 X24.2324 Y-56.3653
G3 X24.2369 Y-56.3844 I0.976 J0.2179
G1 X25.0272 Y-59.6255
G3 X25.0312 Y-59.6411 I0.9715 J0.2369
G1 X25.8789 Y-62.8887
G3 X25.8825 Y-62.9021 I0.9676 J0.2526
G1 X26.759 Y-66.0783
G3 X26.7625 Y-66.0905 I0.964 J0.266
G1 X27.6394 Y-69.1175
G3 X27.6429 Y-69.1294 I0.9605 J0.2783
G1 X28.4919 Y-71.9295
G3 X28.4958 Y-71.942 I0.957 J0.2902
G1 X29.2883 Y-74.4372
G3 X29.2932 Y-74.4522 I0.9531 J0.3027
G1 X30.0009 Y-76.5648
G3 X30.0081 Y-76.5856 I0.9482 J0.3176
G1 X30.6025 Y-78.2378
G3 X30.617 Y-78.2758 I0.941 J0.3385
G1 X31.0697 Y-79.3897
G3 X31.1264 Y-79.5068 I0.9264 J0.3765
G1 X31.409 Y-80.0047
G3 X33.1979 Y-79.905 I0.8697 J0.4936
G1 X33.2818 Y-79.709
G3 X33.3588 Y-79.227 I-0.9192 J0.3938
G1 X33.2865 Y-78.4097
G3 X33.2827 Y-78.374 I-0.9961 J-0.0881
G1 X33.1328 Y-77.1723
G3 X33.1313 Y-77.1607 I-0.9923 J-0.1238
G1 X32.9263 Y-75.6606
G3 X32.9261 Y-75.6586 I-0.9908 J-0.1354
G1 X32.6889 Y-73.9485
G1 X32.4423 Y-72.117
G1 X32.209 Y-70.2515
G1 X32.0114 Y-68.4402
G1 X31.872 Y-66.7743
G1 X31.8124 Y-65.3527
G1 X31.8209 Y-65.1055
G1 X32.49 Y-66.3355
G1 X33.599 Y-68.7512
G1 X34.1677 Y-70.107
G1 X34.8261 Y-71.7517
G1 X35.5558 Y-73.6354
G1 X36.3404 Y-75.7134
G1 X37.164 Y-77.9413
G1 X38.0108 Y-80.2755
G1 X38.8651 Y-82.6722
G1 X39.7112 Y-85.0879
G1 X40.5334 Y-87.4788
G1 X41.3161 Y-89.8015
G1 X42.0434 Y-92.012
G1 X42.6997 Y-94.0663
G1 X43.2689 Y-95.9196
G1 X43.7348 Y-97.5258
G1 X44.0804 Y-98.8344
G1 X44.2971 Y-99.827
G3 X44.3202 Y-99.914 I0.977 J0.2133
G1 X44.3356 Y-99.9629
G3 X46.2829 Y-99.5486 I0.9538 J0.3003
G1 X46.2456 Y-99.2227
G3 X46.2446 Y-99.2148 I-0.9935 J-0.1139
G1 X46.164 Y-98.5579
G1 X46.0496 Y-97.6142
G1 X45.9108 Y-96.427
G1 X45.757 Y-95.0385
G1 X45.5974 Y-93.4916
G1 X45.4414 Y-91.8297
G1 X45.2985 Y-90.096
G1 X45.1778 Y-88.3344
G1 X45.0888 Y-86.589
G1 X45.0405 Y-84.9045
G1 X45.0419 Y-83.327
G1 X45.1011 Y-81.9053
G1 X45.2238 Y-80.6934
G1 X45.4098 Y-79.7488
G1 X45.6364 Y-79.1055
G1 X45.8776 Y-78.6926
G1 X46.1002 Y-78.4653
G1 X46.305 Y-78.352
G1 X46.5389 Y-78.3017
G1 X46.8467 Y-78.3142
G1 X47.2337 Y-78.408
G1 X47.6805 Y-78.5892
G1 X48.1631 Y-78.8504
G1 X48.6607 Y-79.1772
G1 X49.1563 Y-79.5525
G1 X49.6352 Y-79.9581
G1 X50.0843 Y-80.3755
G1 X50.4915 Y-80.7859
G1 X50.8446 Y-81.1701
G1 X51.1458 Y-81.5246
G3 X51.4254 Y-81.753 I0.7621 J0.6475
G1 X51.5064 Y-81.7976
G3 X52.9168 Y-80.549 I0.4825 J0.8759
G1 X52.7876 Y-80.2273
G3 X52.7625 Y-80.1701 I-0.9279 J-0.3727
G1 X52.4557 Y-79.5257
G3 X52.451 Y-79.5161 I-0.9029 J-0.4299
G1 X51.9996 Y-78.5934
G1 X51.4376 Y-77.439
G1 X50.798 Y-76.0977
G1 X50.1131 Y-74.6124
G1 X49.4153 Y-73.0272
G1 X48.7374 Y-71.387
G1 X48.1123 Y-69.7374
G1 X47.5728 Y-68.1258
G1 X47.1515 Y-66.6022
G1 X46.8795 Y-65.2221
G1 X46.7824 Y-64.0512
G1 X46.865 Y-63.1706
G1 X47.0967 Y-62.5962
G1 X47.4285 Y-62.2211
G1 X47.8349 Y-61.9719
G1 X48.3318 Y-61.831
G1 X48.9381 Y-61.7976
G1 X49.6374 Y-61.876
G1 X50.3982 Y-62.0582
G1 X51.1883 Y-62.3265
G1 X51.9781 Y-62.6578
G1 X52.7408 Y-63.0273
G1 X53.4519 Y-63.4093
G1 X54.0884 Y-63.778
G1 X54.629 Y-64.1085
G1 X55.0545 Y-64.3764
G3 X55.0595 Y-64.3796 I0.5329 J0.8462
G1 X55.3443 Y-64.5566
G3 X55.438 Y-64.6081 I0.5279 J0.8493
G1 X55.5554 Y-64.6647
G3 X56.7737 Y-63.1433 I0.4341 J0.9009
G1 X56.7027 Y-63.0535
G3 X56.6467 Y-62.9887 I-0.7842 J-0.6205
G1 X55.0408 Y-61.2825
G1 X53.6292 Y-59.5756
G1 X52.3796 Y-57.8564
G1 X51.2824 Y-56.1376
G1 X50.328 Y-54.4316
G1 X49.5071 Y-52.7512
G1 X48.8104 Y-51.1091
G1 X48.2286 Y-49.5184
G1 X47.7523 Y-47.9919
G1 X47.3724 Y-46.543
G1 X47.0795 Y-45.1849
G1 X46.8642 Y-43.931
G1 X46.7172 Y-42.7951
G1 X46.629 Y-41.7913
G1 X46.5901 Y-40.9347
G1 X46.5903 Y-40.2149
G1 Y-40.2148
G1 Y-40.2149
G1 X46.5917 Y-36.9871
G3 X46.5904 Y-36.9355 I-1.0 J0.0004
G1 X46.4295 Y-33.7912
G3 X46.4257 Y-33.7415 I-0.9987 J-0.0511
G1 X46.1174 Y-30.6964
G3 X46.1113 Y-30.6484 I-0.9949 J-0.1007
G1 X45.6706 Y-27.7183
G3 X45.6624 Y-27.6715 I-0.9889 J-0.1487
G1 X45.1042 Y-24.8722
G3 X45.0938 Y-24.826 I-0.9807 J-0.1956
G1 X44.433 Y-22.1732
G3 X44.4203 Y-22.1271 I-0.9703 J-0.2417
G1 X43.6719 Y-19.6366
G3 X43.6565 Y-19.5898 I-0.9577 J-0.2878
G1 X42.8354 Y-17.2773
G3 X42.8167 Y-17.2288 I-0.9423 J-0.3346
G1 X41.9377 Y-15.1101
G3 X41.9146 Y-15.0585 I-0.9237 J-0.3832
G1 X40.9928 Y-13.1493
G3 X40.9633 Y-13.0929 I-0.9005 J-0.4348
G1 X40.0135 Y-11.4091
G3 X39.9743 Y-11.3453 I-0.871 J-0.4913
G1 X39.0116 Y-9.9025
G3 X38.9568 Y-9.8281 I-0.8318 J-0.5551
G1 X37.996 Y-8.6422
G3 X37.9144 Y-8.553 I-0.777 J-0.6295
G1 X37.6471 Y-8.2944
G0 Z3.0
M5
M30
