( Made using CamBam - http://www.cambam.co.uk )
( wood-cutout_right 11/3/2013 12:14:19 PM )
( T202 : 1.5 )
G21 G90 G91.1 G64 G40
G0 Z3.0
( T202 : 1.5 )
T202 M6
( Profile1 )
G17
M3 S1000
G0 X0.0 Y73.25
G0 Z0.01
G1 F300.0 Z-0.4
G1 F800.0 X10.0
G2 X31.25 Y52.0 I0.0 J-21.25
G1 Y22.0
G2 X10.0 Y0.75 I-21.25 J0.0
G1 X0.0
G0 Z3.0
G0 Y73.25
G0 Z-0.39
G1 F300.0 Z-0.8
G1 F800.0 X10.0
G2 X31.25 Y52.0 I0.0 J-21.25
G1 Y22.0
G2 X10.0 Y0.75 I-21.25 J0.0
G1 X0.0
G0 Z3.0
G0 Y73.25
G0 Z-0.79
G1 F300.0 Z-1.2
G1 F800.0 X10.0
G2 X31.25 Y52.0 I0.0 J-21.25
G1 Y22.0
G2 X10.0 Y0.75 I-21.25 J0.0
G1 X0.0
G0 Z3.0
G0 Y73.25
G0 Z-1.19
G1 F300.0 Z-1.6
G1 F800.0 X10.0
G2 X31.25 Y52.0 I0.0 J-21.25
G1 Y22.0
G2 X10.0 Y0.75 I-21.25 J0.0
G1 X0.0
G0 Z3.0
G0 Y73.25
G0 Z-1.59
G1 F300.0 Z-2.0
G1 F800.0 X10.0
G2 X31.25 Y52.0 I0.0 J-21.25
G1 Y22.0
G2 X10.0 Y0.75 I-21.25 J0.0
G1 X0.0
G0 Z3.0
G0 Y73.25
G0 Z-1.99
G1 F300.0 Z-2.4
G1 F800.0 X10.0
G2 X31.25 Y52.0 I0.0 J-21.25
G1 Y22.0
G2 X10.0 Y0.75 I-21.25 J0.0
G1 X0.0
G0 Z3.0
G0 Y73.25
G0 Z-2.39
G1 F300.0 Z-2.8
G1 F800.0 X10.0
G2 X31.25 Y52.0 I0.0 J-21.25
G1 Y22.0
G2 X10.0 Y0.75 I-21.25 J0.0
G1 X0.0
G0 Z3.0
G0 Y73.25
G0 Z-2.79
G1 F300.0 Z-3.2
G1 F800.0 X10.0
G2 X31.25 Y52.0 I0.0 J-21.25
G1 Y22.0
G2 X10.0 Y0.75 I-21.25 J0.0
G1 X0.0
G0 Z3.0
G0 Y73.25
G0 Z-3.19
G1 F300.0 Z-3.6
G1 F800.0 X10.0
G2 X31.25 Y52.0 I0.0 J-21.25
G1 Y22.0
G2 X10.0 Y0.75 I-21.25 J0.0
G1 X0.0
G0 Z3.0
G0 Y73.25
G0 Z-3.59
G1 F300.0 Z-4.0
G1 F800.0 X10.0
G2 X31.25 Y52.0 I0.0 J-21.25
G1 Y22.0
G2 X10.0 Y0.75 I-21.25 J0.0
G1 X0.0
G0 Z3.0
G0 Y73.25
G0 Z-3.99
G1 F300.0 Z-4.4
G1 F800.0 X10.0
G2 X31.25 Y52.0 I0.0 J-21.25
G1 Y22.0
G2 X10.0 Y0.75 I-21.25 J0.0
G1 X0.0
G0 Z3.0
G0 Y73.25
G0 Z-4.39
G1 F300.0 Z-4.8
G1 F800.0 X10.0
G2 X31.25 Y52.0 I0.0 J-21.25
G1 Y22.0
G2 X10.0 Y0.75 I-21.25 J0.0
G1 X0.0
G0 Z3.0
G0 Y73.25
G0 Z-4.79
G1 F300.0 Z-5.2
G1 F800.0 X10.0
G2 X31.25 Y52.0 I0.0 J-21.25
G1 Y22.0
G2 X10.0 Y0.75 I-21.25 J0.0
G1 X0.0
G0 Z3.0
G0 Y73.25
G0 Z-5.19
G1 F300.0 Z-5.6
G1 F800.0 X10.0
G2 X31.25 Y52.0 I0.0 J-21.25
G1 Y22.0
G2 X10.0 Y0.75 I-21.25 J0.0
G1 X0.0
G0 Z3.0
G0 Y73.25
G0 Z-5.59
G1 F300.0 Z-6.0
G1 F800.0 X10.0
G2 X31.25 Y52.0 I0.0 J-21.25
G1 Y22.0
G2 X10.0 Y0.75 I-21.25 J0.0
G1 X0.0
G0 Z3.0
G0 Y73.25
G0 Z-5.99
G1 F300.0 Z-6.4
G1 F800.0 X10.0
G2 X31.25 Y52.0 I0.0 J-21.25
G1 Y22.0
G2 X10.0 Y0.75 I-21.25 J0.0
G1 X0.0
G0 Z3.0
G0 Y73.25
G0 Z-6.39
G1 F300.0 Z-6.8
G1 F800.0 X10.0
G2 X31.25 Y52.0 I0.0 J-21.25
G1 Y22.0
G2 X10.0 Y0.75 I-21.25 J0.0
G1 X0.0
G0 Z3.0
G0 Y73.25
G0 Z-6.79
G1 F300.0 Z-7.2
G1 F800.0 X10.0
G2 X31.25 Y52.0 I0.0 J-21.25
G1 Y22.0
G2 X10.0 Y0.75 I-21.25 J0.0
G1 X0.0
G0 Z3.0
G0 Y73.25
G0 Z-7.19
G1 F300.0 Z-7.6
G1 F800.0 X10.0
G2 X31.25 Y52.0 I0.0 J-21.25
G1 Y22.0
G2 X10.0 Y0.75 I-21.25 J0.0
G1 X0.0
G0 Z3.0
G0 Y73.25
G0 Z-7.59
G1 F300.0 Z-8.0
G1 F800.0 X10.0
G2 X31.25 Y52.0 I0.0 J-21.25
G1 Y22.0
G2 X10.0 Y0.75 I-21.25 J0.0
G1 X0.0
G0 Z3.0
G0 Y73.25
G0 Z-7.99
G1 F300.0 Z-8.4
G1 F800.0 X10.0
G2 X31.25 Y52.0 I0.0 J-21.25
G1 Y22.0
G2 X10.0 Y0.75 I-21.25 J0.0
G1 X0.0
G0 Z3.0
G0 Y73.25
G0 Z-8.39
G1 F300.0 Z-8.8
G1 F800.0 X10.0
G2 X31.25 Y52.0 I0.0 J-21.25
G1 Y22.0
G2 X10.0 Y0.75 I-21.25 J0.0
G1 X0.0
G0 Z3.0
G0 Y73.25
G0 Z-8.79
G1 F300.0 Z-9.2
G1 F800.0 X10.0
G2 X31.25 Y52.0 I0.0 J-21.25
G1 Y22.0
G2 X10.0 Y0.75 I-21.25 J0.0
G1 X0.0
G0 Z3.0
G0 Y73.25
G0 Z-9.19
G1 F300.0 Z-9.6
G1 F800.0 X10.0
G2 X31.25 Y52.0 I0.0 J-21.25
G1 Y22.0
G2 X10.0 Y0.75 I-21.25 J0.0
G1 X0.0
G0 Z3.0
G0 Y73.25
G0 Z-9.59
G1 F300.0 Z-10.0
G1 F800.0 X10.0
G2 X31.25 Y52.0 I0.0 J-21.25
G1 Y22.0
G2 X10.0 Y0.75 I-21.25 J0.0
G1 X0.0
G0 Z3.0
G0 Y73.25
G0 Z-9.99
G1 F300.0 Z-10.4
G1 F800.0 X10.0
G2 X31.25 Y52.0 I0.0 J-21.25
G1 Y22.0
G2 X10.0 Y0.75 I-21.25 J0.0
G1 X0.0
G0 Z3.0
G0 Y73.25
G0 Z-10.39
G1 F300.0 Z-10.8
G1 F800.0 X10.0
G2 X31.25 Y52.0 I0.0 J-21.25
G1 Y22.0
G2 X10.0 Y0.75 I-21.25 J0.0
G1 X0.0
G0 Z3.0
G0 Y73.25
G0 Z-10.79
G1 F300.0 Z-11.2
G1 F800.0 X10.0
G2 X31.25 Y52.0 I0.0 J-21.25
G1 Y22.0
G2 X10.0 Y0.75 I-21.25 J0.0
G1 X0.0
G0 Z3.0
G0 Y73.25
G0 Z-11.19
G1 F300.0 Z-11.6
G1 F800.0 X10.0
G2 X31.25 Y52.0 I0.0 J-21.25
G1 Y22.0
G2 X10.0 Y0.75 I-21.25 J0.0
G1 X0.0
G0 Z3.0
G0 Y73.25
G0 Z-11.59
G1 F300.0 Z-12.0
G1 F800.0 X10.0
G2 X31.25 Y52.0 I0.0 J-21.25
G1 Y22.0
G2 X10.0 Y0.75 I-21.25 J0.0
G1 X0.0
G0 Z3.0
M5
M30
