( Made using CamBam - http://www.cambam.co.uk )
( square-30-50 9/12/2014 3:39:30 PM )
( T202 : 1.5 )
G21 G90 G91.1 G64 G40
G0 Z3.0
( T202 : 1.5 )
T202 M6
( Drill-rivets )
G17
M3 S1000
G0 X10.0 Y10.0
G0 Z3.0
G0 X10.95 Y10.0
G0 Z1.0
G1 F300.0 Z0.0
G2 X9.525 Y9.1773 Z-0.1 I-0.95 J0.0
G2 Y10.8227 Z-0.2 I0.475 J0.8227
G2 X10.95 Y10.0 Z-0.3 I0.475 J-0.8227
G2 X9.525 Y9.1773 Z-0.4 I-0.95 J0.0
G2 Y10.8227 Z-0.5 I0.475 J0.8227
G2 X10.95 Y10.0 Z-0.6 I0.475 J-0.8227
G2 X9.525 Y9.1773 Z-0.7 I-0.95 J0.0
G2 Y10.8227 Z-0.8 I0.475 J0.8227
G2 X10.95 Y10.0 Z-0.9 I0.475 J-0.8227
G2 X9.525 Y9.1773 Z-1.0 I-0.95 J0.0
G2 Y10.8227 I0.475 J0.8227
G2 X10.95 Y10.0 I0.475 J-0.8227
G2 X9.525 Y9.1773 I-0.95 J0.0
G0 Z3.0
G0 X10.95 Y40.0
G0 Z1.0
G1 Z0.0
G2 X9.525 Y39.1773 Z-0.1 I-0.95 J0.0
G2 Y40.8227 Z-0.2 I0.475 J0.8227
G2 X10.95 Y40.0 Z-0.3 I0.475 J-0.8227
G2 X9.525 Y39.1773 Z-0.4 I-0.95 J0.0
G2 Y40.8227 Z-0.5 I0.475 J0.8227
G2 X10.95 Y40.0 Z-0.6 I0.475 J-0.8227
G2 X9.525 Y39.1773 Z-0.7 I-0.95 J0.0
G2 Y40.8227 Z-0.8 I0.475 J0.8227
G2 X10.95 Y40.0 Z-0.9 I0.475 J-0.8227
G2 X9.525 Y39.1773 Z-1.0 I-0.95 J0.0
G2 Y40.8227 I0.475 J0.8227
G2 X10.95 Y40.0 I0.475 J-0.8227
G2 X9.525 Y39.1773 I-0.95 J0.0
G0 Z3.0
G0 X60.95 Y40.0
G0 Z1.0
G1 Z0.0
G2 X59.525 Y39.1773 Z-0.1 I-0.95 J0.0
G2 Y40.8227 Z-0.2 I0.475 J0.8227
G2 X60.95 Y40.0 Z-0.3 I0.475 J-0.8227
G2 X59.525 Y39.1773 Z-0.4 I-0.95 J0.0
G2 Y40.8227 Z-0.5 I0.475 J0.8227
G2 X60.95 Y40.0 Z-0.6 I0.475 J-0.8227
G2 X59.525 Y39.1773 Z-0.7 I-0.95 J0.0
G2 Y40.8227 Z-0.8 I0.475 J0.8227
G2 X60.95 Y40.0 Z-0.9 I0.475 J-0.8227
G2 X59.525 Y39.1773 Z-1.0 I-0.95 J0.0
G2 Y40.8227 I0.475 J0.8227
G2 X60.95 Y40.0 I0.475 J-0.8227
G2 X59.525 Y39.1773 I-0.95 J0.0
G0 Z3.0
G0 X60.95 Y10.0
G0 Z1.0
G1 Z0.0
G2 X59.525 Y9.1773 Z-0.1 I-0.95 J0.0
G2 Y10.8227 Z-0.2 I0.475 J0.8227
G2 X60.95 Y10.0 Z-0.3 I0.475 J-0.8227
G2 X59.525 Y9.1773 Z-0.4 I-0.95 J0.0
G2 Y10.8227 Z-0.5 I0.475 J0.8227
G2 X60.95 Y10.0 Z-0.6 I0.475 J-0.8227
G2 X59.525 Y9.1773 Z-0.7 I-0.95 J0.0
G2 Y10.8227 Z-0.8 I0.475 J0.8227
G2 X60.95 Y10.0 Z-0.9 I0.475 J-0.8227
G2 X59.525 Y9.1773 Z-1.0 I-0.95 J0.0
G2 Y10.8227 I0.475 J0.8227
G2 X60.95 Y10.0 I0.475 J-0.8227
G2 X59.525 Y9.1773 I-0.95 J0.0
( Drill-lines )
S1000
G0 Z3.0
G0 X3.0 Y30.0
G98
G81 X3.0 Y30.0 Z-1.0 R3.0 F300.0
G81 X10.0 Z-1.0
G81 X17.0 Z-1.0
G81 X30.0 Y35.0 Z-1.0
G81 Y40.0 Z-1.0
G81 Y47.0 Z-1.0
G81 X53.0 Y30.0 Z-1.0
G81 X60.0 Z-1.0
G81 X67.0 Z-1.0
G80
( Profile-outline )
S1000
G0 Z3.0
G0 X-0.75 Y10.0
G0 Z1.0
G1 F300.0 Z-0.3
G3 X20.75 I10.75 J0.0
G1 Y30.0
G2 X22.0 Y31.25 I1.25 J0.0
G1 X48.0
G2 X49.25 Y30.0 I0.0 J-1.25
G1 Y10.0
G3 X70.75 I10.75 J0.0
G0 Z3.0
G0 Y13.0
G0 Z1.0
G1 Z-0.3
G1 Y37.0
G0 Z3.0
G0 Y40.0037
G0 Z1.0
G1 Z-0.3
G3 X60.0037 Y50.75 I-10.8002 J-0.054
G0 Z3.0
G0 X57.0
G0 Z1.0
G1 Z-0.3
G1 X13.0
G0 Z3.0
G0 X11.0731 Y50.7464
G0 Z1.0
G1 Z-0.3
G3 X-0.75 Y39.9981 I-1.0505 J-10.7213
G0 Z3.0
G0 Y37.0
G0 Z1.0
G1 Z-0.3
G1 Y13.0
G0 Z3.0
G0 Y10.0
G0 Z0.7
G1 Z-0.6
G3 X20.75 I10.75 J0.0
G1 Y30.0
G2 X22.0 Y31.25 I1.25 J0.0
G1 X48.0
G2 X49.25 Y30.0 I0.0 J-1.25
G1 Y10.0
G3 X70.75 I10.75 J0.0
G0 Z3.0
G0 Y13.0
G0 Z0.7
G1 Z-0.6
G1 Y37.0
G0 Z3.0
G0 Y40.0037
G0 Z0.7
G1 Z-0.6
G3 X60.0037 Y50.75 I-10.8002 J-0.054
G0 Z3.0
G0 X57.0
G0 Z0.7
G1 Z-0.6
G1 X13.0
G0 Z3.0
G0 X11.0731 Y50.7464
G0 Z0.7
G1 Z-0.6
G3 X-0.75 Y39.9981 I-1.0505 J-10.7213
G0 Z3.0
G0 Y37.0
G0 Z0.7
G1 Z-0.6
G1 Y13.0
G0 Z3.0
G0 Y10.0
G0 Z0.4
G1 Z-0.9
G3 X20.75 I10.75 J0.0
G1 Y30.0
G2 X22.0 Y31.25 I1.25 J0.0
G1 X48.0
G2 X49.25 Y30.0 I0.0 J-1.25
G1 Y10.0
G3 X70.75 I10.75 J0.0
G0 Z3.0
G0 Y13.0
G0 Z0.4
G1 Z-0.9
G1 Y37.0
G0 Z3.0
G0 Y40.0037
G0 Z0.4
G1 Z-0.9
G3 X60.0037 Y50.75 I-10.8002 J-0.054
G0 Z3.0
G0 X57.0
G0 Z0.4
G1 Z-0.9
G1 X13.0
G0 Z3.0
G0 X11.0731 Y50.7464
G0 Z0.4
G1 Z-0.9
G3 X-0.75 Y39.9981 I-1.0505 J-10.7213
G0 Z3.0
G0 Y37.0
G0 Z0.4
G1 Z-0.9
G1 Y13.0
G0 Z3.0
G0 Y10.0
G0 Z0.1
G1 Z-1.0
G3 X20.75 I10.75 J0.0
G1 Y30.0
G2 X22.0 Y31.25 I1.25 J0.0
G1 X48.0
G2 X49.25 Y30.0 I0.0 J-1.25
G1 Y10.0
G3 X70.75 I10.75 J0.0
G0 Z3.0
G0 Y13.0
G0 Z0.1
G1 Z-1.0
G1 Y37.0
G0 Z3.0
G0 Y40.0037
G0 Z0.1
G1 Z-1.0
G3 X60.0037 Y50.75 I-10.8002 J-0.054
G0 Z3.0
G0 X57.0
G0 Z0.1
G1 Z-1.0
G1 X13.0
G0 Z3.0
G0 X11.0731 Y50.7464
G0 Z0.1
G1 Z-1.0
G3 X-0.75 Y39.9981 I-1.0505 J-10.7213
G0 Z3.0
G0 Y37.0
G0 Z0.1
G1 Z-1.0
G1 Y13.0
G0 Z3.0
M5
M30
